;FLAVOR:Marlin
;TIME:11452
;Filament used: 3.98378m
;Layer height: 0.1
;MINX:96
;MINY:90
;MINZ:0.2
;MAXX:202
;MAXY:204
;MAXZ:11.42
;Generated with Cura_SteamEngine 4.4.1
M140 S60
M105
M190 S60
M104 S230
M105
M109 S230
M82 ;absolute extrusion mode
M201 X500.00 Y500.00 Z100.00 E5000.00 ;Setup machine max acceleration
M203 X500.00 Y500.00 Z10.00 E50.00 ;Setup machine max feedrate
M204 P500.00 R1000.00 T500.00 ;Setup Print/Retract/Travel acceleration
M205 X8.00 Y8.00 Z0.40 E5.00 ;Setup Jerk
M220 S100 ;Reset Feedrate
M221 S100 ;Reset Flowrate

G28 ;Home

G92 E0 ;Reset Extruder
G1 Z2.0 F3000 ;Move Z Axis up
G1 X10.1 Y20 Z0.28 F5000.0 ;Move to start position
G1 X10.1 Y200.0 Z0.28 F1500.0 E15 ;Draw the first line
G1 X10.4 Y200.0 Z0.28 F5000.0 ;Move to side a little
G1 X10.4 Y20 Z0.28 F1500.0 E30 ;Draw the second line
G92 E0 ;Reset Extruder
G1 Z2.0 F3000 ;Move Z Axis up

G92 E0
G92 E0
G1 F1500 E-6.5
;LAYER_COUNT:83
;LAYER:0
M107
G0 F6000 X120.465 Y94.731 Z0.2
;TYPE:SKIRT
G1 F1500 E0
G1 F1200 X121.093 Y93.981 E0.03254
G1 X121.237 Y93.824 E0.03962
G1 X121.9 Y93.16 E0.07083
G1 X122.617 Y92.556 E0.10201
G1 X123.219 Y92.122 E0.12669
G1 X123.398 Y92.002 E0.13386
G1 X124.198 Y91.514 E0.16503
G1 X125.132 Y91.054 E0.19966
G1 X125.341 Y90.963 E0.20724
G1 X126.216 Y90.625 E0.23844
G1 X127.116 Y90.363 E0.26962
G1 X128.036 Y90.18 E0.30081
G1 X128.703 Y90.096 E0.32317
G1 X129.15 Y90.054 E0.33811
G1 X130.027 Y90.007 E0.36732
G1 X130.462 Y90.001 E0.38179
G1 X130.617 Y90 E0.38694
G1 X141.409 Y90.003 E0.74589
G1 X141.564 Y90.004 E0.75104
G1 X142.192 Y90.013 E0.77193
G1 X143.128 Y90.067 E0.80311
G1 X143.77 Y90.15 E0.82464
G1 X144.014 Y90.189 E0.83286
G1 X144.933 Y90.376 E0.86406
G1 X145.833 Y90.641 E0.89526
G1 X147.108 Y91.168 E0.94115
G1 X147.419 Y91.32 E0.95266
G1 X148.429 Y91.881 E0.99109
G1 X150.755 Y93.338 E1.08237
G1 X152.894 Y94.595 E1.16489
G1 X155.111 Y95.815 E1.24906
G1 X157.368 Y96.975 E1.33346
G1 X159.638 Y98.062 E1.41717
G1 X161.908 Y99.071 E1.49979
G1 X164.25 Y100.033 E1.584
G1 X166.648 Y100.943 E1.66931
G1 X168.949 Y101.737 E1.75027
G1 X171.394 Y102.507 E1.83553
G1 X173.8 Y103.191 E1.91873
G1 X176.268 Y103.817 E2.00341
G1 X178.703 Y104.361 E2.0864
G1 X181.204 Y104.848 E2.17114
G1 X183.649 Y105.251 E2.25356
G1 X186.145 Y105.591 E2.33734
G1 X188.685 Y105.864 E2.42231
G1 X190.905 Y106.045 E2.49639
G1 X191.745 Y106.146 E2.52453
G1 X192.014 Y106.189 E2.53359
G1 X192.933 Y106.376 E2.56479
G1 X193.833 Y106.641 E2.59599
G1 X195.079 Y107.154 E2.64081
G1 X195.382 Y107.301 E2.65201
G1 X196.208 Y107.746 E2.68322
G1 X196.993 Y108.26 E2.71442
G1 X197.991 Y109.068 E2.75713
G1 X198.149 Y109.212 E2.76424
G1 X198.814 Y109.873 E2.79543
G1 X199.421 Y110.588 E2.82662
G1 X199.965 Y111.352 E2.85782
G1 X200.229 Y111.779 E2.87451
G1 X200.416 Y112.098 E2.88681
G1 X200.855 Y112.927 E2.91801
G1 X201.222 Y113.79 E2.9492
G1 X201.515 Y114.681 E2.9804
G1 X201.73 Y115.594 E3.0116
G1 X201.832 Y116.227 E3.03292
G1 X201.9 Y116.744 E3.05027
G1 X201.993 Y118.027 E3.09305
G1 X201.999 Y118.463 E3.10755
G1 X202 Y118.617 E3.11268
G1 X201.997 Y129.409 E3.47162
G1 X201.996 Y129.555 E3.47648
G1 X201.987 Y130.221 E3.49863
G1 X201.97 Y130.699 E3.51454
G1 X201.825 Y133.234 E3.59899
G1 X201.753 Y135.73 E3.68204
G1 X201.751 Y138.255 E3.76602
G1 X201.821 Y140.781 E3.85007
G1 X201.971 Y143.357 E3.93589
G1 X201.988 Y143.813 E3.95107
G1 X201.998 Y144.412 E3.971
G1 X202 Y144.599 E3.97722
G1 X201.997 Y155.409 E4.33676
G1 X201.996 Y155.555 E4.34162
G1 X201.987 Y156.221 E4.36377
G1 X201.97 Y156.699 E4.37968
G1 X201.825 Y159.234 E4.46413
G1 X201.753 Y161.73 E4.54718
G1 X201.751 Y164.255 E4.63116
G1 X201.821 Y166.781 E4.71521
G1 X201.971 Y169.357 E4.80103
G1 X201.989 Y169.819 E4.81641
G1 X201.999 Y170.436 E4.83694
G1 X202 Y170.617 E4.84296
G1 X201.997 Y181.407 E5.20183
G1 X201.996 Y181.552 E5.20666
G1 X201.987 Y182.221 E5.22891
G1 X201.934 Y183.157 E5.26009
G1 X201.802 Y184.086 E5.2913
G1 X201.684 Y184.643 E5.31024
G1 X201.616 Y184.926 E5.31992
G1 X201.358 Y185.828 E5.35112
G1 X201.024 Y186.704 E5.3823
G1 X200.654 Y187.479 E5.41087
G1 X200.534 Y187.707 E5.41943
G1 X200.062 Y188.518 E5.45064
G1 X199.523 Y189.285 E5.48182
G1 X198.976 Y189.943 E5.51028
G1 X198.841 Y190.093 E5.517
G1 X198.185 Y190.762 E5.54816
G1 X197.473 Y191.374 E5.57939
G1 X196.823 Y191.849 E5.60616
G1 X196.635 Y191.976 E5.61371
G1 X195.836 Y192.467 E5.6449
G1 X194.868 Y192.946 E5.68082
G1 X194.659 Y193.037 E5.6884
G1 X193.784 Y193.375 E5.7196
G1 X192.884 Y193.637 E5.75078
G1 X191.964 Y193.82 E5.78198
G1 X190.721 Y193.943 E5.82352
G1 X189.557 Y193.991 E5.86227
G1 X189.101 Y194 E5.87744
G1 X185.895 Y193.999 E5.98407
G1 X183.294 Y194.035 E6.07059
G1 X180.796 Y194.141 E6.15375
G1 X178.25 Y194.321 E6.23864
G1 X175.795 Y194.564 E6.32069
G1 X173.259 Y194.888 E6.40573
G1 X170.791 Y195.273 E6.4888
G1 X168.309 Y195.735 E6.57277
G1 X165.854 Y196.263 E6.6563
G1 X163.408 Y196.862 E6.74005
G1 X160.96 Y197.535 E6.82449
G1 X158.571 Y198.266 E6.90759
G1 X156.186 Y199.069 E6.99129
G1 X153.834 Y199.937 E7.07468
G1 X151.514 Y200.867 E7.15781
G1 X147.938 Y202.451 E7.28789
G1 X147.007 Y202.887 E7.32209
G1 X146.141 Y203.249 E7.3533
G1 X145.091 Y203.577 E7.38989
G1 X144.886 Y203.63 E7.39693
G1 X143.969 Y203.826 E7.42812
G1 X143.039 Y203.943 E7.4593
G1 X142.347 Y203.978 E7.48234
G1 X141.318 Y203.998 E7.51657
G1 X141.101 Y204 E7.52379
G1 X130.591 Y203.997 E7.87336
G1 X130.446 Y203.996 E7.87818
G1 X129.779 Y203.987 E7.90037
G1 X128.842 Y203.934 E7.93158
G1 X127.914 Y203.802 E7.96276
G1 X127.357 Y203.684 E7.98169
G1 X127.074 Y203.616 E7.99137
G1 X126.172 Y203.358 E8.02258
G1 X125.296 Y203.024 E8.05376
G1 X124.523 Y202.655 E8.08225
G1 X124.293 Y202.534 E8.09089
G1 X123.482 Y202.062 E8.1221
G1 X122.714 Y201.523 E8.15331
G1 X121.988 Y200.914 E8.18483
G1 X121.835 Y200.774 E8.19172
G1 X121.171 Y200.112 E8.22291
G1 X120.565 Y199.396 E8.25411
G1 X120.132 Y198.795 E8.27875
G1 X120.009 Y198.612 E8.28608
G1 X119.519 Y197.812 E8.31728
G1 X119.099 Y196.973 E8.34849
G1 X118.848 Y196.363 E8.37043
G1 X117.516 Y192.836 E8.49582
G1 X116.56 Y190.511 E8.57943
G1 X115.535 Y188.205 E8.66337
G1 X114.446 Y185.932 E8.7472
G1 X113.284 Y183.672 E8.83172
G1 X112.084 Y181.491 E8.91451
G1 X110.809 Y179.323 E8.99817
G1 X109.475 Y177.195 E9.0817
G1 X108.056 Y175.067 E9.16677
G1 X106.615 Y173.034 E9.24965
G1 X105.127 Y171.052 E9.33209
G1 X103.522 Y169.04 E9.41769
G1 X101.942 Y167.169 E9.49914
G1 X99.708 Y164.689 E9.61016
G1 X99.214 Y164.159 E9.63425
G1 X98.604 Y163.446 E9.66546
G1 X98.089 Y162.733 E9.69472
G1 X97.971 Y162.555 E9.70182
G1 X97.486 Y161.752 E9.73302
G1 X97.054 Y160.868 E9.76575
G1 X96.963 Y160.659 E9.77333
G1 X96.625 Y159.784 E9.80453
G1 X96.363 Y158.884 E9.8357
G1 X96.18 Y157.964 E9.8669
G1 X96.096 Y157.299 E9.88919
G1 X96.054 Y156.853 E9.90409
G1 X96.007 Y155.964 E9.9337
G1 X96.001 Y155.499 E9.94917
G1 X96 Y155.354 E9.95399
G1 X96.003 Y144.55 E10.31334
G1 X96.004 Y144.38 E10.31899
G1 X96.014 Y143.744 E10.34015
G1 X96.069 Y142.808 E10.37133
G1 X96.203 Y141.88 E10.40252
G1 X96.33 Y141.295 E10.42243
G1 X96.397 Y141.022 E10.43178
G1 X96.659 Y140.122 E10.46295
G1 X96.997 Y139.247 E10.49415
G1 X97.346 Y138.521 E10.52094
G1 X97.466 Y138.293 E10.52951
G1 X97.938 Y137.482 E10.56072
G1 X98.477 Y136.715 E10.5919
G1 X98.828 Y136.281 E10.61047
G1 X99.608 Y135.366 E10.65046
G1 X101.28 Y133.354 E10.73747
G1 X102.847 Y131.357 E10.8219
G1 X104.329 Y129.354 E10.90477
G1 X105.793 Y127.253 E10.98994
G1 X107.153 Y125.178 E11.07246
G1 X108.466 Y123.047 E11.15571
G1 X109.736 Y120.846 E11.24023
G1 X110.932 Y118.633 E11.32389
G1 X112.063 Y116.391 E11.40741
G1 X113.13 Y114.118 E11.49093
G1 X114.135 Y111.807 E11.57475
G1 X115.074 Y109.476 E11.65833
G1 X115.964 Y107.067 E11.74375
G1 X116.752 Y104.733 E11.82568
G1 X117.487 Y102.335 E11.9091
G1 X118.38 Y99.034 E12.02284
G1 X118.504 Y98.609 E12.03756
G1 X118.586 Y98.348 E12.04666
G1 X118.905 Y97.466 E12.07786
G1 X119.337 Y96.539 E12.11187
G1 X119.457 Y96.31 E12.12047
G1 X119.927 Y95.499 E12.15165
G1 X120.465 Y94.731 E12.18284
G0 F6000 X120.803 Y94.947
G1 F1200 X121.388 Y94.251 E12.21308
G1 X121.532 Y94.094 E12.22016
G1 X122.183 Y93.443 E12.25078
G1 X122.889 Y92.851 E12.28143
G1 X123.441 Y92.454 E12.30404
G1 X123.62 Y92.334 E12.31121
G1 X124.407 Y91.855 E12.34185
G1 X125.291 Y91.42 E12.37462
G1 X125.5 Y91.329 E12.3822
G1 X126.36 Y90.999 E12.41284
G1 X127.244 Y90.744 E12.44344
G1 X128.148 Y90.567 E12.47408
G1 X128.74 Y90.494 E12.49392
G1 X129.187 Y90.452 E12.50885
G1 X130.033 Y90.407 E12.53703
G1 X130.468 Y90.401 E12.5515
G1 X130.617 Y90.4 E12.55646
G1 X141.409 Y90.403 E12.9154
G1 X141.558 Y90.404 E12.92036
G1 X142.186 Y90.413 E12.94124
G1 X143.105 Y90.466 E12.97186
G1 X143.707 Y90.545 E12.99206
G1 X143.951 Y90.584 E13.00027
G1 X144.853 Y90.769 E13.0309
G1 X145.735 Y91.031 E13.0615
G1 X146.933 Y91.528 E13.10464
G1 X147.244 Y91.68 E13.11615
G1 X148.217 Y92.22 E13.15317
G1 X150.546 Y93.679 E13.24457
G1 X152.704 Y94.947 E13.32782
G1 X154.929 Y96.172 E13.4123
G1 X157.162 Y97.32 E13.49581
G1 X159.469 Y98.424 E13.58087
G1 X161.773 Y99.448 E13.66473
G1 X164.092 Y100.401 E13.74812
G1 X166.523 Y101.323 E13.8346
G1 X168.836 Y102.121 E13.91598
G1 X171.27 Y102.888 E14.00086
G1 X173.706 Y103.58 E14.08509
G1 X176.179 Y104.208 E14.16995
G1 X178.618 Y104.753 E14.25307
G1 X181.094 Y105.234 E14.33696
G1 X183.602 Y105.648 E14.42151
G1 X186.119 Y105.991 E14.506
G1 X188.611 Y106.258 E14.58936
G1 X190.872 Y106.443 E14.66481
G1 X191.682 Y106.541 E14.69195
G1 X191.951 Y106.584 E14.70101
G1 X192.853 Y106.769 E14.73163
G1 X193.736 Y107.031 E14.76227
G1 X194.905 Y107.514 E14.80433
G1 X195.208 Y107.661 E14.81554
G1 X196.018 Y108.099 E14.84616
G1 X196.787 Y108.605 E14.87678
G1 X197.721 Y109.364 E14.91681
G1 X197.879 Y109.508 E14.92392
G1 X198.532 Y110.157 E14.95454
G1 X199.126 Y110.86 E14.98515
G1 X199.884 Y111.981 E15.03016
G1 X200.071 Y112.3 E15.04246
G1 X200.501 Y113.114 E15.07308
G1 X200.86 Y113.962 E15.10371
G1 X201.143 Y114.838 E15.13432
G1 X201.35 Y115.735 E15.16494
G1 X201.435 Y116.279 E15.18326
G1 X201.503 Y116.796 E15.2006
G1 X201.593 Y118.032 E15.24182
G1 X201.599 Y118.468 E15.25632
G1 X201.6 Y118.617 E15.26128
G1 X201.597 Y129.409 E15.62022
G1 X201.596 Y129.549 E15.62488
G1 X201.587 Y130.215 E15.64703
G1 X201.571 Y130.676 E15.66237
G1 X201.427 Y133.2 E15.74646
G1 X201.353 Y135.753 E15.83141
G1 X201.351 Y138.266 E15.91499
G1 X201.421 Y140.782 E15.9987
G1 X201.572 Y143.38 E16.08526
G1 X201.589 Y143.82 E16.0999
G1 X201.599 Y144.419 E16.11983
G1 X201.6 Y144.599 E16.12582
G1 X201.597 Y155.409 E16.48536
G1 X201.596 Y155.549 E16.49002
G1 X201.587 Y156.215 E16.51217
G1 X201.571 Y156.676 E16.52751
G1 X201.427 Y159.2 E16.6116
G1 X201.353 Y161.753 E16.69654
G1 X201.351 Y164.266 E16.78013
G1 X201.421 Y166.782 E16.86384
G1 X201.572 Y169.38 E16.9504
G1 X201.589 Y169.825 E16.96521
G1 X201.599 Y170.442 E16.98573
G1 X201.6 Y170.617 E16.99155
G1 X201.597 Y181.407 E17.35043
G1 X201.596 Y181.547 E17.35509
G1 X201.587 Y182.216 E17.37734
G1 X201.535 Y183.135 E17.40796
G1 X201.403 Y184.046 E17.43857
G1 X201.295 Y184.55 E17.45572
G1 X201.227 Y184.833 E17.4654
G1 X200.973 Y185.717 E17.49599
G1 X200.643 Y186.577 E17.52663
G1 X200.3 Y187.293 E17.55303
G1 X200.18 Y187.521 E17.5616
G1 X199.716 Y188.316 E17.59222
G1 X199.185 Y189.068 E17.62284
G1 X198.679 Y189.675 E17.64912
G1 X198.544 Y189.825 E17.65583
G1 X197.899 Y190.482 E17.68645
G1 X197.199 Y191.08 E17.71707
G1 X196.599 Y191.518 E17.74178
G1 X196.411 Y191.645 E17.74933
G1 X195.626 Y192.126 E17.77995
G1 X194.709 Y192.58 E17.81398
G1 X194.5 Y192.671 E17.82156
G1 X193.64 Y193.001 E17.8522
G1 X192.756 Y193.256 E17.8828
G1 X191.852 Y193.433 E17.91344
G1 X190.705 Y193.543 E17.95176
G1 X189.541 Y193.591 E17.99051
G1 X189.101 Y193.6 E18.00515
G1 X185.889 Y193.599 E18.11198
G1 X183.271 Y193.635 E18.19906
G1 X180.787 Y193.741 E18.28176
G1 X178.219 Y193.922 E18.36738
G1 X175.742 Y194.167 E18.45017
G1 X173.213 Y194.49 E18.53497
G1 X170.688 Y194.885 E18.61997
G1 X168.264 Y195.336 E18.70198
G1 X165.746 Y195.878 E18.78764
G1 X163.312 Y196.473 E18.87098
G1 X160.875 Y197.143 E18.95504
G1 X158.442 Y197.887 E19.03967
G1 X156.046 Y198.695 E19.12377
G1 X153.664 Y199.573 E19.2082
G1 X151.371 Y200.493 E19.29038
G1 X147.786 Y202.08 E19.42078
G1 X146.837 Y202.525 E19.45564
G1 X145.987 Y202.879 E19.48626
G1 X144.991 Y203.19 E19.52097
G1 X144.786 Y203.243 E19.52801
G1 X143.886 Y203.434 E19.55861
G1 X142.972 Y203.547 E19.58924
G1 X142.339 Y203.578 E19.61032
G1 X141.31 Y203.598 E19.64455
G1 X141.101 Y203.6 E19.6515
G1 X130.591 Y203.597 E20.00107
G1 X130.451 Y203.596 E20.00572
G1 X129.784 Y203.587 E20.02791
G1 X128.865 Y203.535 E20.05853
G1 X127.954 Y203.403 E20.08914
G1 X127.45 Y203.295 E20.10629
G1 X127.167 Y203.227 E20.11597
G1 X126.283 Y202.973 E20.14656
G1 X125.423 Y202.643 E20.17719
G1 X124.709 Y202.301 E20.20353
G1 X124.479 Y202.18 E20.21217
G1 X123.683 Y201.716 E20.24281
G1 X122.931 Y201.186 E20.27341
G1 X122.258 Y200.619 E20.30268
G1 X122.105 Y200.479 E20.30958
G1 X121.454 Y199.829 E20.34018
G1 X120.861 Y199.124 E20.37082
G1 X120.464 Y198.572 E20.39343
G1 X120.341 Y198.389 E20.40077
G1 X119.861 Y197.603 E20.4314
G1 X119.451 Y196.779 E20.46201
G1 X119.222 Y196.222 E20.48204
G1 X117.884 Y192.679 E20.608
G1 X116.919 Y190.333 E20.69238
G1 X115.904 Y188.048 E20.77554
G1 X114.805 Y185.755 E20.86011
G1 X113.647 Y183.502 E20.94436
G1 X112.436 Y181.301 E21.02792
G1 X111.133 Y179.087 E21.11336
G1 X109.814 Y176.982 E21.19598
G1 X108.399 Y174.86 E21.28081
G1 X106.945 Y172.808 E21.36446
G1 X105.426 Y170.787 E21.44855
G1 X103.825 Y168.778 E21.53399
G1 X102.233 Y166.894 E21.61603
G1 X100.043 Y164.462 E21.72488
G1 X99.506 Y163.886 E21.75107
G1 X98.908 Y163.186 E21.78169
G1 X98.422 Y162.512 E21.80933
G1 X98.304 Y162.334 E21.81643
G1 X97.829 Y161.545 E21.84706
G1 X97.42 Y160.709 E21.87802
G1 X97.329 Y160.5 E21.8856
G1 X96.999 Y159.64 E21.91624
G1 X96.744 Y158.756 E21.94684
G1 X96.567 Y157.852 E21.97748
G1 X96.495 Y157.262 E21.99725
G1 X96.453 Y156.816 E22.01215
G1 X96.407 Y155.959 E22.04069
G1 X96.401 Y155.494 E22.05616
G1 X96.4 Y155.354 E22.06081
G1 X96.403 Y144.55 E22.42016
G1 X96.404 Y144.386 E22.42561
G1 X96.414 Y143.75 E22.44677
G1 X96.469 Y142.831 E22.47739
G1 X96.603 Y141.92 E22.50801
G1 X96.718 Y141.391 E22.52602
G1 X96.785 Y141.118 E22.53537
G1 X97.044 Y140.234 E22.56601
G1 X97.377 Y139.376 E22.59662
G1 X97.7 Y138.707 E22.62133
G1 X97.82 Y138.479 E22.6299
G1 X98.284 Y137.684 E22.66051
G1 X98.815 Y136.932 E22.69113
G1 X99.132 Y136.541 E22.70787
G1 X99.951 Y135.58 E22.74987
G1 X101.587 Y133.612 E22.83499
G1 X103.168 Y131.596 E22.9202
G1 X104.664 Y129.575 E23.00383
G1 X106.095 Y127.52 E23.08712
G1 X107.485 Y125.401 E23.17141
G1 X108.835 Y123.209 E23.25703
G1 X110.077 Y121.057 E23.33967
G1 X111.284 Y118.824 E23.4241
G1 X112.425 Y116.563 E23.50833
G1 X113.501 Y114.269 E23.59261
G1 X114.502 Y111.968 E23.67607
G1 X115.456 Y109.598 E23.76104
G1 X116.331 Y107.229 E23.84504
G1 X117.127 Y104.873 E23.92775
G1 X117.876 Y102.431 E24.01271
G1 X118.766 Y99.139 E24.12613
G1 X118.885 Y98.729 E24.14033
G1 X118.967 Y98.468 E24.14943
G1 X119.281 Y97.602 E24.18007
G1 X119.691 Y96.725 E24.21226
G1 X119.811 Y96.496 E24.22086
G1 X120.273 Y95.7 E24.25148
G1 X120.803 Y94.947 E24.2821
G0 F6000 X121.141 Y95.164
G1 F1200 X121.683 Y94.521 E24.31007
G1 X121.827 Y94.364 E24.31716
G1 X122.466 Y93.727 E24.34717
G1 X123.16 Y93.148 E24.37723
G1 X123.664 Y92.787 E24.39785
G1 X123.843 Y92.667 E24.40502
G1 X124.615 Y92.197 E24.43508
G1 X125.451 Y91.787 E24.46605
G1 X125.66 Y91.696 E24.47363
G1 X126.503 Y91.373 E24.50365
G1 X127.372 Y91.125 E24.53371
G1 X128.259 Y90.955 E24.56375
G1 X128.778 Y90.893 E24.58113
G1 X129.225 Y90.851 E24.59607
G1 X130.038 Y90.807 E24.62315
G1 X130.473 Y90.801 E24.63762
G1 X130.617 Y90.8 E24.64241
G1 X141.409 Y90.803 E25.00135
G1 X141.552 Y90.804 E25.00611
G1 X142.18 Y90.813 E25.027
G1 X143.082 Y90.866 E25.05705
G1 X143.644 Y90.94 E25.0759
G1 X143.888 Y90.979 E25.08412
G1 X144.772 Y91.161 E25.11414
G1 X145.638 Y91.42 E25.1442
G1 X146.757 Y91.887 E25.18453
G1 X147.068 Y92.039 E25.19604
G1 X148.005 Y92.559 E25.23169
G1 X150.352 Y94.03 E25.32381
