;FLAVOR:Marlin
;TIME:7141
;Filament used: 2.30592m
;Layer height: 0.1
;MINX:106
;MINY:112
;MINZ:0.2
;MAXX:198
;MAXY:186
;MAXZ:13.22
;Generated with Cura_SteamEngine 4.4.1
M140 S60
M105
M190 S60
M104 S230
M105
M109 S230
M82 ;absolute extrusion mode
M201 X500.00 Y500.00 Z100.00 E5000.00 ;Setup machine max acceleration
M203 X500.00 Y500.00 Z10.00 E50.00 ;Setup machine max feedrate
M204 P500.00 R1000.00 T500.00 ;Setup Print/Retract/Travel acceleration
M205 X8.00 Y8.00 Z0.40 E5.00 ;Setup Jerk
M220 S100 ;Reset Feedrate
M221 S100 ;Reset Flowrate

G28 ;Home

G92 E0 ;Reset Extruder
G1 Z2.0 F3000 ;Move Z Axis up
G1 X10.1 Y20 Z0.28 F5000.0 ;Move to start position
G1 X10.1 Y200.0 Z0.28 F1500.0 E15 ;Draw the first line
G1 X10.4 Y200.0 Z0.28 F5000.0 ;Move to side a little
G1 X10.4 Y20 Z0.28 F1500.0 E30 ;Draw the second line
G92 E0 ;Reset Extruder
G1 Z2.0 F3000 ;Move Z Axis up

G92 E0
G92 E0
G1 F1500 E-6.5
;LAYER_COUNT:95
;LAYER:0
M107
G0 F6000 X117.223 Y115.241 Z0.2
;TYPE:SKIRT
G1 F1500 E0
G1 F1200 X117.913 Y114.606 E0.03119
G1 X118.655 Y114.031 E0.06241
G1 X119.442 Y113.523 E0.09357
G1 X120.271 Y113.083 E0.12478
G1 X121.133 Y112.715 E0.15596
G1 X122.024 Y112.422 E0.18715
G1 X122.937 Y112.206 E0.21836
G1 X123.865 Y112.069 E0.24956
G1 X124.701 Y112.013 E0.27742
G1 X125.02 Y112.004 E0.28804
G1 X125.33 Y112 E0.29835
G1 X134.293 Y112 E0.59646
G1 X134.446 Y112.001 E0.60155
G1 X135.164 Y112.011 E0.62543
G1 X135.479 Y112.02 E0.63591
G1 X136.121 Y112.047 E0.65729
G1 X138.759 Y112.122 E0.74506
G1 X141.248 Y112.122 E0.82785
G1 X143.823 Y112.049 E0.91352
G1 X144.18 Y112.031 E0.92541
G1 X144.422 Y112.022 E0.93347
G1 X145.015 Y112.005 E0.9532
G1 X145.33 Y112 E0.96368
G1 X154.293 Y112 E1.26179
G1 X154.446 Y112.001 E1.26688
G1 X155.164 Y112.011 E1.29076
G1 X155.479 Y112.02 E1.30124
G1 X156.121 Y112.047 E1.32261
G1 X158.759 Y112.122 E1.41039
G1 X161.248 Y112.122 E1.49317
G1 X163.821 Y112.049 E1.57879
G1 X164.179 Y112.031 E1.59071
G1 X164.422 Y112.022 E1.5988
G1 X165.015 Y112.005 E1.61853
G1 X165.33 Y112 E1.62901
G1 X174.293 Y112 E1.92712
G1 X174.451 Y112.001 E1.93237
G1 X175.149 Y112.011 E1.95559
G1 X176.085 Y112.065 E1.98677
G1 X177.013 Y112.197 E2.01795
G1 X177.927 Y112.409 E2.04916
G1 X178.819 Y112.698 E2.08034
G1 X179.684 Y113.061 E2.11154
G1 X180.514 Y113.497 E2.14273
G1 X181.305 Y114.002 E2.17394
G1 X182.049 Y114.573 E2.20513
G1 X182.742 Y115.205 E2.23633
G1 X183.379 Y115.893 E2.26751
G1 X183.954 Y116.634 E2.29871
G1 X184.465 Y117.42 E2.32989
G1 X184.907 Y118.248 E2.36111
G1 X185.276 Y119.11 E2.39229
G1 X185.571 Y120 E2.42348
G1 X185.789 Y120.912 E2.45467
G1 X185.962 Y122.217 E2.49845
G1 X186.152 Y124.84 E2.58592
G1 X186.403 Y127.333 E2.66926
G1 X186.727 Y129.838 E2.75327
G1 X187.126 Y132.355 E2.83803
G1 X187.579 Y134.776 E2.91995
G1 X188.122 Y137.279 E3.00514
G1 X188.71 Y139.665 E3.08687
G1 X189.392 Y142.133 E3.17203
G1 X190.14 Y144.562 E3.25656
G1 X190.94 Y146.927 E3.3396
G1 X191.814 Y149.284 E3.42321
G1 X192.754 Y151.615 E3.50681
G1 X193.757 Y153.913 E3.5902
G1 X194.833 Y156.201 E3.6743
G1 X195.979 Y158.467 E3.75876
G1 X196.156 Y158.795 E3.77115
G1 X196.229 Y158.932 E3.77632
G1 X196.735 Y159.9 E3.81264
G1 X197.134 Y160.749 E3.84385
G1 X197.459 Y161.629 E3.87505
G1 X197.708 Y162.533 E3.90623
G1 X197.879 Y163.455 E3.93742
G1 X197.979 Y164.568 E3.97459
G1 X197.992 Y164.902 E3.98571
G1 X198 Y165.33 E3.99995
G1 X198 Y174.264 E4.29709
G1 X197.999 Y174.4 E4.30161
G1 X197.99 Y175.127 E4.3258
G1 X197.939 Y176.064 E4.35701
G1 X197.807 Y176.992 E4.38818
G1 X197.598 Y177.906 E4.41937
G1 X197.311 Y178.799 E4.45057
G1 X196.949 Y179.665 E4.48178
G1 X196.515 Y180.496 E4.51297
G1 X196.011 Y181.287 E4.54416
G1 X195.442 Y182.032 E4.57534
G1 X194.811 Y182.727 E4.60656
G1 X194.124 Y183.365 E4.63775
G1 X193.385 Y183.942 E4.66893
G1 X192.599 Y184.454 E4.70013
G1 X191.773 Y184.897 E4.7313
G1 X190.911 Y185.269 E4.76253
G1 X190.022 Y185.565 E4.79369
G1 X189.11 Y185.785 E4.8249
G1 X188.183 Y185.926 E4.85608
G1 X187.299 Y185.987 E4.88556
G1 X186.978 Y185.996 E4.89624
G1 X186.67 Y186 E4.90648
G1 X177.707 Y186 E5.20459
G1 X177.554 Y185.999 E5.20968
G1 X176.837 Y185.989 E5.23353
G1 X176.522 Y185.98 E5.24401
G1 X175.879 Y185.953 E5.26542
G1 X173.241 Y185.878 E5.35319
G1 X170.753 Y185.878 E5.43594
G1 X168.179 Y185.951 E5.52159
G1 X167.821 Y185.969 E5.53351
G1 X167.578 Y185.978 E5.5416
G1 X166.985 Y185.995 E5.56133
G1 X166.67 Y186 E5.57181
G1 X157.707 Y186 E5.86992
G1 X157.554 Y185.999 E5.87501
G1 X156.837 Y185.989 E5.89886
G1 X156.522 Y185.98 E5.90934
G1 X155.879 Y185.953 E5.93075
G1 X153.241 Y185.878 E6.01852
G1 X150.753 Y185.878 E6.10127
G1 X148.179 Y185.951 E6.18692
G1 X147.821 Y185.969 E6.19884
G1 X147.578 Y185.978 E6.20693
G1 X146.985 Y185.995 E6.22666
G1 X146.67 Y186 E6.23714
G1 X137.707 Y186 E6.53525
G1 X137.554 Y185.999 E6.54034
G1 X136.837 Y185.989 E6.56419
G1 X136.522 Y185.98 E6.57467
G1 X135.879 Y185.953 E6.59607
G1 X133.241 Y185.878 E6.68385
G1 X130.753 Y185.878 E6.7666
G1 X128.179 Y185.951 E6.85225
G1 X127.821 Y185.969 E6.86417
G1 X127.578 Y185.978 E6.87226
G1 X126.985 Y185.995 E6.89199
G1 X126.67 Y186 E6.90247
G1 X117.707 Y186 E7.20058
G1 X117.565 Y185.999 E7.2053
G1 X116.867 Y185.99 E7.22852
G1 X115.931 Y185.938 E7.2597
G1 X115.002 Y185.806 E7.29091
G1 X114.088 Y185.596 E7.3221
G1 X113.195 Y185.309 E7.35329
G1 X112.33 Y184.946 E7.3845
G1 X111.499 Y184.512 E7.41568
G1 X110.708 Y184.008 E7.44687
G1 X109.963 Y183.438 E7.47807
G1 X109.269 Y182.807 E7.50927
G1 X108.632 Y182.12 E7.54043
G1 X108.055 Y181.38 E7.57164
G1 X107.543 Y180.594 E7.60284
G1 X107.1 Y179.767 E7.63404
G1 X106.729 Y178.906 E7.66523
G1 X106.433 Y178.016 E7.69642
G1 X106.214 Y177.104 E7.72762
G1 X106.073 Y176.177 E7.7588
G1 X106.013 Y175.288 E7.78844
G1 X106.004 Y174.955 E7.79952
G1 X106 Y174.658 E7.8094
G1 X106 Y165.707 E8.10711
G1 X106.001 Y165.549 E8.11236
G1 X106.011 Y164.852 E8.13555
G1 X106.065 Y163.916 E8.16673
G1 X106.198 Y162.987 E8.19795
G1 X106.409 Y162.074 E8.22911
G1 X106.786 Y160.951 E8.26851
G1 X107.075 Y160.223 E8.29456
G1 X107.152 Y160.036 E8.30129
G1 X107.569 Y159.039 E8.33723
G1 X108.482 Y156.673 E8.42158
G1 X109.329 Y154.277 E8.50611
G1 X110.093 Y151.905 E8.58899
G1 X110.791 Y149.505 E8.67212
G1 X111.434 Y147.036 E8.75698
G1 X112.004 Y144.572 E8.8411
G1 X112.494 Y142.126 E8.92407
G1 X112.918 Y139.658 E9.00736
G1 X113.274 Y137.155 E9.09145
G1 X113.561 Y134.649 E9.17534
G1 X113.776 Y132.132 E9.25936
G1 X113.917 Y129.631 E9.34268
G1 X113.99 Y127.116 E9.42636
G1 X114 Y125.743 E9.47203
G1 X114 Y123.674 E9.54085
G1 X114.002 Y123.492 E9.5469
G1 X114.013 Y122.827 E9.56902
G1 X114.068 Y121.891 E9.60021
G1 X114.203 Y120.963 E9.6314
G1 X114.417 Y120.05 E9.66258
G1 X114.707 Y119.158 E9.69378
G1 X115.073 Y118.294 E9.72499
G1 X115.51 Y117.465 E9.75616
G1 X116.017 Y116.676 E9.78735
G1 X116.589 Y115.932 E9.81857
G1 X117.223 Y115.241 E9.84976
G0 F6000 X117.614 Y115.416
G1 F1200 X118.301 Y114.803 E9.88038
G1 X119.038 Y114.252 E9.91099
G1 X119.821 Y113.767 E9.94162
G1 X120.642 Y113.351 E9.97223
G1 X121.497 Y113.008 E10.00287
G1 X122.378 Y112.741 E10.03349
G1 X123.279 Y112.551 E10.06412
G1 X124.193 Y112.441 E10.09474
G1 X124.712 Y112.413 E10.11202
G1 X125.031 Y112.404 E10.12264
G1 X125.33 Y112.4 E10.13258
G1 X134.293 Y112.4 E10.43069
G1 X134.441 Y112.401 E10.43562
G1 X135.159 Y112.411 E10.4595
G1 X135.462 Y112.42 E10.46958
G1 X136.092 Y112.447 E10.49056
G1 X138.748 Y112.522 E10.57893
G1 X141.259 Y112.522 E10.66245
G1 X143.854 Y112.449 E10.74879
G1 X144.2 Y112.431 E10.76031
G1 X144.433 Y112.421 E10.76807
G1 X145.026 Y112.404 E10.7878
G1 X145.33 Y112.4 E10.79791
G1 X154.293 Y112.4 E11.09602
G1 X154.441 Y112.401 E11.10095
G1 X155.159 Y112.411 E11.12483
G1 X155.462 Y112.42 E11.13491
G1 X156.092 Y112.447 E11.15588
G1 X158.748 Y112.522 E11.24426
G1 X161.259 Y112.522 E11.32778
G1 X163.852 Y112.449 E11.41405
G1 X164.199 Y112.431 E11.42561
G1 X164.433 Y112.421 E11.4334
G1 X165.026 Y112.404 E11.45313
G1 X165.33 Y112.4 E11.46324
G1 X174.293 Y112.4 E11.76135
G1 X174.445 Y112.401 E11.76641
G1 X175.143 Y112.411 E11.78963
G1 X176.062 Y112.464 E11.82024
G1 X176.973 Y112.597 E11.85087
G1 X177.869 Y112.808 E11.88148
G1 X178.743 Y113.096 E11.91209
G1 X179.59 Y113.459 E11.94274
G1 X180.401 Y113.894 E11.97335
G1 X181.171 Y114.398 E12.00396
G1 X181.895 Y114.967 E12.03458
G1 X182.567 Y115.597 E12.06522
G1 X183.182 Y116.282 E12.09584
G1 X183.735 Y117.018 E12.12646
G1 X184.222 Y117.799 E12.15707
G1 X184.639 Y118.62 E12.1877
G1 X184.984 Y119.474 E12.21833
G1 X185.253 Y120.354 E12.24894
G1 X185.445 Y121.255 E12.27958
G1 X185.563 Y122.246 E12.31277
G1 X185.753 Y124.877 E12.40051
G1 X186.007 Y127.389 E12.48448
G1 X186.329 Y129.876 E12.56789
G1 X186.731 Y132.419 E12.65352
G1 X187.188 Y134.862 E12.73619
G1 X187.731 Y137.361 E12.82124
G1 X188.328 Y139.786 E12.90431
G1 X189.012 Y142.261 E12.98971
G1 X189.75 Y144.66 E13.07319
G1 X190.562 Y147.057 E13.15737
G1 X191.444 Y149.436 E13.24176
G1 X192.375 Y151.746 E13.32459
G1 X193.407 Y154.108 E13.41032
G1 X194.472 Y156.374 E13.4936
G1 X195.609 Y158.623 E13.57742
G1 X195.805 Y158.985 E13.59111
G1 X195.875 Y159.118 E13.59611
G1 X196.381 Y160.086 E13.63244
G1 X196.772 Y160.919 E13.66304
G1 X197.089 Y161.784 E13.69368
G1 X197.329 Y162.672 E13.72428
G1 X197.492 Y163.578 E13.7549
G1 X197.579 Y164.584 E13.78848
G1 X197.592 Y164.918 E13.7996
G1 X197.6 Y165.33 E13.8133
G1 X197.6 Y174.264 E14.11045
G1 X197.599 Y174.395 E14.11481
G1 X197.59 Y175.122 E14.13899
G1 X197.539 Y176.041 E14.1696
G1 X197.408 Y176.953 E14.20025
G1 X197.198 Y177.849 E14.23086
G1 X196.912 Y178.724 E14.26147
G1 X196.551 Y179.571 E14.2921
G1 X196.117 Y180.383 E14.32272
G1 X195.615 Y181.155 E14.35335
G1 X195.047 Y181.88 E14.38398
G1 X194.419 Y182.553 E14.4146
G1 X193.735 Y183.169 E14.44521
G1 X193 Y183.723 E14.47582
G1 X192.22 Y184.212 E14.50644
G1 X191.4 Y184.631 E14.53707
G1 X190.547 Y184.977 E14.56769
G1 X189.667 Y185.248 E14.59831
G1 X188.767 Y185.441 E14.62893
G1 X187.853 Y185.556 E14.65957
G1 X187.288 Y185.587 E14.67839
G1 X186.967 Y185.596 E14.68907
G1 X186.67 Y185.6 E14.69895
G1 X177.707 Y185.6 E14.99706
G1 X177.559 Y185.599 E15.00198
G1 X176.842 Y185.589 E15.02583
G1 X176.539 Y185.58 E15.03591
G1 X175.908 Y185.553 E15.05692
G1 X173.252 Y185.478 E15.14529
G1 X170.742 Y185.478 E15.22878
G1 X168.148 Y185.551 E15.31509
G1 X167.801 Y185.569 E15.32664
G1 X167.567 Y185.579 E15.33443
G1 X166.974 Y185.596 E15.35417
G1 X166.67 Y185.6 E15.36428
G1 X157.707 Y185.6 E15.66239
G1 X157.559 Y185.599 E15.66731
G1 X156.842 Y185.589 E15.69116
G1 X156.539 Y185.58 E15.70124
G1 X155.908 Y185.553 E15.72225
G1 X153.252 Y185.478 E15.81062
G1 X150.742 Y185.478 E15.89411
G1 X148.148 Y185.551 E15.98042
G1 X147.801 Y185.569 E15.99197
G1 X147.567 Y185.579 E15.99976
G1 X146.974 Y185.596 E16.01949
G1 X146.67 Y185.6 E16.02961
G1 X137.707 Y185.6 E16.32772
G1 X137.559 Y185.599 E16.33264
G1 X136.842 Y185.589 E16.35649
G1 X136.539 Y185.58 E16.36657
G1 X135.908 Y185.553 E16.38758
G1 X133.252 Y185.478 E16.47595
G1 X130.742 Y185.478 E16.55944
G1 X128.148 Y185.551 E16.64575
G1 X127.801 Y185.569 E16.6573
G1 X127.567 Y185.579 E16.66509
G1 X126.974 Y185.596 E16.68482
G1 X126.67 Y185.6 E16.69494
G1 X117.707 Y185.6 E16.99305
G1 X117.57 Y185.599 E16.9976
G1 X116.872 Y185.59 E17.02082
G1 X115.953 Y185.538 E17.05144
G1 X115.042 Y185.407 E17.08205
G1 X114.146 Y185.197 E17.11266
G1 X113.271 Y184.91 E17.14328
G1 X112.424 Y184.548 E17.17392
G1 X111.612 Y184.114 E17.20454
G1 X110.841 Y183.612 E17.23514
G1 X110.116 Y183.044 E17.26578
G1 X109.443 Y182.415 E17.29642
G1 X108.828 Y181.731 E17.32701
G1 X108.274 Y180.996 E17.35762
G1 X107.786 Y180.215 E17.38825
G1 X107.367 Y179.395 E17.41888
G1 X107.021 Y178.542 E17.4495
G1 X106.751 Y177.662 E17.48011
G1 X106.558 Y176.761 E17.51076
G1 X106.444 Y175.848 E17.54136
G1 X106.413 Y175.277 E17.56038
G1 X106.404 Y174.944 E17.57146
G1 X106.4 Y174.658 E17.58097
G1 X106.4 Y165.707 E17.87868
G1 X106.401 Y165.555 E17.88374
G1 X106.411 Y164.858 E17.90692
G1 X106.464 Y163.939 E17.93754
G1 X106.597 Y163.028 E17.96816
G1 X106.808 Y162.132 E17.99878
G1 X107.158 Y161.099 E18.03506
G1 X107.447 Y160.371 E18.06111
G1 X107.521 Y160.19 E18.06761
G1 X107.94 Y159.188 E18.10373
G1 X108.856 Y156.813 E18.1884
G1 X109.7 Y154.427 E18.27258
G1 X110.481 Y152.001 E18.35734
G1 X111.179 Y149.603 E18.44041
G1 X111.825 Y147.121 E18.52571
G1 X112.393 Y144.668 E18.60946
G1 X112.887 Y142.201 E18.69314
G1 X113.313 Y139.716 E18.777
G1 X113.669 Y137.22 E18.86085
G1 X113.961 Y134.661 E18.94652
G1 X114.173 Y132.187 E19.02911
G1 X114.316 Y129.666 E19.11309
G1 X114.39 Y127.082 E19.19907
G1 X114.4 Y125.746 E19.24351
G1 X114.4 Y123.674 E19.31242
G1 X114.401 Y123.499 E19.31824
G1 X114.412 Y122.834 E19.34036
G1 X114.468 Y121.915 E19.37099
G1 X114.602 Y121.004 E19.40161
G1 X114.816 Y120.108 E19.43225
G1 X115.106 Y119.235 E19.46285
G1 X115.471 Y118.389 E19.49349
G1 X115.907 Y117.579 E19.52409
G1 X116.413 Y116.809 E19.55473
G1 X116.983 Y116.087 E19.58533
G1 X117.614 Y115.416 E19.61596
G0 F6000 X118.005 Y115.596
G1 F1200 X118.688 Y115.005 E19.646
G1 X119.421 Y114.477 E19.67605
G1 X120.198 Y114.016 E19.7061
G1 X121.012 Y113.626 E19.73612
G1 X121.858 Y113.309 E19.76617
G1 X122.728 Y113.068 E19.7962
G1 X123.616 Y112.905 E19.82622
G1 X124.723 Y112.813 E19.86317
G1 X125.042 Y112.804 E19.87378
G1 X125.33 Y112.8 E19.88336
G1 X134.293 Y112.8 E20.18147
G1 X134.435 Y112.801 E20.1862
G1 X135.153 Y112.811 E20.21008
G1 X135.445 Y112.819 E20.2198
G1 X136.133 Y112.848 E20.2427
G1 X138.737 Y112.922 E20.32934
G1 X141.27 Y112.922 E20.41359
G1 X143.841 Y112.849 E20.49914
G1 X144.22 Y112.83 E20.51176
G1 X144.445 Y112.821 E20.51925
G1 X145.038 Y112.804 E20.53898
G1 X145.33 Y112.8 E20.54869
G1 X154.293 Y112.8 E20.8468
G1 X154.435 Y112.801 E20.85153
G1 X155.153 Y112.811 E20.87541
G1 X155.445 Y112.819 E20.88513
G1 X156.133 Y112.848 E20.90803
G1 X158.737 Y112.922 E20.99467
G1 X161.27 Y112.922 E21.07892
G1 X163.839 Y112.849 E21.1644
G1 X164.219 Y112.83 E21.17706
G1 X164.445 Y112.821 E21.18458
G1 X165.038 Y112.804 E21.20431
G1 X165.33 Y112.8 E21.21402
G1 X174.293 Y112.8 E21.51213
G1 X174.439 Y112.801 E21.51699
G1 X175.137 Y112.811 E21.54021
G1 X176.039 Y112.864 E21.57026
G1 X176.932 Y112.996 E21.60028
G1 X177.81 Y113.207 E21.63032
G1 X178.666 Y113.495 E21.66036
G1 X179.493 Y113.857 E21.69038
G1 X180.285 Y114.292 E21.72044
G1 X181.036 Y114.794 E21.75048
G1 X181.739 Y115.361 E21.78052
G1 X182.389 Y115.988 E21.81056
G1 X182.981 Y116.67 E21.8406
G1 X183.511 Y117.401 E21.87063
G1 X183.973 Y118.177 E21.90066
G1 X184.366 Y118.99 E21.9307
G1 X184.684 Y119.835 E21.96073
G1 X184.927 Y120.705 E21.99077
G1 X185.092 Y121.593 E22.02081
G1 X185.164 Y122.274 E22.04359
G1 X185.355 Y124.912 E22.13156
G1 X185.607 Y127.409 E22.21503
G1 X185.937 Y129.958 E22.30052
G1 X186.336 Y132.484 E22.38558
G1 X186.798 Y134.949 E22.46899
G1 X187.337 Y137.436 E22.55363
G1 X187.949 Y139.916 E22.63859
G1 X188.618 Y142.339 E22.72219
G1 X189.376 Y144.801 E22.80787
G1 X190.184 Y147.188 E22.89169
G1 X191.063 Y149.56 E22.97582
G1 X192.014 Y151.919 E23.06042
G1 X193.036 Y154.259 E23.14535
G1 X194.111 Y156.546 E23.2294
G1 X195.258 Y158.814 E23.31393
G1 X195.453 Y159.175 E23.32758
G1 X195.52 Y159.303 E23.33238
G1 X196.026 Y160.271 E23.36871
G1 X196.409 Y161.089 E23.39875
G1 X196.718 Y161.938 E23.4288
G1 X196.95 Y162.81 E23.45881
G1 X197.104 Y163.7 E23.48886
G1 X197.179 Y164.599 E23.51886
G1 X197.192 Y164.933 E23.52998
G1 X197.2 Y165.33 E23.54318
G1 X197.2 Y174.264 E23.84033
G1 X197.199 Y174.39 E23.84452
G1 X197.19 Y175.117 E23.8687
G1 X197.139 Y176.019 E23.89875
G1 X197.008 Y176.913 E23.9288
G1 X196.799 Y177.791 E23.95882
G1 X196.513 Y178.648 E23.98887
G1 X196.152 Y179.476 E24.01892
G1 X195.72 Y180.268 E24.04892
G1 X195.219 Y181.02 E24.07898
G1 X194.653 Y181.724 E24.10902
G1 X194.028 Y182.375 E24.13904
G1 X193.347 Y182.969 E24.16909
G1 X192.616 Y183.5 E24.19914
G1 X191.842 Y183.964 E24.22916
G1 X191.029 Y184.358 E24.25921
G1 X190.185 Y184.678 E24.28923
G1 X189.315 Y184.923 E24.31929
G1 X188.428 Y185.089 E24.3493
G1 X187.277 Y185.187 E24.38772
G1 X186.956 Y185.196 E24.3984
G1 X186.67 Y185.2 E24.40792
