;FLAVOR:Marlin
;TIME:9959
;Filament used: 4.0799m
;Layer height: 0.14
;MINX:94
;MINY:90
;MINZ:0.2
;MAXX:206
;MAXY:206
;MAXZ:13.16
;Generated with Cura_SteamEngine 4.4.1
M140 S60
M105
M190 S60
M104 S215
M105
M109 S215
M82 ;absolute extrusion mode
M201 X500.00 Y500.00 Z100.00 E5000.00 ;Setup machine max acceleration
M203 X500.00 Y500.00 Z10.00 E50.00 ;Setup machine max feedrate
M204 P500.00 R1000.00 T500.00 ;Setup Print/Retract/Travel acceleration
M205 X8.00 Y8.00 Z0.40 E5.00 ;Setup Jerk
M220 S100 ;Reset Feedrate
M221 S100 ;Reset Flowrate

G28 ;Home

G92 E0 ;Reset Extruder
G1 Z2.0 F3000 ;Move Z Axis up
G1 X10.1 Y20 Z0.28 F5000.0 ;Move to start position
G1 X10.1 Y200.0 Z0.28 F1500.0 E15 ;Draw the first line
G1 X10.4 Y200.0 Z0.28 F5000.0 ;Move to side a little
G1 X10.4 Y20 Z0.28 F1500.0 E30 ;Draw the second line
G92 E0 ;Reset Extruder
G1 Z2.0 F3000 ;Move Z Axis up

G92 E0
G92 E0
G1 F1500 E-6.5
;LAYER_COUNT:74
;LAYER:0
M107
G0 F6000 X97.899 Y112.616 Z0.2
;TYPE:SKIRT
G1 F1500 E0
G1 F1200 X98.64 Y112.041 E0.0312
G1 X99.427 Y111.531 E0.06239
G1 X100.255 Y111.09 E0.09359
G1 X101.117 Y110.721 E0.12478
G1 X102.215 Y110.37 E0.16312
G1 X103.239 Y110.101 E0.19833
G1 X103.411 Y110.057 E0.20423
G1 X103.884 Y109.941 E0.22043
G1 X106.298 Y109.275 E0.30372
G1 X108.707 Y108.537 E0.38752
G1 X111.101 Y107.728 E0.47157
G1 X113.449 Y106.86 E0.55483
G1 X115.774 Y105.925 E0.63818
G1 X118.107 Y104.909 E0.72281
G1 X120.362 Y103.85 E0.80567
G1 X122.633 Y102.704 E0.89028
G1 X124.834 Y101.515 E0.97348
G1 X126.988 Y100.271 E1.05622
G1 X129.156 Y98.936 E1.1409
G1 X131.286 Y97.539 E1.22562
G1 X133.323 Y96.119 E1.30821
G1 X135.346 Y94.623 E1.39189
G1 X137.445 Y92.976 E1.48063
G1 X138.091 Y92.454 E1.50826
G1 X138.845 Y91.896 E1.53946
G1 X139.644 Y91.404 E1.57066
G1 X140.482 Y90.983 E1.60186
G1 X141.352 Y90.634 E1.63303
G1 X142.249 Y90.36 E1.66423
G1 X143.167 Y90.165 E1.69544
G1 X144.097 Y90.047 E1.72662
G1 X144.667 Y90.015 E1.74561
G1 X144.993 Y90.005 E1.75646
G1 X145.33 Y90 E1.76767
G1 X154.293 Y90 E2.06578
G1 X154.45 Y90.001 E2.071
G1 X155.151 Y90.011 E2.09432
G1 X156.087 Y90.064 E2.1255
G1 X157.016 Y90.197 E2.15671
G1 X157.929 Y90.409 E2.18789
G1 X158.822 Y90.697 E2.2191
G1 X159.686 Y91.061 E2.25028
G1 X160.517 Y91.497 E2.28149
G1 X161.307 Y92.002 E2.31268
G1 X161.758 Y92.335 E2.33132
G1 X162.094 Y92.597 E2.34549
G1 X162.231 Y92.706 E2.35132
G1 X163.732 Y93.916 E2.41544
G1 X165.712 Y95.421 E2.49816
G1 X167.78 Y96.903 E2.58278
G1 X169.862 Y98.307 E2.6663
G1 X171.984 Y99.653 E2.74988
G1 X174.157 Y100.948 E2.83402
G1 X176.315 Y102.15 E2.91618
G1 X178.58 Y103.331 E3.00114
G1 X180.858 Y104.437 E3.08536
G1 X183.134 Y105.464 E3.16841
G1 X185.485 Y106.448 E3.25318
G1 X187.815 Y107.341 E3.33617
G1 X190.176 Y108.174 E3.41944
G1 X192.569 Y108.943 E3.50304
G1 X195 Y109.648 E3.58723
G1 X197.744 Y110.357 E3.68149
G1 X198.641 Y110.63 E3.71268
G1 X199.512 Y110.979 E3.74389
G1 X200.35 Y111.401 E3.77509
G1 X201.149 Y111.892 E3.80628
G1 X201.903 Y112.45 E3.83748
G1 X202.606 Y113.069 E3.86864
G1 X203.255 Y113.747 E3.89985
G1 X203.843 Y114.477 E3.93103
G1 X204.367 Y115.255 E3.96223
G1 X204.823 Y116.075 E3.99344
G1 X205.208 Y116.93 E4.02462
G1 X205.518 Y117.815 E4.05581
G1 X205.751 Y118.724 E4.08702
G1 X205.907 Y119.649 E4.11822
G1 X205.987 Y120.701 E4.15331
G1 X205.996 Y121.024 E4.16406
G1 X206 Y121.33 E4.17424
G1 X206 Y130.274 E4.47172
G1 X205.999 Y130.426 E4.47677
G1 X205.989 Y131.15 E4.50086
G1 X205.98 Y131.465 E4.51134
G1 X205.934 Y132.547 E4.54736
G1 X205.927 Y132.693 E4.55222
G1 X205.891 Y133.343 E4.57387
G1 X205.822 Y135.861 E4.65765
G1 X205.824 Y138.325 E4.7396
G1 X205.993 Y142.926 E4.89274
G1 X206 Y143.33 E4.90618
G1 X206 Y152.274 E5.20366
G1 X205.999 Y152.427 E5.20874
G1 X205.989 Y153.144 E5.23259
G1 X205.936 Y154.081 E5.26381
G1 X205.803 Y155.009 E5.29499
G1 X205.592 Y155.923 E5.32619
G1 X205.304 Y156.815 E5.35736
G1 X204.889 Y157.787 E5.39252
G1 X203.754 Y160.13 E5.47911
G1 X202.712 Y162.437 E5.5633
G1 X201.729 Y164.785 E5.64796
G1 X200.838 Y167.103 E5.73056
G1 X200.009 Y169.453 E5.81344
G1 X199.219 Y171.91 E5.89928
G1 X198.53 Y174.277 E5.98128
G1 X197.869 Y176.818 E6.0686
G1 X197.675 Y177.611 E6.09576
G1 X197.413 Y178.512 E6.12697
G1 X197.076 Y179.387 E6.15815
G1 X196.665 Y180.23 E6.18935
G1 X196.184 Y181.035 E6.22054
G1 X195.846 Y181.52 E6.2402
G1 X195.437 Y182.075 E6.26313
G1 X195.336 Y182.21 E6.26874
G1 X194.601 Y183.176 E6.30911
G1 X193.115 Y185.248 E6.39391
G1 X191.726 Y187.305 E6.47647
G1 X190.378 Y189.428 E6.56011
G1 X189.074 Y191.617 E6.64486
G1 X187.85 Y193.811 E6.72842
G1 X186.705 Y196.006 E6.81076
G1 X185.557 Y198.365 E6.89802
G1 X184.956 Y199.651 E6.94523
G1 X184.523 Y200.482 E6.9764
G1 X184.02 Y201.274 E7.0076
G1 X183.452 Y202.02 E7.03879
G1 X182.822 Y202.716 E7.07001
G1 X182.136 Y203.355 E7.10119
G1 X181.397 Y203.933 E7.1324
G1 X180.612 Y204.446 E7.16359
G1 X179.786 Y204.89 E7.19478
G1 X178.926 Y205.263 E7.22596
G1 X178.036 Y205.56 E7.25716
G1 X177.125 Y205.781 E7.28834
G1 X176.198 Y205.924 E7.31954
G1 X175.333 Y205.985 E7.34838
G1 X175.011 Y205.995 E7.35909
G1 X174.67 Y206 E7.37044
G1 X165.707 Y206 E7.66855
G1 X165.554 Y205.999 E7.67364
G1 X164.837 Y205.989 E7.69749
G1 X164.522 Y205.98 E7.70797
G1 X163.879 Y205.953 E7.72937
G1 X161.241 Y205.878 E7.81715
G1 X158.753 Y205.878 E7.8999
G1 X156.179 Y205.951 E7.98555
G1 X155.821 Y205.969 E7.99747
G1 X155.578 Y205.978 E8.00556
G1 X154.985 Y205.995 E8.02529
G1 X154.67 Y206 E8.03576
G1 X145.707 Y206 E8.33388
G1 X145.554 Y205.999 E8.33896
G1 X144.837 Y205.989 E8.36281
G1 X144.522 Y205.98 E8.3733
G1 X143.879 Y205.953 E8.3947
G1 X141.241 Y205.878 E8.48248
G1 X138.753 Y205.878 E8.56523
G1 X136.179 Y205.951 E8.65087
G1 X135.821 Y205.969 E8.6628
G1 X135.578 Y205.978 E8.67088
G1 X134.985 Y205.995 E8.69061
G1 X134.67 Y206 E8.70109
G1 X125.707 Y206 E8.9992
G1 X125.549 Y205.999 E9.00446
G1 X124.851 Y205.989 E9.02768
G1 X123.915 Y205.935 E9.05886
G1 X122.987 Y205.803 E9.09004
G1 X122.073 Y205.591 E9.12124
G1 X121.181 Y205.302 E9.15243
G1 X120.316 Y204.939 E9.18363
G1 X119.486 Y204.503 E9.21481
G1 X118.695 Y203.998 E9.24603
G1 X117.951 Y203.427 E9.27722
G1 X117.258 Y202.795 E9.30841
G1 X116.621 Y202.107 E9.3396
G1 X116.046 Y201.366 E9.3708
G1 X115.535 Y200.58 E9.40198
G1 X115.093 Y199.752 E9.43319
G1 X114.724 Y198.89 E9.46438
G1 X114.453 Y198.083 E9.49269
G1 X114.152 Y197.055 E9.52832
G1 X113.4 Y194.608 E9.61347
G1 X112.587 Y192.202 E9.69793
G1 X111.71 Y189.833 E9.78195
G1 X110.767 Y187.491 E9.86593
G1 X109.768 Y185.197 E9.94915
G1 X108.688 Y182.899 E10.0336
G1 X107.51 Y180.567 E10.1205
G1 X107.26 Y180.088 E10.13847
G1 X106.872 Y179.266 E10.1687
G1 X106.695 Y178.846 E10.18386
G1 X106.628 Y178.683 E10.18972
G1 X105.972 Y177.055 E10.2481
G1 X104.968 Y174.753 E10.33163
G1 X103.908 Y172.5 E10.41444
G1 X102.755 Y170.219 E10.49945
G1 X101.569 Y168.029 E10.58228
G1 X100.314 Y165.859 E10.66566
G1 X98.979 Y163.696 E10.7502
G1 X97.591 Y161.582 E10.83431
G1 X96.079 Y159.416 E10.92217
G1 X96.044 Y159.366 E10.9242
G1 X95.955 Y159.237 E10.92941
G1 X95.456 Y158.443 E10.96061
G1 X95.026 Y157.609 E10.99181
G1 X94.669 Y156.742 E11.023
G1 X94.387 Y155.847 E11.05421
G1 X94.182 Y154.932 E11.0854
G1 X94.056 Y154.003 E11.11658
G1 X94.013 Y153.299 E11.14004
G1 X94.004 Y152.979 E11.15069
G1 X94 Y152.67 E11.16096
G1 X94 Y143.707 E11.45907
G1 X94.001 Y143.551 E11.46426
G1 X94.011 Y142.845 E11.48775
G1 X94.02 Y142.533 E11.49813
G1 X94.066 Y141.452 E11.53412
G1 X94.073 Y141.307 E11.53894
G1 X94.109 Y140.657 E11.5606
G1 X94.178 Y138.139 E11.64438
G1 X94.176 Y135.675 E11.72633
G1 X94.007 Y131.074 E11.87946
G1 X94 Y130.67 E11.8929
G1 X94 Y121.674 E12.19211
G1 X94.001 Y121.509 E12.1976
G1 X94.011 Y120.844 E12.21972
G1 X94.065 Y119.907 E12.25093
G1 X94.199 Y118.979 E12.28212
G1 X94.411 Y118.065 E12.31333
G1 X94.7 Y117.173 E12.34451
G1 X95.065 Y116.309 E12.37571
G1 X95.501 Y115.479 E12.40689
G1 X96.007 Y114.689 E12.4381
G1 X96.578 Y113.945 E12.46929
G1 X97.21 Y113.252 E12.50048
G1 X97.899 Y112.616 E12.53167
G0 F6000 X98.288 Y112.813
G1 F1200 X99.024 Y112.261 E12.56227
G1 X99.806 Y111.774 E12.59291
G1 X100.627 Y111.358 E12.62352
G1 X101.481 Y111.014 E12.65414
G1 X102.317 Y110.757 E12.68323
G1 X103.341 Y110.488 E12.71845
G1 X103.506 Y110.446 E12.72411
G1 X103.98 Y110.33 E12.74034
G1 X106.416 Y109.658 E12.82439
G1 X108.814 Y108.922 E12.90782
G1 X111.231 Y108.106 E12.99267
G1 X113.588 Y107.235 E13.07624
G1 X115.947 Y106.286 E13.16081
G1 X118.258 Y105.279 E13.24466
G1 X120.534 Y104.211 E13.32828
G1 X122.824 Y103.056 E13.41358
G1 X125.045 Y101.856 E13.49755
G1 X127.192 Y100.616 E13.58001
G1 X129.38 Y99.268 E13.66549
G1 X131.488 Y97.886 E13.74932
G1 X133.568 Y96.437 E13.83364
G1 X135.586 Y94.944 E13.91713
G1 X137.694 Y93.289 E14.00627
G1 X138.343 Y92.765 E14.03401
G1 X139.083 Y92.218 E14.06462
G1 X139.868 Y91.737 E14.09524
G1 X140.692 Y91.326 E14.12586
G1 X141.549 Y90.989 E14.15649
G1 X142.432 Y90.727 E14.18713
G1 X143.334 Y90.542 E14.21775
G1 X144.679 Y90.415 E14.26269
G1 X145.005 Y90.405 E14.27353
G1 X145.33 Y90.4 E14.28434
G1 X154.293 Y90.4 E14.58245
G1 X154.444 Y90.401 E14.58748
G1 X155.145 Y90.411 E14.61079
G1 X156.064 Y90.464 E14.64141
G1 X156.975 Y90.597 E14.67203
G1 X157.871 Y90.808 E14.70265
G1 X158.746 Y91.096 E14.73329
G1 X159.592 Y91.459 E14.76391
G1 X160.403 Y91.894 E14.79452
G1 X161.512 Y92.651 E14.83918
G1 X161.848 Y92.913 E14.85335
G1 X161.98 Y93.018 E14.85896
G1 X163.463 Y94.213 E14.9223
G1 X165.482 Y95.749 E15.00668
G1 X167.568 Y97.244 E15.09204
G1 X169.604 Y98.617 E15.17371
G1 X171.786 Y100.001 E15.25965
G1 X173.949 Y101.289 E15.34339
G1 X176.157 Y102.519 E15.42745
G1 X178.399 Y103.688 E15.51155
G1 X180.684 Y104.798 E15.59604
G1 X182.978 Y105.832 E15.67973
G1 X185.342 Y106.821 E15.76496
G1 X187.655 Y107.708 E15.84735
G1 X190.058 Y108.556 E15.93211
G1 X192.473 Y109.332 E16.01648
G1 X194.862 Y110.025 E16.09921
G1 X197.644 Y110.744 E16.19478
G1 X198.524 Y111.013 E16.22539
G1 X199.378 Y111.358 E16.25602
G1 X200.199 Y111.775 E16.28665
G1 X200.981 Y112.261 E16.31727
G1 X201.717 Y112.814 E16.34789
G1 X202.402 Y113.429 E16.37851
G1 X203.032 Y114.1 E16.40912
G1 X203.601 Y114.824 E16.43975
G1 X204.105 Y115.595 E16.47039
G1 X204.54 Y116.406 E16.50099
G1 X204.904 Y117.252 E16.53163
G1 X205.192 Y118.126 E16.56223
G1 X205.403 Y119.022 E16.59285
G1 X205.536 Y119.933 E16.62347
G1 X205.587 Y120.712 E16.64944
G1 X205.596 Y121.035 E16.66018
G1 X205.6 Y121.33 E16.67
G1 X205.6 Y130.274 E16.96747
G1 X205.599 Y130.42 E16.97233
G1 X205.589 Y131.144 E16.99641
G1 X205.58 Y131.448 E17.00653
G1 X205.534 Y132.53 E17.04255
G1 X205.528 Y132.671 E17.04724
G1 X205.49 Y133.345 E17.0697
G1 X205.422 Y135.846 E17.15291
G1 X205.424 Y138.341 E17.23589
G1 X205.593 Y142.941 E17.38899
G1 X205.6 Y143.33 E17.40193
G1 X205.6 Y152.274 E17.69941
G1 X205.599 Y152.422 E17.70434
G1 X205.589 Y153.139 E17.72819
G1 X205.536 Y154.058 E17.7588
G1 X205.404 Y154.969 E17.78942
G1 X205.193 Y155.865 E17.82003
G1 X204.905 Y156.74 E17.85067
G1 X204.529 Y157.613 E17.88229
G1 X203.395 Y159.954 E17.9688
G1 X202.343 Y162.284 E18.05383
G1 X201.363 Y164.624 E18.13821
G1 X200.46 Y166.975 E18.22198
G1 X199.623 Y169.345 E18.30557
G1 X198.843 Y171.771 E18.39033
G1 X198.142 Y174.179 E18.47375
G1 X197.49 Y176.686 E18.5599
G1 X197.287 Y177.516 E18.58832
G1 X197.029 Y178.4 E18.61895
G1 X196.696 Y179.258 E18.64956
G1 X196.289 Y180.084 E18.68019
G1 X195.812 Y180.872 E18.71083
G1 X195.524 Y181.282 E18.72749
G1 X195.115 Y181.837 E18.75042
G1 X195.017 Y181.968 E18.75586
G1 X194.278 Y182.94 E18.79647
G1 X192.803 Y184.996 E18.88063
G1 X191.39 Y187.088 E18.9646
G1 X190.024 Y189.239 E19.04935
G1 X188.739 Y191.397 E19.13289
G1 X187.504 Y193.61 E19.21718
G1 X186.334 Y195.853 E19.30132
G1 X185.206 Y198.172 E19.38709
G1 X184.594 Y199.481 E19.43515
G1 X184.168 Y200.297 E19.46577
G1 X183.673 Y201.073 E19.49638
G1 X183.112 Y201.804 E19.52703
G1 X182.49 Y202.483 E19.55765
G1 X181.812 Y203.105 E19.58826
G1 X181.082 Y203.666 E19.61888
G1 X180.306 Y204.162 E19.64951
G1 X179.49 Y204.588 E19.68013
G1 X178.64 Y204.942 E19.71075
G1 X177.763 Y205.221 E19.74136
G1 X176.865 Y205.423 E19.77197
G1 X175.952 Y205.546 E19.80261
G1 X175.321 Y205.585 E19.82364
G1 X174.999 Y205.595 E19.83436
G1 X174.67 Y205.6 E19.8453
G1 X165.707 Y205.6 E20.14341
G1 X165.559 Y205.599 E20.14833
G1 X164.842 Y205.589 E20.17218
G1 X164.539 Y205.58 E20.18227
G1 X163.908 Y205.553 E20.20327
G1 X161.252 Y205.478 E20.29165
G1 X158.742 Y205.478 E20.37513
G1 X156.148 Y205.551 E20.46144
G1 X155.801 Y205.569 E20.473
G1 X155.567 Y205.579 E20.48079
G1 X154.974 Y205.596 E20.50052
G1 X154.67 Y205.6 E20.51063
G1 X145.707 Y205.6 E20.80874
G1 X145.559 Y205.599 E20.81366
G1 X144.842 Y205.589 E20.83751
G1 X144.539 Y205.58 E20.8476
G1 X143.908 Y205.553 E20.8686
G1 X141.252 Y205.478 E20.95698
G1 X138.742 Y205.478 E21.04046
G1 X136.148 Y205.551 E21.12677
G1 X135.801 Y205.569 E21.13833
G1 X135.567 Y205.579 E21.14612
G1 X134.974 Y205.596 E21.16585
G1 X134.67 Y205.6 E21.17596
G1 X125.707 Y205.6 E21.47407
G1 X125.555 Y205.599 E21.47913
G1 X124.857 Y205.589 E21.50234
G1 X123.938 Y205.536 E21.53296
G1 X123.027 Y205.403 E21.56358
G1 X122.131 Y205.192 E21.5942
G1 X121.257 Y204.904 E21.62481
G1 X120.41 Y204.541 E21.65546
G1 X119.599 Y204.106 E21.68606
G1 X118.829 Y203.602 E21.71667
G1 X118.105 Y203.033 E21.7473
G1 X117.433 Y202.403 E21.77794
G1 X116.818 Y201.718 E21.80856
G1 X116.265 Y200.982 E21.83917
G1 X115.778 Y200.201 E21.86979
G1 X115.361 Y199.38 E21.90041
G1 X115.016 Y198.526 E21.93105
G1 X114.837 Y197.97 E21.95048
G1 X114.559 Y197.02 E21.9834
G1 X113.775 Y194.468 E22.07219
G1 X112.955 Y192.041 E22.1574
G1 X112.092 Y189.712 E22.24001
G1 X111.134 Y187.33 E22.3254
G1 X110.139 Y185.046 E22.40826
G1 X109.049 Y182.728 E22.49346
G1 X107.879 Y180.409 E22.57985
G1 X107.614 Y179.903 E22.59885
G1 X107.241 Y179.111 E22.62796
G1 X107.064 Y178.691 E22.64312
G1 X106.999 Y178.534 E22.64878
G1 X106.334 Y176.882 E22.70801
G1 X105.339 Y174.602 E22.79075
G1 X104.269 Y172.329 E22.8743
G1 X103.12 Y170.055 E22.95904
G1 X101.909 Y167.818 E23.04365
G1 X100.642 Y165.628 E23.1278
G1 X99.312 Y163.472 E23.21206
G1 X97.938 Y161.379 E23.29533
G1 X96.407 Y159.187 E23.38426
G1 X96.373 Y159.139 E23.38621
G1 X96.284 Y159.01 E23.39143
G1 X95.795 Y158.23 E23.42205
G1 X95.375 Y157.41 E23.45269
G1 X95.027 Y156.558 E23.4833
G1 X94.756 Y155.678 E23.51392
G1 X94.561 Y154.778 E23.54455
G1 X94.445 Y153.865 E23.57516
G1 X94.413 Y153.288 E23.59438
G1 X94.404 Y152.968 E23.60503
G1 X94.4 Y152.67 E23.61494
G1 X94.4 Y143.707 E23.91306
G1 X94.401 Y143.557 E23.91804
G1 X94.411 Y142.851 E23.94153
G1 X94.42 Y142.55 E23.95154
G1 X94.466 Y141.469 E23.98753
G1 X94.472 Y141.329 E23.99219
G1 X94.51 Y140.655 E24.01464
G1 X94.578 Y138.149 E24.09803
G1 X94.576 Y135.659 E24.18084
G1 X94.407 Y131.059 E24.33394
G1 X94.4 Y130.67 E24.34688
G1 X94.4 Y121.674 E24.64609
G1 X94.401 Y121.515 E24.65138
G1 X94.411 Y120.85 E24.6735
G1 X94.465 Y119.931 E24.70412
G1 X94.598 Y119.02 E24.73474
G1 X94.81 Y118.124 E24.76536
G1 X95.099 Y117.249 E24.79601
G1 X95.463 Y116.404 E24.82661
G1 X95.898 Y115.593 E24.85722
G1 X96.403 Y114.822 E24.88788
G1 X96.972 Y114.099 E24.91848
G1 X97.602 Y113.427 E24.94912
G1 X98.288 Y112.813 E24.97974
G0 F6000 X98.675 Y113.014
G1 F1200 X99.407 Y112.485 E25.00978
G1 X100.183 Y112.023 E25.03981
G1 X100.997 Y111.632 E25.06985
G1 X101.842 Y111.313 E25.09989
G1 X102.418 Y111.144 E25.11985
G1 X103.442 Y110.875 E25.15507
G1 X103.602 Y110.834 E25.16056
G1 X104.077 Y110.717 E25.17683
G1 X106.525 Y110.042 E25.26129
G1 X108.954 Y109.297 E25.3458
G1 X111.35 Y108.488 E25.42991
G1 X113.739 Y107.605 E25.51462
G1 X116.106 Y106.653 E25.59948
G1 X118.422 Y105.644 E25.6835
G1 X120.705 Y104.572 E25.76739
G1 X123.015 Y103.407 E25.85343
G1 X125.229 Y102.211 E25.93713
G1 X127.422 Y100.944 E26.02137
G1 X129.587 Y99.611 E26.10593
G1 X131.707 Y98.221 E26.19025
G1 X133.795 Y96.766 E26.27489
G1 X135.819 Y95.269 E26.35862
G1 X137.951 Y93.596 E26.44876
G1 X138.594 Y93.076 E26.47626
G1 X139.321 Y92.54 E26.50631
G1 X140.092 Y92.07 E26.53634
G1 X140.902 Y91.671 E26.56637
G1 X141.744 Y91.345 E26.5964
G1 X142.612 Y91.094 E26.62645
