;FLAVOR:Marlin
;TIME:7429
;Filament used: 2.96217m
;Layer height: 0.14
;MINX:102
;MINY:108
;MINZ:0.2
;MAXX:204
;MAXY:190
;MAXZ:13.08
;Generated with Cura_SteamEngine 4.4.1
M140 S60
M105
M190 S60
M104 S215
M105
M109 S215
M82 ;absolute extrusion mode
M201 X500.00 Y500.00 Z100.00 E5000.00 ;Setup machine max acceleration
M203 X500.00 Y500.00 Z10.00 E50.00 ;Setup machine max feedrate
M204 P500.00 R1000.00 T500.00 ;Setup Print/Retract/Travel acceleration
M205 X8.00 Y8.00 Z0.40 E5.00 ;Setup Jerk
M220 S100 ;Reset Feedrate
M221 S100 ;Reset Flowrate

G28 ;Home

G92 E0 ;Reset Extruder
G1 Z2.0 F3000 ;Move Z Axis up
G1 X10.1 Y20 Z0.28 F5000.0 ;Move to start position
G1 X10.1 Y200.0 Z0.28 F1500.0 E15 ;Draw the first line
G1 X10.4 Y200.0 Z0.28 F5000.0 ;Move to side a little
G1 X10.4 Y20 Z0.28 F1500.0 E30 ;Draw the second line
G92 E0 ;Reset Extruder
G1 Z2.0 F3000 ;Move Z Axis up

G92 E0
G92 E0
G1 F1500 E-6.5
;LAYER_COUNT:78
;LAYER:0
M107
G0 F6000 X113.292 Y111.774 Z0.2
;TYPE:SKIRT
G1 F1500 E0
G1 F1200 X113.956 Y111.112 E0.03119
G1 X114.675 Y110.509 E0.0624
G1 X115.442 Y109.969 E0.0936
G1 X115.939 Y109.669 E0.1129
G1 X116.213 Y109.513 E0.12339
G1 X117.047 Y109.084 E0.15458
G1 X117.914 Y108.728 E0.18576
G1 X118.809 Y108.447 E0.21696
G1 X119.296 Y108.328 E0.23363
G1 X119.551 Y108.272 E0.24232
G1 X120.474 Y108.11 E0.27348
G1 X121.698 Y108.018 E0.31431
G1 X122.528 Y108.002 E0.34192
G1 X122.742 Y108 E0.34904
G1 X133.38 Y108.002 E0.70286
G1 X133.537 Y108.003 E0.70808
G1 X134.228 Y108.013 E0.73107
G1 X135.165 Y108.067 E0.76228
G1 X135.686 Y108.132 E0.77975
G1 X136.243 Y108.215 E0.79848
G1 X138.852 Y108.581 E0.8861
G1 X141.375 Y108.863 E0.97054
G1 X143.851 Y109.068 E1.05317
G1 X146.404 Y109.207 E1.13821
G1 X148.898 Y109.274 E1.22119
G1 X151.416 Y109.268 E1.30494
G1 X153.948 Y109.191 E1.3892
G1 X156.452 Y109.045 E1.47262
G1 X158.93 Y108.829 E1.55535
G1 X161.505 Y108.532 E1.64156
G1 X163.169 Y108.298 E1.69745
G1 X164.086 Y108.16 E1.7283
G1 X164.464 Y108.11 E1.74098
G1 X164.681 Y108.085 E1.74824
G1 X165.761 Y108.014 E1.78424
G1 X166.561 Y108.001 E1.81085
G1 X166.742 Y108 E1.81687
G1 X177.38 Y108.002 E2.1707
G1 X177.537 Y108.003 E2.17592
G1 X178.229 Y108.013 E2.19894
G1 X179.165 Y108.067 E2.23012
G1 X180.094 Y108.2 E2.26133
G1 X180.618 Y108.311 E2.27915
G1 X180.933 Y108.386 E2.28992
G1 X181.835 Y108.642 E2.3211
G1 X182.712 Y108.974 E2.35229
G1 X183.898 Y109.568 E2.39641
G1 X184.081 Y109.674 E2.40344
G1 X184.872 Y110.179 E2.43466
G1 X185.617 Y110.749 E2.46586
G1 X186.022 Y111.104 E2.48377
G1 X186.226 Y111.292 E2.493
G1 X186.888 Y111.956 E2.52418
G1 X187.491 Y112.675 E2.55539
G1 X188.031 Y113.442 E2.58659
G1 X188.34 Y113.953 E2.60645
G1 X188.496 Y114.228 E2.61697
G1 X188.923 Y115.063 E2.64816
G1 X189.278 Y115.931 E2.67935
G1 X189.662 Y117.252 E2.72511
G1 X189.718 Y117.502 E2.73363
G1 X189.935 Y118.867 E2.7796
G1 X190.068 Y120.269 E2.82644
G1 X190.077 Y120.368 E2.82975
G1 X190.128 Y120.959 E2.84948
G1 X190.409 Y123.445 E2.93269
G1 X190.763 Y125.939 E3.01647
G1 X191.19 Y128.439 E3.10082
G1 X191.679 Y130.884 E3.18375
G1 X192.237 Y133.319 E3.26684
G1 X192.879 Y135.791 E3.35179
G1 X193.574 Y138.186 E3.43473
G1 X194.348 Y140.597 E3.51895
G1 X195.19 Y142.986 E3.6032
G1 X196.079 Y145.295 E3.6855
G1 X197.067 Y147.663 E3.77084
G1 X198.088 Y149.927 E3.85344
G1 X199.186 Y152.187 E3.93701
G1 X200.356 Y154.432 E4.02121
G1 X202.078 Y157.485 E4.13779
G1 X202.182 Y157.662 E4.14462
G1 X202.356 Y157.968 E4.15633
G1 X202.58 Y158.378 E4.17187
G1 X202.994 Y159.219 E4.20305
G1 X203.335 Y160.093 E4.23425
G1 X203.666 Y161.27 E4.27491
G1 X203.723 Y161.527 E4.28367
G1 X203.887 Y162.451 E4.31488
G1 X203.982 Y163.697 E4.35645
G1 X203.998 Y164.528 E4.38409
G1 X204 Y164.742 E4.39121
G1 X203.998 Y175.366 E4.74456
G1 X203.997 Y175.513 E4.74945
G1 X203.989 Y176.105 E4.76914
G1 X203.928 Y177.125 E4.80313
G1 X203.897 Y177.415 E4.81283
G1 X203.757 Y178.343 E4.84405
G1 X203.539 Y179.255 E4.87523
G1 X203.245 Y180.145 E4.90641
G1 X202.919 Y180.915 E4.93422
G1 X202.769 Y181.235 E4.94597
G1 X202.335 Y182.066 E4.97716
G1 X201.832 Y182.858 E5.00836
G1 X201.263 Y183.603 E5.03954
G1 X200.895 Y184.024 E5.05814
G1 X200.705 Y184.23 E5.06746
G1 X200.04 Y184.891 E5.09864
G1 X199.322 Y185.494 E5.12983
G1 X198.554 Y186.033 E5.16104
G1 X198.047 Y186.34 E5.18075
G1 X197.772 Y186.496 E5.19127
G1 X196.937 Y186.923 E5.22246
G1 X196.069 Y187.278 E5.25365
G1 X195.173 Y187.558 E5.28487
G1 X194.712 Y187.67 E5.30065
G1 X194.458 Y187.726 E5.3093
G1 X193.535 Y187.889 E5.34048
G1 X192.302 Y187.982 E5.3816
G1 X191.472 Y187.998 E5.40921
G1 X191.258 Y188 E5.41633
G1 X180.62 Y187.998 E5.77015
G1 X180.464 Y187.997 E5.77534
G1 X179.767 Y187.987 E5.79853
G1 X179.151 Y187.961 E5.81903
G1 X178.64 Y187.925 E5.83607
G1 X176.091 Y187.781 E5.92099
G1 X173.595 Y187.709 E6.00404
G1 X171.077 Y187.709 E6.08779
G1 X169.309 Y187.759 E6.14661
G1 X169.158 Y187.762 E6.15164
G1 X167.919 Y187.78 E6.19285
G1 X167.757 Y187.781 E6.19824
G1 X157.118 Y187.779 E6.55209
G1 X156.962 Y187.778 E6.55728
G1 X156.265 Y187.768 E6.58047
G1 X155.649 Y187.742 E6.60097
G1 X154.798 Y187.682 E6.62935
G1 X152.282 Y187.539 E6.71317
G1 X149.723 Y187.467 E6.79831
G1 X147.235 Y187.467 E6.88106
G1 X144.677 Y187.539 E6.96618
G1 X142.193 Y187.68 E7.04893
G1 X139.704 Y187.892 E7.13201
G1 X137.171 Y188.18 E7.2168
G1 X134.682 Y188.534 E7.30042
G1 X132.231 Y188.954 E7.38313
G1 X129.702 Y189.462 E7.46892
G1 X129.024 Y189.615 E7.49204
G1 X128.807 Y189.662 E7.49943
G1 X128.368 Y189.752 E7.51433
G1 X127.442 Y189.901 E7.54553
G1 X126.453 Y189.972 E7.57851
G1 X125.554 Y189.996 E7.60842
G1 X125.258 Y190 E7.61826
G1 X114.62 Y189.998 E7.97208
G1 X114.47 Y189.997 E7.97707
G1 X113.892 Y189.989 E7.9963
G1 X112.871 Y189.927 E8.03032
G1 X112.582 Y189.896 E8.03999
G1 X111.654 Y189.757 E8.0712
G1 X110.742 Y189.538 E8.10239
G1 X109.852 Y189.243 E8.13358
G1 X109.071 Y188.912 E8.16179
G1 X108.748 Y188.76 E8.17366
G1 X107.917 Y188.325 E8.20486
G1 X107.127 Y187.821 E8.23603
G1 X106.382 Y187.251 E8.26723
G1 X105.978 Y186.896 E8.28512
G1 X105.774 Y186.708 E8.29434
G1 X105.112 Y186.044 E8.32553
G1 X104.509 Y185.325 E8.35674
G1 X103.969 Y184.558 E8.38794
G1 X103.669 Y184.061 E8.40725
G1 X103.513 Y183.787 E8.41773
G1 X103.084 Y182.953 E8.44893
G1 X102.728 Y182.086 E8.4801
G1 X102.447 Y181.191 E8.5113
G1 X102.328 Y180.704 E8.52797
G1 X102.272 Y180.449 E8.53666
G1 X102.11 Y179.526 E8.56783
G1 X102.018 Y178.293 E8.60895
G1 X102.002 Y177.425 E8.63782
G1 X102 Y177.22 E8.64464
G1 X102.002 Y166.62 E8.9972
G1 X102.003 Y166.47 E9.00219
G1 X102.011 Y165.892 E9.02142
G1 X102.068 Y164.912 E9.05407
G1 X102.098 Y164.622 E9.06376
G1 X102.235 Y163.694 E9.09496
G1 X102.449 Y162.781 E9.12615
G1 X102.688 Y162.034 E9.15224
G1 X102.803 Y161.714 E9.16355
G1 X102.967 Y161.287 E9.17876
G1 X103.048 Y161.088 E9.18591
G1 X103.074 Y161.025 E9.18817
G1 X103.685 Y159.55 E9.24128
G1 X104.603 Y157.146 E9.32686
G1 X105.415 Y154.819 E9.40884
G1 X106.185 Y152.399 E9.4933
G1 X106.879 Y149.984 E9.57688
G1 X107.505 Y147.547 E9.66056
G1 X108.056 Y145.121 E9.74331
G1 X108.55 Y142.622 E9.82803
G1 X108.967 Y140.138 E9.91181
G1 X109.316 Y137.634 E9.9959
G1 X109.59 Y135.153 E10.07892
G1 X109.797 Y132.637 E10.16288
G1 X109.928 Y130.171 E10.24502
G1 X110.001 Y126.518 E10.36654
G1 X110.002 Y120.595 E10.56354
G1 X110.003 Y120.438 E10.56876
G1 X110.011 Y119.885 E10.58716
G1 X110.068 Y118.912 E10.61957
G1 X110.098 Y118.622 E10.62927
G1 X110.235 Y117.694 E10.66047
G1 X110.449 Y116.781 E10.69166
G1 X110.741 Y115.89 E10.72285
G1 X111.105 Y115.033 E10.75381
G1 X111.258 Y114.711 E10.76567
G1 X111.696 Y113.882 E10.79686
G1 X112.203 Y113.093 E10.82805
G1 X112.776 Y112.35 E10.85926
G1 X113.104 Y111.978 E10.87575
G1 X113.292 Y111.774 E10.88498
G0 F6000 X113.586 Y112.045
G1 F1200 X114.239 Y111.395 E10.91562
G1 X114.946 Y110.805 E10.94625
G1 X115.701 Y110.278 E10.97688
G1 X116.136 Y110.016 E10.99376
G1 X116.41 Y109.86 E11.00425
G1 X117.23 Y109.44 E11.03489
G1 X118.082 Y109.092 E11.0655
G1 X119.381 Y108.719 E11.11046
G1 X119.636 Y108.663 E11.11914
G1 X120.543 Y108.504 E11.14977
G1 X121.706 Y108.418 E11.18855
G1 X122.536 Y108.402 E11.21616
G1 X122.742 Y108.4 E11.22302
G1 X133.38 Y108.402 E11.57684
G1 X133.531 Y108.403 E11.58186
G1 X134.222 Y108.413 E11.60484
G1 X135.141 Y108.466 E11.63546
G1 X135.627 Y108.527 E11.65175
G1 X136.237 Y108.618 E11.67227
G1 X138.824 Y108.981 E11.75915
G1 X141.299 Y109.257 E11.84198
G1 X143.867 Y109.47 E11.92769
G1 X146.372 Y109.607 E12.01113
G1 X148.888 Y109.674 E12.09484
G1 X151.429 Y109.668 E12.17936
G1 X153.947 Y109.592 E12.26314
G1 X156.474 Y109.444 E12.34733
G1 X159.009 Y109.223 E12.43197
G1 X161.532 Y108.932 E12.51644
G1 X163.269 Y108.688 E12.57478
G1 X164.146 Y108.556 E12.60428
G1 X164.51 Y108.508 E12.61649
G1 X164.727 Y108.483 E12.62375
G1 X165.768 Y108.414 E12.65845
G1 X166.568 Y108.401 E12.68507
G1 X166.742 Y108.4 E12.69085
G1 X177.38 Y108.402 E13.04468
G1 X177.531 Y108.403 E13.0497
G1 X178.223 Y108.413 E13.07272
G1 X179.142 Y108.466 E13.10333
G1 X180.053 Y108.599 E13.13395
G1 X180.525 Y108.7 E13.15001
G1 X180.84 Y108.775 E13.16078
G1 X181.726 Y109.027 E13.19142
G1 X182.586 Y109.355 E13.22203
G1 X183.698 Y109.915 E13.26344
G1 X183.881 Y110.021 E13.27047
G1 X184.657 Y110.516 E13.30109
G1 X185.387 Y111.077 E13.33171
G1 X185.751 Y111.398 E13.34785
G1 X185.955 Y111.586 E13.35708
G1 X186.605 Y112.239 E13.38772
G1 X187.195 Y112.946 E13.41835
G1 X187.722 Y113.701 E13.44897
G1 X187.992 Y114.151 E13.46643
G1 X188.148 Y114.426 E13.47694
G1 X188.567 Y115.246 E13.50757
G1 X188.913 Y116.099 E13.53819
G1 X189.272 Y117.339 E13.58112
G1 X189.328 Y117.589 E13.58964
G1 X189.537 Y118.905 E13.63396
G1 X189.67 Y120.307 E13.6808
G1 X189.678 Y120.402 E13.68397
G1 X189.726 Y120.966 E13.7028
G1 X190.014 Y123.509 E13.78792
G1 X190.366 Y125.99 E13.87127
G1 X190.797 Y128.513 E13.9564
G1 X191.292 Y130.988 E14.04035
G1 X191.846 Y133.404 E14.12279
G1 X192.491 Y135.889 E14.20818
G1 X193.195 Y138.314 E14.29216
G1 X193.966 Y140.715 E14.37604
G1 X194.816 Y143.126 E14.46107
G1 X195.708 Y145.444 E14.54367
G1 X196.687 Y147.789 E14.62819
G1 X197.741 Y150.129 E14.71355
G1 X198.829 Y152.368 E14.79635
G1 X199.991 Y154.599 E14.88001
G1 X201.733 Y157.686 E14.99791
G1 X201.838 Y157.865 E15.00481
G1 X202.005 Y158.16 E15.01608
G1 X202.229 Y158.57 E15.03162
G1 X202.635 Y159.396 E15.06224
G1 X202.968 Y160.255 E15.09288
G1 X203.276 Y161.357 E15.13094
G1 X203.333 Y161.614 E15.13969
G1 X203.493 Y162.52 E15.17029
G1 X203.582 Y163.705 E15.20982
G1 X203.598 Y164.536 E15.23746
G1 X203.6 Y164.742 E15.24431
G1 X203.598 Y175.366 E15.59767
G1 X203.597 Y175.507 E15.60236
G1 X203.589 Y176.099 E15.62205
G1 X203.53 Y177.083 E15.65484
G1 X203.499 Y177.373 E15.66454
G1 X203.361 Y178.283 E15.69515
G1 X203.145 Y179.178 E15.72577
G1 X202.853 Y180.051 E15.75639
G1 X202.557 Y180.745 E15.78148
G1 X202.407 Y181.065 E15.79324
G1 X201.98 Y181.881 E15.82387
G1 X201.485 Y182.657 E15.85448
G1 X200.923 Y183.386 E15.8851
G1 X200.601 Y183.753 E15.90134
G1 X200.411 Y183.959 E15.91066
G1 X199.758 Y184.608 E15.94128
G1 X199.051 Y185.198 E15.97191
G1 X198.296 Y185.724 E16.00251
G1 X197.849 Y185.992 E16.01985
G1 X197.574 Y186.148 E16.03036
G1 X196.754 Y186.567 E16.06099
G1 X195.901 Y186.913 E16.0916
G1 X194.626 Y187.279 E16.13572
G1 X194.372 Y187.335 E16.14438
G1 X193.465 Y187.494 E16.175
G1 X192.294 Y187.582 E16.21406
G1 X191.464 Y187.598 E16.24167
G1 X191.258 Y187.6 E16.24852
G1 X180.62 Y187.598 E16.60234
G1 X180.47 Y187.597 E16.60733
G1 X179.773 Y187.587 E16.63052
G1 X179.18 Y187.562 E16.65026
G1 X178.698 Y187.528 E16.66633
G1 X176.123 Y187.382 E16.75211
G1 X173.572 Y187.309 E16.83699
G1 X171.066 Y187.309 E16.92034
G1 X169.298 Y187.359 E16.97917
G1 X169.152 Y187.362 E16.98403
G1 X167.913 Y187.38 E17.02524
G1 X167.757 Y187.381 E17.03043
G1 X157.118 Y187.379 E17.38428
G1 X156.968 Y187.378 E17.38927
G1 X156.271 Y187.368 E17.41246
G1 X155.677 Y187.343 E17.43223
G1 X154.85 Y187.285 E17.45981
G1 X152.28 Y187.139 E17.54542
G1 X149.734 Y187.067 E17.63014
G1 X147.224 Y187.067 E17.71362
G1 X144.679 Y187.139 E17.7983
G1 X142.174 Y187.281 E17.88175
G1 X139.623 Y187.498 E17.9669
G1 X137.141 Y187.78 E18.04999
G1 X134.624 Y188.138 E18.13455
G1 X132.123 Y188.567 E18.21894
G1 X129.661 Y189.061 E18.30246
G1 X128.936 Y189.225 E18.32719
G1 X128.727 Y189.27 E18.3343
G1 X128.288 Y189.36 E18.3492
G1 X127.379 Y189.506 E18.37982
G1 X126.442 Y189.572 E18.41106
G1 X125.543 Y189.596 E18.44098
G1 X125.258 Y189.6 E18.45046
G1 X114.62 Y189.598 E18.80428
G1 X114.475 Y189.597 E18.8091
G1 X113.897 Y189.589 E18.82833
G1 X112.913 Y189.53 E18.86111
G1 X112.624 Y189.499 E18.87078
G1 X111.714 Y189.361 E18.90139
G1 X110.819 Y189.144 E18.93202
G1 X109.947 Y188.851 E18.96262
G1 X109.242 Y188.55 E18.98812
G1 X108.919 Y188.398 E18.99999
G1 X108.103 Y187.97 E19.03064
G1 X107.328 Y187.473 E19.06126
G1 X106.599 Y186.911 E19.09187
G1 X106.249 Y186.602 E19.1074
G1 X106.045 Y186.414 E19.11663
G1 X105.395 Y185.761 E19.14727
G1 X104.805 Y185.054 E19.1779
G1 X104.278 Y184.299 E19.20852
G1 X104.016 Y183.864 E19.22541
G1 X103.86 Y183.59 E19.2359
G1 X103.44 Y182.77 E19.26654
G1 X103.092 Y181.918 E19.29715
G1 X102.719 Y180.619 E19.3421
G1 X102.663 Y180.364 E19.35079
G1 X102.504 Y179.457 E19.38141
G1 X102.418 Y178.285 E19.4205
G1 X102.402 Y177.417 E19.44937
G1 X102.4 Y177.22 E19.45593
G1 X102.402 Y166.62 E19.80848
G1 X102.403 Y166.475 E19.81331
G1 X102.411 Y165.897 E19.83253
G1 X102.466 Y164.953 E19.86398
G1 X102.496 Y164.663 E19.87368
G1 X102.631 Y163.752 E19.90431
G1 X102.844 Y162.857 E19.93491
G1 X103.065 Y162.169 E19.95895
G1 X103.18 Y161.849 E19.97026
G1 X103.337 Y161.438 E19.98489
G1 X103.418 Y161.239 E19.99204
G1 X103.443 Y161.178 E19.99423
G1 X104.074 Y159.654 E20.04909
G1 X104.978 Y157.287 E20.13336
G1 X105.787 Y154.968 E20.21505
G1 X106.568 Y152.514 E20.30071
G1 X107.265 Y150.089 E20.38463
G1 X107.896 Y147.63 E20.46906
G1 X108.451 Y145.189 E20.55232
G1 X108.944 Y142.694 E20.63691
G1 X109.359 Y140.222 E20.72028
G1 X109.711 Y137.697 E20.80508
G1 X109.988 Y135.194 E20.88883
G1 X110.196 Y132.657 E20.9735
G1 X110.329 Y130.17 E21.05633
G1 X110.401 Y126.526 E21.17756
G1 X110.402 Y120.595 E21.37482
G1 X110.403 Y120.444 E21.37985
G1 X110.411 Y119.891 E21.39824
G1 X110.466 Y118.953 E21.42949
G1 X110.496 Y118.663 E21.43919
G1 X110.631 Y117.752 E21.46982
G1 X110.844 Y116.857 E21.50042
G1 X111.133 Y115.983 E21.53104
G1 X111.466 Y115.205 E21.55918
G1 X111.619 Y114.883 E21.57104
G1 X112.05 Y114.069 E21.60168
G1 X112.55 Y113.296 E21.6323
G1 X113.398 Y112.249 E21.67711
G1 X113.586 Y112.045 E21.68633
G0 F6000 X113.88 Y112.316
G1 F1200 X114.521 Y111.679 E21.71639
G1 X115.216 Y111.102 E21.74644
G1 X116.334 Y110.364 E21.79099
G1 X116.608 Y110.208 E21.80148
G1 X117.412 Y109.796 E21.83153
G1 X118.249 Y109.457 E21.86156
G1 X119.467 Y109.109 E21.90369
G1 X119.722 Y109.053 E21.91238
G1 X120.612 Y108.899 E21.94242
G1 X121.713 Y108.818 E21.97914
G1 X122.543 Y108.802 E22.00675
G1 X122.742 Y108.8 E22.01337
G1 X133.38 Y108.802 E22.36719
G1 X133.526 Y108.803 E22.37204
G1 X134.217 Y108.813 E22.39503
G1 X135.118 Y108.866 E22.42505
G1 X135.569 Y108.923 E22.44017
G1 X136.145 Y109.009 E22.45954
G1 X138.76 Y109.376 E22.54737
G1 X141.289 Y109.658 E22.632
G1 X143.813 Y109.868 E22.71624
G1 X146.374 Y110.007 E22.80154
G1 X148.879 Y110.074 E22.88489
G1 X151.442 Y110.068 E22.97014
G1 X153.949 Y109.992 E23.05356
G1 X156.531 Y109.841 E23.13958
G1 X159.018 Y109.624 E23.22262
G1 X161.588 Y109.328 E23.30866
G1 X163.388 Y109.075 E23.36912
G1 X164.205 Y108.952 E23.3966
G1 X164.556 Y108.905 E23.40837
G1 X164.773 Y108.88 E23.41564
G1 X165.774 Y108.814 E23.449
G1 X166.574 Y108.801 E23.47562
G1 X166.742 Y108.8 E23.4812
G1 X177.38 Y108.802 E23.83503
G1 X177.525 Y108.803 E23.83985
G1 X178.217 Y108.813 E23.86287
G1 X179.119 Y108.866 E23.89292
G1 X180.433 Y109.089 E23.93725
G1 X180.748 Y109.164 E23.94802
G1 X181.616 Y109.412 E23.97804
G1 X182.459 Y109.736 E24.00808
G1 X183.497 Y110.261 E24.04677
G1 X183.68 Y110.367 E24.0538
G1 X184.441 Y110.854 E24.08385
G1 X185.48 Y111.692 E24.12825
G1 X185.684 Y111.88 E24.13748
G1 X186.321 Y112.521 E24.16753
G1 X186.898 Y113.216 E24.19758
