;FLAVOR:Marlin
;TIME:4163
;Filament used: 1.82298m
;Layer height: 0.14
;MINX:108
;MINY:106
;MINZ:0.2
;MAXX:192
;MAXY:194
;MAXZ:11.48
;Generated with Cura_SteamEngine 4.4.1
M140 S60
M105
M190 S60
M104 S215
M105
M109 S215
M82 ;absolute extrusion mode
M201 X500.00 Y500.00 Z100.00 E5000.00 ;Setup machine max acceleration
M203 X500.00 Y500.00 Z10.00 E50.00 ;Setup machine max feedrate
M204 P500.00 R1000.00 T500.00 ;Setup Print/Retract/Travel acceleration
M205 X8.00 Y8.00 Z0.40 E5.00 ;Setup Jerk
M220 S100 ;Reset Feedrate
M221 S100 ;Reset Flowrate

G28 ;Home

G92 E0 ;Reset Extruder
G1 Z2.0 F3000 ;Move Z Axis up
G1 X10.1 Y20 Z0.28 F5000.0 ;Move to start position
G1 X10.1 Y200.0 Z0.28 F1500.0 E15 ;Draw the first line
G1 X10.4 Y200.0 Z0.28 F5000.0 ;Move to side a little
G1 X10.4 Y20 Z0.28 F1500.0 E30 ;Draw the second line
G92 E0 ;Reset Extruder
G1 Z2.0 F3000 ;Move Z Axis up

G92 E0
G92 E0
G1 F1500 E-6.5
;LAYER_COUNT:66
;LAYER:0
M107
G0 F6000 X134.489 Y110.7 Z0.2
;TYPE:SKIRT
G1 F1500 E0
G1 F1200 X134.97 Y110.12 E0.02506
G1 X135.123 Y109.948 E0.03272
G1 X135.776 Y109.274 E0.06393
G1 X136.483 Y108.659 E0.0951
G1 X137.264 Y108.091 E0.12722
G1 X137.445 Y107.971 E0.13444
G1 X138.248 Y107.486 E0.16564
G1 X139.132 Y107.054 E0.19837
G1 X139.341 Y106.963 E0.20595
G1 X140.216 Y106.625 E0.23715
G1 X141.116 Y106.363 E0.26832
G1 X142.036 Y106.18 E0.29952
G1 X142.703 Y106.096 E0.32188
G1 X143.15 Y106.054 E0.33681
G1 X144.027 Y106.007 E0.36603
G1 X144.462 Y106.001 E0.3805
G1 X144.617 Y106 E0.38565
G1 X155.409 Y106.003 E0.74459
G1 X155.564 Y106.004 E0.74975
G1 X156.192 Y106.013 E0.77064
G1 X157.128 Y106.067 E0.80182
G1 X157.77 Y106.15 E0.82335
G1 X158.014 Y106.189 E0.83157
G1 X158.933 Y106.376 E0.86276
G1 X159.833 Y106.641 E0.89397
G1 X161.094 Y107.161 E0.93934
G1 X161.402 Y107.311 E0.95073
G1 X162.227 Y107.758 E0.98194
G1 X163.011 Y108.273 E1.01314
G1 X164.014 Y109.088 E1.05612
G1 X164.168 Y109.229 E1.06307
G1 X164.832 Y109.891 E1.09425
G1 X165.682 Y110.936 E1.13905
G1 X165.826 Y111.137 E1.14728
G1 X166.03 Y111.432 E1.15921
G1 X166.489 Y112.119 E1.18669
G1 X166.57 Y112.241 E1.19156
G1 X167.073 Y113.016 E1.22229
G1 X168.517 Y115.112 E1.30694
G1 X169.987 Y117.121 E1.38974
G1 X171.539 Y119.118 E1.47386
G1 X173.128 Y121.051 E1.55709
G1 X174.79 Y122.959 E1.64125
G1 X176.504 Y124.818 E1.72535
G1 X178.237 Y126.593 E1.80786
G1 X180.074 Y128.373 E1.89293
G1 X181.916 Y130.058 E1.97597
G1 X183.807 Y131.691 E2.05907
G1 X186.61 Y133.952 E2.17884
G1 X187.341 Y134.519 E2.20961
G1 X188.057 Y135.125 E2.24081
G1 X188.761 Y135.836 E2.27409
G1 X188.987 Y136.086 E2.2853
G1 X189.586 Y136.808 E2.3165
G1 X190.121 Y137.579 E2.34772
G1 X190.666 Y138.544 E2.38458
G1 X190.765 Y138.742 E2.39194
G1 X191.148 Y139.598 E2.42313
G1 X191.412 Y140.336 E2.4492
G1 X191.451 Y140.459 E2.45349
G1 X191.696 Y141.365 E2.48471
G1 X191.863 Y142.287 E2.51587
G1 X191.934 Y142.962 E2.53845
G1 X191.963 Y143.349 E2.55135
G1 X191.993 Y144.016 E2.57356
G1 X191.999 Y144.441 E2.5877
G1 X192 Y144.599 E2.59295
G1 X191.997 Y155.407 E2.95243
G1 X191.996 Y155.552 E2.95725
G1 X191.987 Y156.221 E2.97951
G1 X191.934 Y157.157 E3.01069
G1 X191.802 Y158.086 E3.0419
G1 X191.684 Y158.643 E3.06083
G1 X191.616 Y158.926 E3.07051
G1 X191.358 Y159.828 E3.10172
G1 X191.024 Y160.704 E3.1329
G1 X190.654 Y161.479 E3.16146
G1 X190.534 Y161.707 E3.17003
G1 X190.062 Y162.518 E3.20124
G1 X189.523 Y163.285 E3.23242
G1 X188.976 Y163.943 E3.26088
G1 X188.841 Y164.093 E3.26759
G1 X188.185 Y164.762 E3.29876
G1 X187.448 Y165.394 E3.33105
G1 X185.172 Y167.177 E3.42721
G1 X183.232 Y168.788 E3.51108
G1 X181.353 Y170.44 E3.5943
G1 X179.514 Y172.152 E3.67787
G1 X177.715 Y173.924 E3.76185
G1 X175.978 Y175.735 E3.84531
G1 X174.276 Y177.613 E3.92961
G1 X172.635 Y179.529 E4.01352
G1 X171.056 Y181.484 E4.0971
G1 X169.551 Y183.458 E4.17966
G1 X168.08 Y185.504 E4.26347
G1 X166.256 Y188.22 E4.37229
G1 X166.049 Y188.54 E4.38496
G1 X165.506 Y189.305 E4.41617
G1 X165.067 Y189.836 E4.43908
G1 X164.919 Y190.004 E4.44653
G1 X164.27 Y190.681 E4.47772
G1 X163.565 Y191.3 E4.50892
G1 X162.856 Y191.826 E4.53829
G1 X162.668 Y191.954 E4.54585
G1 X161.871 Y192.448 E4.57704
G1 X160.868 Y192.946 E4.61428
G1 X160.659 Y193.037 E4.62187
G1 X159.784 Y193.375 E4.65307
G1 X158.884 Y193.637 E4.68424
G1 X157.964 Y193.82 E4.71544
G1 X156.721 Y193.943 E4.75698
G1 X155.557 Y193.991 E4.79573
G1 X155.101 Y194 E4.8109
G1 X144.591 Y193.997 E5.16047
G1 X144.446 Y193.996 E5.16529
G1 X143.779 Y193.987 E5.18748
G1 X142.842 Y193.934 E5.21869
G1 X141.914 Y193.802 E5.24987
G1 X141.357 Y193.684 E5.2688
G1 X141.074 Y193.616 E5.27848
G1 X140.172 Y193.358 E5.30969
G1 X139.296 Y193.024 E5.34087
G1 X138.523 Y192.655 E5.36936
G1 X138.293 Y192.534 E5.378
G1 X137.482 Y192.062 E5.40921
G1 X136.714 Y191.523 E5.44042
G1 X135.988 Y190.914 E5.47194
G1 X135.835 Y190.774 E5.47883
G1 X135.171 Y190.112 E5.51002
G1 X134.31 Y189.053 E5.55541
G1 X134.16 Y188.843 E5.564
G1 X133.968 Y188.565 E5.57524
G1 X133.485 Y187.843 E5.60413
G1 X133.396 Y187.708 E5.60951
G1 X132.927 Y186.984 E5.6382
G1 X131.483 Y184.888 E5.72285
G1 X130.012 Y182.878 E5.8057
G1 X128.445 Y180.861 E5.89065
G1 X126.874 Y178.951 E5.9729
G1 X125.21 Y177.041 E6.05716
G1 X123.495 Y175.181 E6.1413
G1 X121.763 Y173.407 E6.22377
G1 X119.925 Y171.627 E6.30887
G1 X118.084 Y169.942 E6.39187
G1 X116.193 Y168.309 E6.47497
G1 X113.39 Y166.048 E6.59475
G1 X112.659 Y165.481 E6.62552
G1 X111.943 Y164.875 E6.65672
G1 X111.19 Y164.109 E6.69245
G1 X110.959 Y163.85 E6.70399
G1 X110.365 Y163.124 E6.73519
G1 X109.835 Y162.35 E6.76639
G1 X109.34 Y161.468 E6.80003
G1 X109.244 Y161.277 E6.80714
G1 X108.859 Y160.422 E6.83833
G1 X108.548 Y159.537 E6.86953
G1 X108.313 Y158.629 E6.90072
G1 X108.161 Y157.733 E6.93095
G1 X108.095 Y157.217 E6.94825
G1 X108.007 Y155.961 E6.99013
G1 X108.001 Y155.489 E7.00583
G1 X108 Y155.346 E7.01058
G1 X108.003 Y144.55 E7.36966
G1 X108.004 Y144.38 E7.37531
G1 X108.014 Y143.744 E7.39647
G1 X108.069 Y142.808 E7.42766
G1 X108.203 Y141.88 E7.45884
G1 X108.33 Y141.295 E7.47875
G1 X108.397 Y141.022 E7.4881
G1 X108.659 Y140.122 E7.51928
G1 X108.997 Y139.247 E7.55048
G1 X109.346 Y138.521 E7.57727
G1 X109.466 Y138.293 E7.58584
G1 X109.938 Y137.482 E7.61705
G1 X110.477 Y136.715 E7.64823
G1 X111.087 Y135.988 E7.67979
G1 X111.228 Y135.834 E7.68674
G1 X111.89 Y135.17 E7.71792
G1 X112.515 Y134.636 E7.74526
G1 X112.678 Y134.507 E7.75218
G1 X112.72 Y134.474 E7.75395
G1 X114.823 Y132.827 E7.8428
G1 X116.768 Y131.211 E7.9269
G1 X118.647 Y129.559 E8.01012
G1 X120.486 Y127.848 E8.09366
G1 X122.278 Y126.083 E8.17732
G1 X124.022 Y124.265 E8.26111
G1 X125.722 Y122.39 E8.34529
G1 X127.359 Y120.477 E8.42903
G1 X128.93 Y118.535 E8.51211
G1 X130.473 Y116.51 E8.59679
G1 X131.913 Y114.506 E8.67887
G1 X133.753 Y111.767 E8.78861
G1 X133.947 Y111.466 E8.80052
G1 X134.489 Y110.7 E8.83173
G0 F6000 X134.816 Y110.931
G1 F1200 X135.269 Y110.386 E8.8553
G1 X135.422 Y110.214 E8.86296
G1 X136.063 Y109.553 E8.89359
G1 X136.759 Y108.951 E8.92419
G1 X137.485 Y108.424 E8.95403
G1 X137.666 Y108.304 E8.96125
G1 X138.454 Y107.829 E8.99186
G1 X139.291 Y107.42 E9.02284
G1 X139.5 Y107.329 E9.03042
G1 X140.36 Y106.999 E9.06106
G1 X141.244 Y106.744 E9.09166
G1 X142.148 Y106.567 E9.1223
G1 X142.74 Y106.494 E9.14214
G1 X143.187 Y106.452 E9.15707
G1 X144.033 Y106.407 E9.18525
G1 X144.468 Y106.401 E9.19972
G1 X144.617 Y106.4 E9.20467
G1 X155.409 Y106.403 E9.56362
G1 X155.558 Y106.404 E9.56857
G1 X156.186 Y106.413 E9.58946
G1 X157.105 Y106.466 E9.62008
G1 X157.707 Y106.545 E9.64027
G1 X157.951 Y106.584 E9.64849
G1 X158.853 Y106.769 E9.67912
G1 X159.735 Y107.031 E9.70972
G1 X160.919 Y107.521 E9.75234
G1 X161.227 Y107.671 E9.76373
G1 X162.037 Y108.11 E9.79438
G1 X162.805 Y108.617 E9.82498
G1 X163.744 Y109.383 E9.86529
G1 X163.898 Y109.524 E9.87223
G1 X164.549 Y110.175 E9.90285
G1 X165.357 Y111.169 E9.94546
G1 X165.501 Y111.37 E9.95368
G1 X165.698 Y111.654 E9.96518
G1 X166.157 Y112.341 E9.99266
G1 X166.234 Y112.459 E9.99735
G1 X166.741 Y113.239 E10.02829
G1 X168.176 Y115.323 E10.11245
G1 X169.669 Y117.363 E10.19653
G1 X171.23 Y119.372 E10.28115
G1 X172.834 Y121.323 E10.36515
G1 X174.477 Y123.21 E10.44837
G1 X176.207 Y125.086 E10.53325
G1 X177.991 Y126.913 E10.61818
G1 X179.772 Y128.638 E10.70064
G1 X181.648 Y130.355 E10.78523
G1 X183.565 Y132.01 E10.86946
G1 X186.37 Y134.273 E10.98933
G1 X187.096 Y134.836 E11.01989
G1 X187.798 Y135.431 E11.0505
G1 X188.464 Y136.105 E11.08201
G1 X188.69 Y136.355 E11.09322
G1 X189.277 Y137.064 E11.12384
G1 X189.801 Y137.821 E11.15446
G1 X190.308 Y138.723 E11.18887
G1 X190.407 Y138.921 E11.19624
G1 X190.783 Y139.761 E11.22685
G1 X191.03 Y140.457 E11.25141
G1 X191.069 Y140.58 E11.2557
G1 X191.309 Y141.469 E11.28633
G1 X191.471 Y142.375 E11.31694
G1 X191.535 Y142.992 E11.33757
G1 X191.564 Y143.379 E11.35048
G1 X191.593 Y144.021 E11.37185
G1 X191.599 Y144.446 E11.38599
G1 X191.6 Y144.599 E11.39108
G1 X191.597 Y155.407 E11.75055
G1 X191.596 Y155.547 E11.75521
G1 X191.587 Y156.216 E11.77746
G1 X191.535 Y157.135 E11.80808
G1 X191.403 Y158.046 E11.8387
G1 X191.295 Y158.55 E11.85584
G1 X191.227 Y158.833 E11.86552
G1 X190.973 Y159.717 E11.89611
G1 X190.643 Y160.577 E11.92675
G1 X190.3 Y161.293 E11.95315
G1 X190.18 Y161.521 E11.96172
G1 X189.716 Y162.316 E11.99234
G1 X189.185 Y163.068 E12.02296
G1 X188.679 Y163.675 E12.04924
G1 X188.544 Y163.825 E12.05595
G1 X187.899 Y164.482 E12.08658
G1 X187.201 Y165.079 E12.11713
G1 X184.933 Y166.856 E12.21296
G1 X182.979 Y168.479 E12.29744
G1 X181.08 Y170.148 E12.38153
G1 X179.226 Y171.874 E12.46578
G1 X177.428 Y173.645 E12.54972
G1 X175.694 Y175.453 E12.63304
G1 X173.975 Y177.35 E12.71819
G1 X172.335 Y179.264 E12.80202
G1 X170.743 Y181.236 E12.88631
G1 X169.211 Y183.245 E12.97034
G1 X167.761 Y185.262 E13.05297
G1 X165.92 Y188.002 E13.16276
G1 X165.713 Y188.323 E13.17546
G1 X165.18 Y189.073 E13.20607
G1 X164.767 Y189.572 E13.22761
G1 X164.619 Y189.74 E13.23506
G1 X163.981 Y190.404 E13.26568
G1 X163.288 Y191.01 E13.2963
G1 X162.631 Y191.495 E13.32346
G1 X162.443 Y191.623 E13.33103
G1 X161.66 Y192.108 E13.36166
G1 X160.709 Y192.58 E13.39697
G1 X160.5 Y192.671 E13.40456
G1 X159.64 Y193.001 E13.43519
G1 X158.756 Y193.256 E13.46579
G1 X157.852 Y193.433 E13.49643
G1 X156.705 Y193.543 E13.53476
G1 X155.541 Y193.591 E13.5735
G1 X155.101 Y193.6 E13.58814
G1 X144.591 Y193.597 E13.93771
G1 X144.451 Y193.596 E13.94236
G1 X143.784 Y193.587 E13.96455
G1 X142.865 Y193.535 E13.99516
G1 X141.954 Y193.403 E14.02578
G1 X141.45 Y193.295 E14.04292
G1 X141.167 Y193.227 E14.0526
G1 X140.283 Y192.973 E14.0832
G1 X139.423 Y192.643 E14.11383
G1 X138.709 Y192.301 E14.14016
G1 X138.479 Y192.18 E14.14881
G1 X137.683 Y191.716 E14.17945
G1 X136.931 Y191.186 E14.21005
G1 X136.258 Y190.619 E14.23932
G1 X136.105 Y190.479 E14.24622
G1 X135.454 Y189.829 E14.27682
G1 X134.635 Y188.82 E14.32004
G1 X134.485 Y188.61 E14.32862
G1 X134.301 Y188.343 E14.33941
G1 X133.818 Y187.621 E14.3683
G1 X133.732 Y187.49 E14.37351
G1 X133.26 Y186.761 E14.4024
G1 X131.819 Y184.671 E14.48683
G1 X130.322 Y182.625 E14.57115
G1 X128.798 Y180.663 E14.65378
G1 X127.151 Y178.659 E14.74006
G1 X125.523 Y176.79 E14.8225
G1 X123.792 Y174.913 E14.90742
G1 X122.009 Y173.087 E14.99231
G1 X120.227 Y171.361 E15.07482
G1 X118.352 Y169.645 E15.15936
G1 X116.435 Y167.99 E15.24359
G1 X113.63 Y165.727 E15.36346
G1 X112.904 Y165.164 E15.39402
G1 X112.202 Y164.569 E15.42462
G1 X111.488 Y163.843 E15.45849
G1 X111.257 Y163.584 E15.47004
G1 X110.675 Y162.87 E15.50067
G1 X110.157 Y162.11 E15.53126
G1 X109.697 Y161.288 E15.56259
G1 X109.601 Y161.097 E15.5697
G1 X109.224 Y160.258 E15.6003
G1 X108.921 Y159.388 E15.63094
G1 X108.694 Y158.496 E15.66155
G1 X108.558 Y157.682 E15.689
G1 X108.492 Y157.166 E15.7063
G1 X108.407 Y155.956 E15.74665
G1 X108.401 Y155.484 E15.76235
G1 X108.4 Y155.346 E15.76694
G1 X108.403 Y144.55 E16.12601
G1 X108.404 Y144.386 E16.13147
G1 X108.414 Y143.75 E16.15262
G1 X108.469 Y142.831 E16.18324
G1 X108.603 Y141.92 E16.21387
G1 X108.718 Y141.391 E16.23188
G1 X108.785 Y141.118 E16.24123
G1 X109.044 Y140.234 E16.27186
G1 X109.377 Y139.376 E16.30247
G1 X109.7 Y138.707 E16.32718
G1 X109.82 Y138.479 E16.33575
G1 X110.284 Y137.684 E16.36637
G1 X110.815 Y136.932 E16.39699
G1 X111.382 Y136.258 E16.42628
G1 X111.523 Y136.104 E16.43323
G1 X112.174 Y135.453 E16.46385
G1 X112.763 Y134.95 E16.48961
G1 X112.926 Y134.821 E16.49652
G1 X112.967 Y134.789 E16.49825
G1 X115.062 Y133.148 E16.58676
G1 X117.021 Y131.52 E16.67148
G1 X118.92 Y129.851 E16.75557
G1 X120.756 Y128.143 E16.83898
G1 X122.582 Y126.344 E16.92423
G1 X124.324 Y124.528 E17.00793
G1 X126.022 Y122.656 E17.09199
G1 X127.658 Y120.744 E17.17568
G1 X129.243 Y118.784 E17.25952
G1 X130.787 Y116.758 E17.34425
G1 X132.243 Y114.733 E17.4272
G1 X134.071 Y112.01 E17.53628
G1 X134.283 Y111.682 E17.54927
G1 X134.816 Y110.931 E17.5799
G0 F6000 X135.142 Y111.163
G1 F1200 X135.568 Y110.652 E17.60203
G1 X135.721 Y110.48 E17.60969
G1 X136.35 Y109.832 E17.63972
G1 X137.035 Y109.243 E17.66977
G1 X137.706 Y108.758 E17.69731
G1 X137.887 Y108.638 E17.70453
G1 X138.661 Y108.172 E17.73458
G1 X139.451 Y107.787 E17.76381
G1 X139.66 Y107.696 E17.77139
G1 X140.503 Y107.373 E17.80142
G1 X141.372 Y107.125 E17.83147
G1 X142.259 Y106.955 E17.86151
G1 X142.778 Y106.893 E17.8789
G1 X143.225 Y106.851 E17.89383
G1 X144.038 Y106.807 E17.92091
G1 X144.473 Y106.801 E17.93538
G1 X144.617 Y106.8 E17.94017
G1 X155.409 Y106.803 E18.29911
G1 X155.552 Y106.804 E18.30387
G1 X156.18 Y106.813 E18.32476
G1 X157.082 Y106.866 E18.35481
G1 X157.644 Y106.94 E18.37366
G1 X157.888 Y106.979 E18.38188
G1 X158.772 Y107.161 E18.4119
G1 X159.638 Y107.42 E18.44196
G1 X160.744 Y107.881 E18.48182
G1 X161.052 Y108.031 E18.49321
G1 X161.846 Y108.462 E18.52326
G1 X162.598 Y108.961 E18.55328
G1 X163.474 Y109.678 E18.59093
G1 X163.628 Y109.819 E18.59787
G1 X164.266 Y110.458 E18.62791
G1 X165.032 Y111.402 E18.66834
G1 X165.176 Y111.603 E18.67656
G1 X165.365 Y111.877 E18.68764
G1 X165.824 Y112.564 E18.71512
G1 X165.899 Y112.677 E18.71963
G1 X166.409 Y113.463 E18.75079
G1 X167.857 Y115.564 E18.83566
G1 X169.358 Y117.616 E18.92022
G1 X170.906 Y119.609 E19.00415
G1 X172.539 Y121.594 E19.08964
G1 X174.18 Y123.479 E19.17277
G1 X175.91 Y125.354 E19.25762
G1 X177.691 Y127.179 E19.34244
G1 X179.507 Y128.937 E19.4265
G1 X181.382 Y130.654 E19.51106
G1 X183.303 Y132.312 E19.59546
G1 X186.13 Y134.593 E19.71628
G1 X186.851 Y135.152 E19.74662
G1 X187.539 Y135.736 E19.77664
G1 X188.168 Y136.373 E19.80641
G1 X188.394 Y136.623 E19.81762
G1 X188.969 Y137.319 E19.84765
G1 X189.48 Y138.063 E19.87767
G1 X189.95 Y138.901 E19.90962
G1 X190.049 Y139.099 E19.91699
G1 X190.417 Y139.924 E19.94703
G1 X190.649 Y140.578 E19.97011
G1 X190.688 Y140.701 E19.9744
G1 X190.923 Y141.573 E20.00444
G1 X191.079 Y142.463 E20.0345
G1 X191.136 Y143.022 E20.05318
G1 X191.165 Y143.409 E20.06609
G1 X191.193 Y144.027 E20.08667
G1 X191.199 Y144.452 E20.1008
G1 X191.2 Y144.599 E20.10569
G1 X191.197 Y155.407 E20.46517
G1 X191.196 Y155.541 E20.46963
G1 X191.187 Y156.21 E20.49188
G1 X191.135 Y157.112 E20.52193
G1 X191.003 Y158.005 E20.55195
G1 X190.906 Y158.456 E20.5673
G1 X190.838 Y158.739 E20.57698
G1 X190.588 Y159.607 E20.60702
G1 X190.263 Y160.449 E20.63704
G1 X189.946 Y161.107 E20.66133
G1 X189.826 Y161.335 E20.6699
G1 X189.371 Y162.114 E20.69991
G1 X188.848 Y162.851 E20.72997
G1 X188.382 Y163.407 E20.75409
G1 X188.247 Y163.557 E20.76081
G1 X187.613 Y164.201 E20.79086
G1 X186.955 Y164.764 E20.81967
G1 X184.659 Y166.562 E20.91666
G1 X182.722 Y168.171 E21.00041
G1 X180.809 Y169.853 E21.08514
G1 X178.973 Y171.562 E21.16856
G1 X177.142 Y173.366 E21.25405
G1 X175.374 Y175.209 E21.339
G1 X173.69 Y177.067 E21.4224
G1 X172.022 Y179.015 E21.5077
G1 X170.429 Y180.987 E21.59201
G1 X168.896 Y182.998 E21.67612
G1 X167.431 Y185.035 E21.75957
G1 X165.568 Y187.81 E21.87074
G1 X165.377 Y188.105 E21.88243
G1 X164.854 Y188.841 E21.91246
G1 X164.467 Y189.308 E21.93263
G1 X164.319 Y189.476 E21.94008
G1 X163.692 Y190.126 E21.97012
G1 X163.011 Y190.719 E22.00015
G1 X162.405 Y191.164 E22.02516
G1 X162.217 Y191.292 E22.03272
G1 X161.449 Y191.767 E22.06276
