;FLAVOR:Marlin
;TIME:4416
;Filament used: 0.908175m
;Layer height: 0.1
;MINX:129.019
;MINY:129.018
;MINZ:0.2
;MAXX:170.985
;MAXY:170.984
;MAXZ:17.58
;Generated with Cura_SteamEngine 4.4.1
M140 S80
M105
M190 S80
M104 S235
M105
M109 S235
M82 ;absolute extrusion mode
M201 X500.00 Y500.00 Z100.00 E5000.00 ;Setup machine max acceleration
M203 X500.00 Y500.00 Z10.00 E50.00 ;Setup machine max feedrate
M204 P500.00 R1000.00 T500.00 ;Setup Print/Retract/Travel acceleration
M205 X8.00 Y8.00 Z0.40 E5.00 ;Setup Jerk
M220 S100 ;Reset Feedrate
M221 S100 ;Reset Flowrate

G28 ;Home

G92 E0 ;Reset Extruder
G1 Z2.0 F3000 ;Move Z Axis up
G1 X10.1 Y20 Z0.28 F5000.0 ;Move to start position
G1 X10.1 Y200.0 Z0.28 F1500.0 E15 ;Draw the first line
G1 X10.4 Y200.0 Z0.28 F5000.0 ;Move to side a little
G1 X10.4 Y20 Z0.28 F1500.0 E30 ;Draw the second line
G92 E0 ;Reset Extruder
G1 Z2.0 F3000 ;Move Z Axis up

G92 E0
G92 E0
G1 F1500 E-6.5
;LAYER_COUNT:133
;LAYER:0
M107
G0 F6000 X134.954 Y135.38 Z0.2
;TYPE:SKIRT
G1 F1500 E0
G1 F1200 X135.505 Y134.833 E0.02582
G1 X136.098 Y134.286 E0.05266
G1 X136.552 Y133.897 E0.07254
G1 X136.917 Y133.597 E0.08826
G1 X137.275 Y133.316 E0.10339
G1 X137.612 Y133.062 E0.11743
G1 X137.79 Y132.933 E0.12474
G1 X138.101 Y132.716 E0.13735
G1 X138.398 Y132.516 E0.14926
G1 X138.729 Y132.302 E0.16237
G1 X139.084 Y132.081 E0.17628
G1 X139.435 Y131.871 E0.18988
G1 X139.692 Y131.724 E0.19973
G1 X140.021 Y131.543 E0.21222
G1 X140.402 Y131.342 E0.22655
G1 X140.791 Y131.147 E0.24102
G1 X141.155 Y130.973 E0.25444
G1 X141.516 Y130.808 E0.26764
G1 X141.76 Y130.702 E0.27649
G1 X142.079 Y130.569 E0.28799
G1 X142.411 Y130.437 E0.29987
G1 X142.839 Y130.277 E0.31507
G1 X143.253 Y130.132 E0.32966
G1 X143.628 Y130.009 E0.34278
G1 X143.934 Y129.914 E0.35344
G1 X144.293 Y129.809 E0.36588
G1 X144.666 Y129.707 E0.37874
G1 X145.03 Y129.614 E0.39124
G1 X145.283 Y129.554 E0.39988
G1 X145.712 Y129.461 E0.41448
G1 X146.188 Y129.368 E0.43062
G1 X146.594 Y129.297 E0.44432
G1 X146.996 Y129.234 E0.45786
G1 X147.659 Y129.15 E0.48009
G1 X148.354 Y129.084 E0.50331
G1 X148.886 Y129.047 E0.52104
G1 X149.275 Y129.029 E0.53399
G1 X149.933 Y129.018 E0.55588
G1 X150.591 Y129.027 E0.57777
G1 X151.095 Y129.045 E0.59454
G1 X151.498 Y129.069 E0.60797
G1 X151.942 Y129.105 E0.62279
G1 X152.281 Y129.139 E0.63412
G1 X152.624 Y129.179 E0.6456
G1 X152.851 Y129.209 E0.65322
G1 X153.267 Y129.272 E0.66721
G1 X153.734 Y129.352 E0.68297
G1 X154.093 Y129.42 E0.69513
G1 X154.443 Y129.492 E0.70701
G1 X154.888 Y129.593 E0.72219
G1 X155.269 Y129.688 E0.73525
G1 X155.634 Y129.785 E0.74781
G1 X155.959 Y129.878 E0.75905
G1 X156.333 Y129.993 E0.77207
G1 X156.573 Y130.071 E0.78046
G1 X156.958 Y130.204 E0.79401
G1 X157.501 Y130.403 E0.81324
G1 X157.902 Y130.559 E0.82755
G1 X158.128 Y130.652 E0.83568
G1 X158.487 Y130.807 E0.84869
G1 X158.725 Y130.915 E0.85738
G1 X159.037 Y131.062 E0.86885
G1 X159.48 Y131.28 E0.88527
G1 X159.854 Y131.474 E0.89929
G1 X160.174 Y131.647 E0.91139
G1 X160.561 Y131.866 E0.92618
G1 X160.864 Y132.046 E0.9379
G1 X161.124 Y132.205 E0.94803
G1 X161.298 Y132.315 E0.95488
G1 X161.689 Y132.574 E0.97048
G1 X162.273 Y132.979 E0.99412
G1 X162.912 Y133.457 E1.02066
G1 X163.316 Y133.783 E1.03793
G1 X163.624 Y134.041 E1.05129
G1 X163.899 Y134.28 E1.06341
G1 X164.179 Y134.533 E1.07596
G1 X164.484 Y134.817 E1.08982
G1 X164.788 Y135.11 E1.10386
G1 X164.968 Y135.291 E1.11235
G1 X165.228 Y135.562 E1.12484
G1 X165.541 Y135.899 E1.14014
G1 X166.011 Y136.44 E1.16398
G1 X166.515 Y137.059 E1.19053
G1 X166.824 Y137.456 E1.20726
G1 X166.944 Y137.618 E1.21396
G1 X167.16 Y137.92 E1.22631
G1 X167.349 Y138.194 E1.23738
G1 X167.565 Y138.519 E1.25036
G1 X167.793 Y138.876 E1.26445
G1 X168.028 Y139.262 E1.27948
G1 X168.258 Y139.657 E1.29469
G1 X168.599 Y140.29 E1.3186
G1 X168.948 Y140.991 E1.34464
G1 X169.267 Y141.691 E1.37023
G1 X169.515 Y142.291 E1.39182
G1 X169.695 Y142.756 E1.40841
G1 X169.777 Y142.983 E1.41644
G1 X169.902 Y143.349 E1.4293
G1 X170.024 Y143.728 E1.44254
G1 X170.139 Y144.111 E1.45584
G1 X170.255 Y144.522 E1.47005
G1 X170.356 Y144.903 E1.48316
G1 X170.426 Y145.19 E1.49298
G1 X170.5 Y145.517 E1.50413
G1 X170.564 Y145.819 E1.5144
G1 X170.657 Y146.313 E1.53112
G1 X170.747 Y146.86 E1.54956
G1 X170.836 Y147.53 E1.57204
G1 X170.903 Y148.187 E1.594
G1 X170.941 Y148.665 E1.60995
G1 X170.961 Y149.009 E1.62141
G1 X170.977 Y149.395 E1.63426
G1 X170.983 Y149.657 E1.64298
G1 X170.985 Y150.039 E1.65568
G1 X170.981 Y150.377 E1.66693
G1 X170.968 Y150.793 E1.68077
G1 X170.945 Y151.256 E1.69619
G1 X170.916 Y151.686 E1.71052
G1 X170.876 Y152.135 E1.72552
G1 X170.793 Y152.819 E1.74843
G1 X170.695 Y153.461 E1.77003
G1 X170.607 Y153.958 E1.78682
G1 X170.527 Y154.358 E1.80039
G1 X170.429 Y154.801 E1.81548
G1 X170.375 Y155.023 E1.82308
G1 X170.301 Y155.311 E1.83297
G1 X170.187 Y155.73 E1.84741
G1 X170.06 Y156.162 E1.86239
G1 X169.94 Y156.541 E1.87561
G1 X169.815 Y156.913 E1.88866
G1 X169.722 Y157.174 E1.89788
G1 X169.58 Y157.551 E1.91128
G1 X169.412 Y157.973 E1.92638
G1 X169.139 Y158.601 E1.94916
G1 X168.808 Y159.302 E1.97494
G1 X168.436 Y160.019 E2.00181
G1 X168.099 Y160.615 E2.02458
G1 X167.848 Y161.038 E2.04094
G1 X167.689 Y161.292 E2.05091
G1 X167.458 Y161.645 E2.06494
G1 X167.232 Y161.977 E2.0783
G1 X167.006 Y162.296 E2.0913
G1 X166.879 Y162.469 E2.09844
G1 X166.653 Y162.766 E2.11085
G1 X166.308 Y163.204 E2.12939
G1 X166.035 Y163.537 E2.14372
G1 X165.884 Y163.714 E2.15145
G1 X165.635 Y163.997 E2.16399
G1 X165.337 Y164.323 E2.17868
G1 X165.042 Y164.634 E2.19294
G1 X164.872 Y164.806 E2.20098
G1 X164.605 Y165.066 E2.21338
G1 X164.202 Y165.447 E2.23182
G1 X163.855 Y165.762 E2.24741
G1 X163.681 Y165.913 E2.25507
G1 X163.446 Y166.111 E2.26529
G1 X163.135 Y166.366 E2.27867
G1 X162.777 Y166.648 E2.29383
G1 X162.607 Y166.776 E2.30091
G1 X162.285 Y167.009 E2.31413
G1 X161.696 Y167.42 E2.33801
G1 X161.084 Y167.817 E2.36228
G1 X160.673 Y168.065 E2.37824
G1 X160.312 Y168.274 E2.39212
G1 X159.981 Y168.457 E2.4047
G1 X159.578 Y168.669 E2.41984
G1 X159.188 Y168.864 E2.43434
G1 X158.857 Y169.022 E2.44654
G1 X158.589 Y169.145 E2.45635
G1 X158.237 Y169.3 E2.46914
G1 X157.971 Y169.411 E2.47873
G1 X157.573 Y169.568 E2.49296
G1 X157.068 Y169.756 E2.51088
G1 X156.681 Y169.892 E2.52453
G1 X156.454 Y169.967 E2.53248
G1 X156.099 Y170.077 E2.54484
G1 X155.724 Y170.187 E2.55784
G1 X155.318 Y170.298 E2.57184
G1 X154.981 Y170.383 E2.5834
G1 X154.634 Y170.465 E2.59525
G1 X154.29 Y170.54 E2.60696
G1 X153.857 Y170.625 E2.62164
G1 X153.392 Y170.707 E2.63735
G1 X153.012 Y170.767 E2.65014
G1 X152.77 Y170.801 E2.65827
G1 X152.366 Y170.85 E2.6718
G1 X152.026 Y170.885 E2.68317
G1 X151.633 Y170.919 E2.69629
G1 X151.079 Y170.956 E2.71476
G1 X150.485 Y170.979 E2.73453
G1 X150.09 Y170.984 E2.74767
G1 X149.506 Y170.976 E2.7671
G1 X148.864 Y170.95 E2.78847
G1 X148.432 Y170.924 E2.80286
G1 X148.057 Y170.894 E2.81537
G1 X147.413 Y170.823 E2.83692
G1 X146.847 Y170.744 E2.85593
G1 X146.327 Y170.659 E2.87346
G1 X145.824 Y170.564 E2.89048
G1 X145.378 Y170.47 E2.90564
G1 X145.154 Y170.418 E2.91329
G1 X144.804 Y170.331 E2.92528
G1 X144.377 Y170.217 E2.93998
G1 X143.996 Y170.108 E2.95316
G1 X143.741 Y170.03 E2.96203
G1 X143.375 Y169.911 E2.97483
G1 X142.963 Y169.769 E2.98933
G1 X142.592 Y169.633 E3.00247
G1 X142.252 Y169.502 E3.01459
G1 X141.819 Y169.325 E3.03015
G1 X141.619 Y169.238 E3.0374
G1 X141.319 Y169.102 E3.04836
G1 X140.799 Y168.857 E3.06748
G1 X140.398 Y168.658 E3.08237
G1 X140.078 Y168.491 E3.09437
G1 X139.471 Y168.15 E3.11753
G1 X138.858 Y167.779 E3.14136
G1 X138.461 Y167.526 E3.15702
G1 X138.21 Y167.359 E3.16704
G1 X137.638 Y166.952 E3.19039
G1 X136.996 Y166.463 E3.21724
G1 X136.589 Y166.137 E3.23458
G1 X136.284 Y165.881 E3.24782
G1 X135.722 Y165.375 E3.27298
G1 X135.222 Y164.893 E3.29607
G1 X134.716 Y164.373 E3.32021
G1 X134.227 Y163.835 E3.34439
G1 X133.713 Y163.226 E3.37089
G1 X133.287 Y162.683 E3.39385
G1 X132.975 Y162.266 E3.41117
G1 X132.803 Y162.024 E3.42105
G1 X132.591 Y161.714 E3.43354
G1 X132.445 Y161.493 E3.44235
G1 X132.232 Y161.158 E3.45555
G1 X131.913 Y160.635 E3.47592
G1 X131.545 Y159.983 E3.50083
G1 X131.236 Y159.389 E3.5231
G1 X130.902 Y158.687 E3.54895
G1 X130.619 Y158.034 E3.57262
G1 X130.452 Y157.626 E3.58729
G1 X130.36 Y157.388 E3.59577
G1 X130.209 Y156.972 E3.61049
G1 X130.105 Y156.667 E3.62121
G1 X129.979 Y156.274 E3.63494
G1 X129.825 Y155.76 E3.65278
G1 X129.663 Y155.159 E3.67349
G1 X129.518 Y154.552 E3.69424
G1 X129.393 Y153.958 E3.71443
G1 X129.337 Y153.649 E3.72488
G1 X129.281 Y153.305 E3.73647
G1 X129.219 Y152.888 E3.75049
G1 X129.167 Y152.496 E3.76364
G1 X129.13 Y152.166 E3.77469
G1 X129.095 Y151.792 E3.78718
G1 X129.065 Y151.406 E3.80006
G1 X129.04 Y150.974 E3.81445
G1 X129.025 Y150.581 E3.82753
G1 X129.019 Y149.946 E3.84865
G1 X129.032 Y149.281 E3.87078
G1 X129.057 Y148.725 E3.88929
G1 X129.088 Y148.284 E3.90399
G1 X129.119 Y147.924 E3.91601
G1 X129.15 Y147.624 E3.92604
G1 X129.206 Y147.175 E3.94109
G1 X129.26 Y146.803 E3.95359
G1 X129.318 Y146.444 E3.96569
G1 X129.371 Y146.148 E3.97569
G1 X129.455 Y145.728 E3.98993
G1 X129.547 Y145.309 E4.0042
G1 X129.639 Y144.925 E4.01734
G1 X129.716 Y144.626 E4.02761
G1 X129.827 Y144.226 E4.04141
G1 X129.96 Y143.78 E4.05689
G1 X130.075 Y143.417 E4.06956
G1 X130.151 Y143.191 E4.07749
G1 X130.27 Y142.854 E4.08937
G1 X130.402 Y142.5 E4.10194
G1 X130.574 Y142.068 E4.11741
G1 X130.771 Y141.601 E4.13426
G1 X131.064 Y140.963 E4.15761
G1 X131.383 Y140.324 E4.18137
G1 X131.766 Y139.622 E4.20797
G1 X132.153 Y138.97 E4.23318
G1 X132.56 Y138.335 E4.25827
G1 X132.899 Y137.844 E4.27811
G1 X133.204 Y137.424 E4.29538
G1 X133.477 Y137.066 E4.31035
G1 X133.936 Y136.503 E4.33451
G1 X134.416 Y135.953 E4.35879
G1 X134.954 Y135.38 E4.38493
G0 F6000 X135.236 Y135.663
G1 F1200 X135.787 Y135.116 E4.41076
G1 X136.358 Y134.59 E4.43658
G1 X136.812 Y134.201 E4.45646
G1 X137.164 Y133.912 E4.47161
G1 X137.522 Y133.631 E4.48675
G1 X137.847 Y133.386 E4.50029
G1 X138.025 Y133.257 E4.5076
G1 X138.324 Y133.048 E4.51973
G1 X138.621 Y132.848 E4.53164
G1 X138.94 Y132.641 E4.54429
G1 X139.295 Y132.42 E4.5582
G1 X139.634 Y132.218 E4.57132
G1 X139.891 Y132.071 E4.58117
G1 X140.208 Y131.897 E4.5932
G1 X140.589 Y131.696 E4.60752
G1 X140.963 Y131.507 E4.62146
G1 X141.327 Y131.333 E4.63488
G1 X141.675 Y131.175 E4.64759
G1 X141.919 Y131.069 E4.65644
G1 X142.227 Y130.941 E4.66753
G1 X142.559 Y130.809 E4.67942
G1 X142.971 Y130.655 E4.69405
G1 X143.385 Y130.51 E4.70864
G1 X143.746 Y130.391 E4.72128
G1 X144.052 Y130.296 E4.73194
G1 X144.399 Y130.194 E4.74396
G1 X144.772 Y130.092 E4.75683
G1 X145.122 Y130.003 E4.76884
G1 X145.375 Y129.943 E4.77749
G1 X145.788 Y129.854 E4.79154
G1 X146.264 Y129.761 E4.80767
G1 X146.656 Y129.692 E4.82091
G1 X147.058 Y129.629 E4.83444
G1 X147.697 Y129.548 E4.85586
G1 X148.392 Y129.482 E4.87908
G1 X148.904 Y129.446 E4.89616
G1 X149.293 Y129.428 E4.90911
G1 X149.928 Y129.418 E4.93023
G1 X150.586 Y129.427 E4.95212
G1 X151.071 Y129.445 E4.96826
G1 X151.474 Y129.469 E4.98169
G1 X151.902 Y129.503 E4.99597
G1 X152.241 Y129.537 E5.0073
G1 X152.572 Y129.575 E5.01838
G1 X152.799 Y129.605 E5.026
G1 X153.2 Y129.666 E5.03949
G1 X153.667 Y129.746 E5.05525
G1 X154.013 Y129.811 E5.06696
G1 X154.363 Y129.883 E5.07884
G1 X154.792 Y129.981 E5.09348
G1 X155.173 Y130.076 E5.10654
G1 X155.524 Y130.17 E5.11862
G1 X155.849 Y130.263 E5.12987
G1 X156.209 Y130.373 E5.14239
G1 X156.449 Y130.451 E5.15078
G1 X156.82 Y130.579 E5.16383
G1 X157.363 Y130.778 E5.18307
G1 X157.75 Y130.929 E5.19688
G1 X157.976 Y131.022 E5.20501
G1 X158.322 Y131.171 E5.21754
G1 X158.56 Y131.279 E5.22623
G1 X158.86 Y131.421 E5.23727
G1 X159.303 Y131.639 E5.2537
G1 X159.664 Y131.825 E5.2672
G1 X159.984 Y131.998 E5.2793
G1 X160.357 Y132.21 E5.29357
G1 X160.66 Y132.39 E5.30529
G1 X160.91 Y132.543 E5.31504
G1 X161.084 Y132.653 E5.32189
G1 X161.461 Y132.903 E5.33693
G1 X162.045 Y133.308 E5.36057
G1 X162.661 Y133.769 E5.38616
G1 X163.065 Y134.095 E5.40343
G1 X163.361 Y134.343 E5.41627
G1 X163.636 Y134.582 E5.42839
G1 X163.907 Y134.825 E5.4405
G1 X164.212 Y135.109 E5.45436
G1 X164.504 Y135.392 E5.46788
G1 X164.684 Y135.573 E5.47637
G1 X164.935 Y135.834 E5.48842
G1 X165.248 Y136.171 E5.50371
G1 X165.701 Y136.692 E5.52668
G1 X166.205 Y137.311 E5.55323
G1 X166.503 Y137.695 E5.56939
G1 X166.623 Y137.857 E5.5761
G1 X166.831 Y138.147 E5.58797
G1 X167.02 Y138.421 E5.59904
G1 X167.228 Y138.735 E5.61157
G1 X167.456 Y139.092 E5.62566
G1 X167.682 Y139.463 E5.6401
G1 X167.912 Y139.858 E5.65531
G1 X168.241 Y140.468 E5.67836
G1 X168.59 Y141.169 E5.7044
G1 X168.897 Y141.844 E5.72907
G1 X169.145 Y142.444 E5.75066
G1 X169.318 Y142.892 E5.76663
G1 X169.4 Y143.119 E5.77466
G1 X169.521 Y143.472 E5.78707
G1 X169.643 Y143.851 E5.80032
G1 X169.754 Y144.22 E5.81313
G1 X169.87 Y144.631 E5.82734
G1 X169.967 Y144.998 E5.83996
G1 X170.037 Y145.285 E5.84979
G1 X170.109 Y145.599 E5.8605
G1 X170.173 Y145.901 E5.87077
G1 X170.262 Y146.378 E5.88691
G1 X170.352 Y146.925 E5.90535
G1 X170.438 Y147.571 E5.92702
G1 X170.505 Y148.228 E5.94899
G1 X170.542 Y148.688 E5.96434
G1 X170.562 Y149.032 E5.9758
G1 X170.577 Y149.404 E5.98818
G1 X170.583 Y149.666 E5.9969
G1 X170.585 Y150.034 E6.00914
G1 X170.581 Y150.372 E6.02038
G1 X170.569 Y150.773 E6.03372
G1 X170.546 Y151.236 E6.04914
G1 X170.517 Y151.651 E6.06298
G1 X170.477 Y152.1 E6.07797
G1 X170.398 Y152.759 E6.10004
G1 X170.3 Y153.401 E6.12165
G1 X170.215 Y153.88 E6.13783
G1 X170.135 Y154.28 E6.15139
G1 X170.041 Y154.706 E6.1659
G1 X169.987 Y154.928 E6.1735
G1 X169.915 Y155.206 E6.18305
G1 X169.801 Y155.625 E6.1975
G1 X169.679 Y156.042 E6.21195
G1 X169.559 Y156.421 E6.22517
G1 X169.438 Y156.779 E6.23774
G1 X169.345 Y157.04 E6.24695
G1 X169.208 Y157.403 E6.25986
G1 X169.04 Y157.825 E6.27497
G1 X168.777 Y158.43 E6.29691
G1 X168.446 Y159.131 E6.32269
G1 X168.088 Y159.822 E6.34857
G1 X167.751 Y160.418 E6.37135
G1 X167.509 Y160.825 E6.3871
G1 X167.35 Y161.079 E6.39706
G1 X167.127 Y161.42 E6.41061
G1 X166.901 Y161.752 E6.42397
G1 X166.684 Y162.06 E6.4365
G1 X166.557 Y162.233 E6.44364
G1 X166.339 Y162.519 E6.4556
G1 X165.994 Y162.957 E6.47415
G1 X165.731 Y163.278 E6.48795
G1 X165.58 Y163.455 E6.49569
G1 X165.34 Y163.727 E6.50775
G1 X165.042 Y164.053 E6.52244
G1 X164.757 Y164.352 E6.53618
G1 X164.587 Y164.524 E6.54423
G1 X164.33 Y164.776 E6.5562
G1 X163.927 Y165.157 E6.57464
G1 X163.593 Y165.46 E6.58964
G1 X163.419 Y165.611 E6.5973
G1 X163.192 Y165.802 E6.60717
G1 X162.881 Y166.057 E6.62055
G1 X162.536 Y166.328 E6.63514
G1 X162.366 Y166.456 E6.64222
G1 X162.056 Y166.681 E6.65496
G1 X161.467 Y167.092 E6.67885
G1 X160.877 Y167.475 E6.70224
G1 X160.466 Y167.723 E6.71821
G1 X160.119 Y167.924 E6.73154
G1 X159.788 Y168.107 E6.74412
G1 X159.399 Y168.311 E6.75873
G1 X159.009 Y168.506 E6.77324
G1 X158.69 Y168.659 E6.785
G1 X158.422 Y168.782 E6.79481
G1 X158.083 Y168.93 E6.80711
G1 X157.817 Y169.041 E6.8167
G1 X157.433 Y169.193 E6.83044
G1 X156.928 Y169.381 E6.84836
G1 X156.555 Y169.512 E6.86151
G1 X156.328 Y169.587 E6.86946
G1 X155.987 Y169.693 E6.88134
G1 X155.612 Y169.803 E6.89433
G1 X155.22 Y169.91 E6.90785
G1 X154.883 Y169.995 E6.91941
G1 X154.549 Y170.074 E6.93082
G1 X154.205 Y170.149 E6.94253
G1 X153.788 Y170.231 E6.95667
G1 X153.323 Y170.313 E6.97237
G1 X152.957 Y170.371 E6.9847
G1 X152.715 Y170.405 E6.99283
G1 X152.325 Y170.452 E7.00589
G1 X151.985 Y170.487 E7.01726
G1 X151.606 Y170.519 E7.02991
G1 X151.052 Y170.556 E7.04838
G1 X150.48 Y170.579 E7.06742
G1 X150.085 Y170.584 E7.08056
G1 X149.522 Y170.576 E7.09928
G1 X148.88 Y170.55 E7.12066
G1 X148.464 Y170.525 E7.13452
G1 X148.089 Y170.495 E7.14703
G1 X147.469 Y170.427 E7.16777
G1 X146.903 Y170.348 E7.18678
G1 X146.401 Y170.266 E7.2037
G1 X145.898 Y170.171 E7.22072
G1 X145.468 Y170.08 E7.23534
G1 X145.244 Y170.028 E7.24299
G1 X144.907 Y169.944 E7.25454
G1 X144.48 Y169.83 E7.26924
G1 X144.113 Y169.725 E7.28194
G1 X143.858 Y169.647 E7.29081
G1 X143.505 Y169.532 E7.30316
G1 X143.093 Y169.39 E7.31765
G1 X142.736 Y169.26 E7.33029
G1 X142.396 Y169.129 E7.34241
G1 X141.979 Y168.958 E7.3574
G1 X141.779 Y168.871 E7.36465
G1 X141.489 Y168.74 E7.37523
G1 X140.969 Y168.495 E7.39435
