;FLAVOR:Marlin
;TIME:20279
;Filament used: 3.96014m
;Layer height: 0.1
;MINX:104.25
;MINY:90
;MINZ:0.2
;MAXX:195.75
;MAXY:210
;MAXZ:13.2
;Generated with Cura_SteamEngine 4.4.1
M140 S80
M105
M190 S80
M104 S235
M105
M109 S235
M82 ;absolute extrusion mode
M201 X500.00 Y500.00 Z100.00 E5000.00 ;Setup machine max acceleration
M203 X500.00 Y500.00 Z10.00 E50.00 ;Setup machine max feedrate
M204 P500.00 R1000.00 T500.00 ;Setup Print/Retract/Travel acceleration
M205 X8.00 Y8.00 Z0.40 E5.00 ;Setup Jerk
M220 S100 ;Reset Feedrate
M221 S100 ;Reset Flowrate

G28 ;Home

G92 E0 ;Reset Extruder
G1 Z2.0 F3000 ;Move Z Axis up
G1 X10.1 Y20 Z0.28 F5000.0 ;Move to start position
G1 X10.1 Y200.0 Z0.28 F1500.0 E15 ;Draw the first line
G1 X10.4 Y200.0 Z0.28 F5000.0 ;Move to side a little
G1 X10.4 Y20 Z0.28 F1500.0 E30 ;Draw the second line
G92 E0 ;Reset Extruder
G1 Z2.0 F3000 ;Move Z Axis up

G92 E0
G92 E0
G1 F1500 E-6.5
;LAYER_COUNT:131
;LAYER:0
M107
G0 F6000 X107.455 Y115.258 Z0.2
;TYPE:SKIRT
G1 F1500 E0
G1 F1200 X108.143 Y114.621 E0.03119
G1 X108.884 Y114.046 E0.06238
G1 X109.581 Y113.589 E0.0901
G1 X110.111 Y113.269 E0.11069
G1 X112.392 Y111.862 E0.19983
G1 X114.493 Y110.483 E0.28342
G1 X116.577 Y109.029 E0.36794
G1 X118.578 Y107.548 E0.45074
G1 X120.556 Y105.994 E0.5344
G1 X122.487 Y104.388 E0.61793
G1 X124.384 Y102.715 E0.70206
G1 X126.228 Y100.997 E0.78589
G1 X128.002 Y99.244 E0.86884
G1 X129.765 Y97.405 E0.95357
G1 X131.45 Y95.543 E1.03709
G1 X132.607 Y94.188 E1.09635
G1 X132.707 Y94.072 E1.10145
G1 X132.981 Y93.76 E1.11526
G1 X133.629 Y93.083 E1.14643
G1 X134.333 Y92.463 E1.17763
G1 X135.087 Y91.905 E1.20883
G1 X135.886 Y91.413 E1.24004
G1 X136.723 Y90.992 E1.2712
G1 X137.594 Y90.643 E1.30241
G1 X138.491 Y90.37 E1.33359
G1 X139.408 Y90.174 E1.36478
G1 X140.621 Y90.037 E1.40538
G1 X140.955 Y90.018 E1.41651
G1 X141.58 Y90 E1.43731
G1 X158.043 Y90 E1.98487
G1 X158.2 Y90.001 E1.99009
G1 X158.902 Y90.011 E2.01344
G1 X159.838 Y90.064 E2.04462
G1 X160.766 Y90.197 E2.0758
G1 X161.68 Y90.409 E2.10701
G1 X162.573 Y90.697 E2.13822
G1 X163.437 Y91.061 E2.1694
G1 X164.268 Y91.497 E2.20061
G1 X165.058 Y92.002 E2.2318
G1 X165.802 Y92.572 E2.26297
G1 X166.495 Y93.204 E2.29417
G1 X167.1 Y93.855 E2.32372
G1 X167.735 Y94.597 E2.35621
G1 X169.476 Y96.572 E2.44378
G1 X171.189 Y98.409 E2.52732
G1 X172.947 Y100.189 E2.61053
G1 X174.777 Y101.942 E2.69481
G1 X176.643 Y103.629 E2.77848
G1 X178.566 Y105.274 E2.86265
G1 X180.515 Y106.845 E2.94591
G1 X182.511 Y108.362 E3.02929
G1 X184.545 Y109.822 E3.11257
G1 X186.645 Y111.239 E3.19683
G1 X188.793 Y112.603 E3.28146
G1 X189.685 Y113.134 E3.31599
G1 X189.829 Y113.221 E3.32158
G1 X190.512 Y113.642 E3.34827
G1 X191.289 Y114.168 E3.37947
G1 X192.018 Y114.758 E3.41067
G1 X192.694 Y115.408 E3.44186
G1 X193.312 Y116.113 E3.47304
G1 X193.868 Y116.868 E3.50423
G1 X194.358 Y117.668 E3.53543
G1 X194.778 Y118.507 E3.56664
G1 X195.124 Y119.378 E3.59781
G1 X195.396 Y120.276 E3.62902
G1 X195.59 Y121.193 E3.66019
G1 X195.705 Y122.124 E3.69139
G1 X195.735 Y122.667 E3.70948
G1 X195.745 Y122.991 E3.72026
G1 X195.75 Y123.33 E3.73154
G1 X195.75 Y132.274 E4.02901
G1 X195.749 Y132.426 E4.03407
G1 X195.739 Y133.15 E4.05815
G1 X195.73 Y133.465 E4.06863
G1 X195.684 Y134.547 E4.10465
G1 X195.677 Y134.693 E4.10952
G1 X195.641 Y135.343 E4.13117
G1 X195.572 Y137.861 E4.21495
G1 X195.574 Y140.325 E4.2969
G1 X195.743 Y144.926 E4.45003
G1 X195.75 Y145.33 E4.46347
G1 X195.75 Y154.274 E4.76095
G1 X195.749 Y154.426 E4.76601
G1 X195.739 Y155.151 E4.79012
G1 X195.73 Y155.467 E4.80064
G1 X195.684 Y156.548 E4.83662
G1 X195.677 Y156.693 E4.84145
G1 X195.641 Y157.343 E4.86311
G1 X195.572 Y159.861 E4.94689
G1 X195.574 Y162.324 E5.02881
G1 X195.743 Y166.926 E5.18197
G1 X195.75 Y167.33 E5.19541
G1 X195.75 Y176.259 E5.49239
G1 X195.749 Y176.409 E5.49738
G1 X195.739 Y177.141 E5.52173
G1 X195.686 Y178.078 E5.55294
G1 X195.554 Y179.006 E5.58412
G1 X195.343 Y179.92 E5.61532
G1 X195.055 Y180.813 E5.64653
G1 X194.692 Y181.677 E5.6777
G1 X194.256 Y182.508 E5.70891
G1 X193.752 Y183.299 E5.7401
G1 X193.182 Y184.043 E5.77128
G1 X192.55 Y184.737 E5.8025
G1 X191.862 Y185.374 E5.83368
G1 X191.122 Y185.95 E5.86487
G1 X190.419 Y186.411 E5.89283
G1 X189.887 Y186.732 E5.9135
G1 X187.612 Y188.135 E6.0024
G1 X185.489 Y189.529 E6.08687
G1 X183.446 Y190.954 E6.16972
G1 X181.418 Y192.455 E6.25363
G1 X179.444 Y194.006 E6.33713
G1 X177.498 Y195.625 E6.42133
G1 X175.626 Y197.274 E6.5043
G1 X173.771 Y199.004 E6.58867
G1 X171.992 Y200.761 E6.67183
G1 X170.252 Y202.578 E6.7555
G1 X168.529 Y204.482 E6.84091
G1 X167.4 Y205.803 E6.89871
G1 X167.309 Y205.909 E6.90335
G1 X167.025 Y206.233 E6.91768
G1 X166.377 Y206.911 E6.94888
G1 X165.674 Y207.532 E6.98008
G1 X164.921 Y208.09 E7.01125
G1 X164.122 Y208.582 E7.04246
G1 X163.285 Y209.005 E7.07365
G1 X162.415 Y209.355 E7.10484
G1 X161.518 Y209.629 E7.13603
G1 X160.601 Y209.826 E7.16723
G1 X159.347 Y209.966 E7.2092
G1 X159.014 Y209.984 E7.22029
G1 X158.42 Y210 E7.24005
G1 X141.957 Y210 E7.78761
G1 X141.8 Y209.999 E7.79284
G1 X141.098 Y209.989 E7.81619
G1 X140.162 Y209.936 E7.84737
G1 X139.234 Y209.803 E7.87855
G1 X138.32 Y209.591 E7.90976
G1 X137.427 Y209.303 E7.94096
G1 X136.563 Y208.939 E7.97215
G1 X135.732 Y208.503 E8.00336
G1 X134.942 Y207.998 E8.03454
G1 X134.198 Y207.428 E8.06572
G1 X133.505 Y206.796 E8.09691
G1 X132.9 Y206.145 E8.12647
G1 X132.265 Y205.403 E8.15895
G1 X130.524 Y203.428 E8.24652
G1 X128.81 Y201.59 E8.33011
G1 X127.053 Y199.811 E8.41327
G1 X125.222 Y198.057 E8.49761
G1 X123.357 Y196.371 E8.58123
G1 X121.434 Y194.726 E8.66539
G1 X119.485 Y193.155 E8.74866
G1 X117.489 Y191.638 E8.83204
G1 X115.455 Y190.178 E8.91532
G1 X113.355 Y188.761 E8.99957
G1 X111.207 Y187.397 E9.0842
G1 X110.315 Y186.866 E9.11873
G1 X110.181 Y186.785 E9.12394
G1 X109.498 Y186.365 E9.15061
G1 X108.721 Y185.84 E9.1818
G1 X107.991 Y185.251 E9.21299
G1 X107.314 Y184.602 E9.24419
G1 X106.695 Y183.897 E9.27539
G1 X106.138 Y183.143 E9.30657
G1 X105.648 Y182.343 E9.33777
G1 X105.227 Y181.505 E9.36896
G1 X104.879 Y180.634 E9.40016
G1 X104.607 Y179.737 E9.43134
G1 X104.412 Y178.819 E9.46255
G1 X104.296 Y177.888 E9.49375
G1 X104.265 Y177.333 E9.51224
G1 X104.255 Y177.008 E9.52306
G1 X104.25 Y176.67 E9.5343
G1 X104.25 Y167.707 E9.83241
G1 X104.251 Y167.551 E9.8376
G1 X104.261 Y166.845 E9.86108
G1 X104.27 Y166.533 E9.87147
G1 X104.316 Y165.452 E9.90745
G1 X104.323 Y165.307 E9.91228
G1 X104.359 Y164.657 E9.93393
G1 X104.428 Y162.138 E10.01775
G1 X104.426 Y159.675 E10.09967
G1 X104.257 Y155.074 E10.2528
G1 X104.25 Y154.67 E10.26624
G1 X104.25 Y145.707 E10.56435
G1 X104.251 Y145.551 E10.56954
G1 X104.261 Y144.844 E10.59306
G1 X104.27 Y144.532 E10.60344
G1 X104.316 Y143.452 E10.63939
G1 X104.323 Y143.307 E10.64422
G1 X104.359 Y142.657 E10.66587
G1 X104.428 Y140.139 E10.74965
G1 X104.426 Y137.676 E10.83157
G1 X104.257 Y133.074 E10.98474
G1 X104.25 Y132.67 E10.99818
G1 X104.25 Y123.707 E11.29629
G1 X104.251 Y123.549 E11.30154
G1 X104.261 Y122.851 E11.32476
G1 X104.315 Y121.915 E11.35594
G1 X104.447 Y120.987 E11.38712
G1 X104.659 Y120.073 E11.41833
G1 X104.948 Y119.181 E11.44951
G1 X105.311 Y118.316 E11.48071
G1 X105.747 Y117.486 E11.5119
G1 X106.252 Y116.695 E11.54311
G1 X106.823 Y115.951 E11.5743
G1 X107.455 Y115.258 E11.6055
G0 F6000 X107.847 Y115.433
G1 F1200 X108.532 Y114.818 E11.63612
G1 X109.268 Y114.265 E11.66674
G1 X109.787 Y113.931 E11.68726
G1 X110.399 Y113.562 E11.71103
G1 X112.599 Y112.204 E11.79702
G1 X114.712 Y110.818 E11.88107
G1 X116.798 Y109.362 E11.96568
G1 X118.818 Y107.868 E12.04924
G1 X120.813 Y106.3 E12.13364
G1 X122.762 Y104.679 E12.21796
G1 X124.658 Y103.007 E12.30203
G1 X126.499 Y101.291 E12.38574
G1 X128.289 Y99.523 E12.46942
G1 X130.049 Y97.686 E12.55404
G1 X131.736 Y95.823 E12.63763
G1 X132.911 Y94.447 E12.69781
G1 X133.007 Y94.336 E12.70269
G1 X133.281 Y94.024 E12.7165
G1 X133.918 Y93.36 E12.74711
G1 X134.611 Y92.753 E12.77775
G1 X135.353 Y92.208 E12.80837
G1 X136.14 Y91.73 E12.83899
G1 X136.965 Y91.322 E12.86961
G1 X137.823 Y90.987 E12.90024
G1 X138.706 Y90.728 E12.93085
G1 X139.608 Y90.546 E12.96145
G1 X140.644 Y90.436 E12.9961
G1 X140.978 Y90.417 E13.00723
G1 X141.58 Y90.4 E13.02726
G1 X158.043 Y90.4 E13.57482
G1 X158.194 Y90.401 E13.57985
G1 X158.896 Y90.411 E13.6032
G1 X159.815 Y90.464 E13.63381
G1 X160.726 Y90.597 E13.66443
G1 X161.622 Y90.808 E13.69505
G1 X162.497 Y91.096 E13.72569
G1 X163.343 Y91.459 E13.75631
G1 X164.154 Y91.894 E13.78692
G1 X164.925 Y92.398 E13.81755
G1 X165.649 Y92.966 E13.84816
G1 X166.321 Y93.596 E13.8788
G1 X166.796 Y94.115 E13.9022
G1 X167.445 Y94.873 E13.93539
G1 X169.184 Y96.846 E14.02286
G1 X170.894 Y98.681 E14.10629
G1 X172.668 Y100.476 E14.19022
G1 X174.515 Y102.245 E14.27529
G1 X176.342 Y103.898 E14.35723
G1 X178.318 Y105.587 E14.44369
G1 X180.268 Y107.158 E14.52698
G1 X182.281 Y108.69 E14.61112
G1 X184.333 Y110.162 E14.69511
G1 X186.428 Y111.576 E14.77918
G1 X188.553 Y112.925 E14.86289
G1 X189.48 Y113.477 E14.89878
G1 X189.619 Y113.562 E14.9042
G1 X190.302 Y113.983 E14.93088
G1 X191.064 Y114.499 E14.96149
G1 X191.778 Y115.08 E14.99211
G1 X192.44 Y115.721 E15.02276
G1 X193.043 Y116.416 E15.05336
G1 X193.583 Y117.162 E15.08399
G1 X194.057 Y117.951 E15.1146
G1 X194.46 Y118.778 E15.1452
G1 X194.791 Y119.638 E15.17585
G1 X195.045 Y120.523 E15.20647
G1 X195.222 Y121.426 E15.23708
G1 X195.335 Y122.679 E15.27892
G1 X195.345 Y123.003 E15.28971
G1 X195.35 Y123.33 E15.30058
G1 X195.35 Y132.274 E15.59806
G1 X195.349 Y132.42 E15.60292
G1 X195.339 Y133.144 E15.627
G1 X195.33 Y133.448 E15.63712
G1 X195.284 Y134.53 E15.67314
G1 X195.278 Y134.671 E15.67783
G1 X195.24 Y135.345 E15.70028
G1 X195.172 Y137.847 E15.78353
G1 X195.174 Y140.341 E15.86648
G1 X195.343 Y144.941 E16.01958
G1 X195.35 Y145.33 E16.03252
G1 X195.35 Y154.274 E16.33
G1 X195.349 Y154.42 E16.33486
G1 X195.339 Y155.145 E16.35897
G1 X195.33 Y155.45 E16.36912
G1 X195.284 Y156.531 E16.40511
G1 X195.278 Y156.671 E16.40977
G1 X195.24 Y157.345 E16.43222
G1 X195.172 Y159.846 E16.51544
G1 X195.174 Y162.34 E16.59839
G1 X195.343 Y166.941 E16.75152
G1 X195.35 Y167.33 E16.76446
G1 X195.35 Y176.259 E17.06144
G1 X195.349 Y176.404 E17.06626
G1 X195.339 Y177.136 E17.09061
G1 X195.286 Y178.055 E17.12123
G1 X195.154 Y178.966 E17.15184
G1 X194.944 Y179.862 E17.18245
G1 X194.656 Y180.737 E17.21309
G1 X194.294 Y181.583 E17.2437
G1 X193.859 Y182.395 E17.27434
G1 X193.356 Y183.166 E17.30495
G1 X192.788 Y183.89 E17.33556
G1 X192.159 Y184.562 E17.36617
G1 X191.474 Y185.178 E17.39682
G1 X190.738 Y185.731 E17.42743
G1 X190.213 Y186.069 E17.4482
G1 X189.586 Y186.447 E17.47255
G1 X187.405 Y187.792 E17.55778
G1 X185.27 Y189.193 E17.64271
G1 X183.225 Y190.62 E17.72565
G1 X181.179 Y192.135 E17.81033
G1 X179.183 Y193.703 E17.89475
G1 X177.244 Y195.315 E17.97862
G1 X175.335 Y196.998 E18.06326
G1 X173.499 Y198.709 E18.14673
G1 X171.722 Y200.464 E18.2298
G1 X169.933 Y202.333 E18.31585
G1 X168.244 Y204.199 E18.39956
G1 X167.096 Y205.543 E18.45835
G1 X167.008 Y205.645 E18.46283
G1 X166.724 Y205.969 E18.47716
G1 X166.088 Y206.634 E18.50777
G1 X165.396 Y207.242 E18.53841
G1 X164.654 Y207.787 E18.56903
G1 X163.868 Y208.266 E18.59964
G1 X163.043 Y208.675 E18.63027
G1 X162.186 Y209.011 E18.66089
G1 X161.303 Y209.271 E18.6915
G1 X160.4 Y209.453 E18.72214
G1 X159.325 Y209.567 E18.75809
G1 X158.992 Y209.585 E18.76919
G1 X158.42 Y209.6 E18.78822
G1 X141.957 Y209.6 E19.33578
G1 X141.806 Y209.599 E19.3408
G1 X141.104 Y209.589 E19.36415
G1 X140.185 Y209.536 E19.39477
G1 X139.274 Y209.403 E19.42539
G1 X138.378 Y209.192 E19.45601
G1 X137.503 Y208.904 E19.48664
G1 X136.657 Y208.541 E19.51726
G1 X135.846 Y208.106 E19.54787
G1 X135.075 Y207.602 E19.57851
G1 X134.351 Y207.034 E19.60912
G1 X133.679 Y206.404 E19.63975
G1 X133.204 Y205.885 E19.66315
G1 X132.555 Y205.127 E19.69634
G1 X130.816 Y203.154 E19.78382
G1 X129.105 Y201.318 E19.86729
G1 X127.35 Y199.541 E19.95036
G1 X125.485 Y197.756 E20.03622
G1 X123.638 Y196.085 E20.11906
G1 X121.682 Y194.413 E20.20465
G1 X119.732 Y192.842 E20.28793
G1 X117.719 Y191.31 E20.37207
G1 X115.667 Y189.838 E20.45607
G1 X113.572 Y188.424 E20.54013
G1 X111.447 Y187.075 E20.62385
G1 X110.52 Y186.523 E20.65973
G1 X110.391 Y186.444 E20.66476
G1 X109.708 Y186.024 E20.69143
G1 X108.945 Y185.509 E20.72205
G1 X108.23 Y184.928 E20.75269
G1 X107.568 Y184.289 E20.78329
G1 X106.964 Y183.594 E20.81392
G1 X106.423 Y182.849 E20.84454
G1 X105.948 Y182.06 E20.87517
G1 X105.544 Y181.233 E20.90579
G1 X105.213 Y180.374 E20.9364
G1 X104.958 Y179.489 E20.96704
G1 X104.78 Y178.586 E20.99765
G1 X104.665 Y177.321 E21.0399
G1 X104.655 Y176.996 E21.05071
G1 X104.65 Y176.67 E21.06156
G1 X104.65 Y167.707 E21.35967
G1 X104.651 Y167.557 E21.36466
G1 X104.661 Y166.851 E21.38814
G1 X104.67 Y166.55 E21.39815
G1 X104.716 Y165.469 E21.43414
G1 X104.722 Y165.329 E21.4388
G1 X104.76 Y164.655 E21.46126
G1 X104.828 Y162.149 E21.54464
G1 X104.826 Y159.659 E21.62745
G1 X104.657 Y155.059 E21.78055
G1 X104.65 Y154.67 E21.79349
G1 X104.65 Y145.707 E22.0916
G1 X104.651 Y145.557 E22.09659
G1 X104.661 Y144.85 E22.12011
G1 X104.67 Y144.549 E22.13013
G1 X104.716 Y143.469 E22.16608
G1 X104.722 Y143.329 E22.17074
G1 X104.76 Y142.655 E22.19319
G1 X104.828 Y140.149 E22.27657
G1 X104.826 Y137.66 E22.35936
G1 X104.657 Y133.059 E22.51249
G1 X104.65 Y132.67 E22.52543
G1 X104.65 Y123.707 E22.82354
G1 X104.651 Y123.555 E22.8286
G1 X104.661 Y122.857 E22.85182
G1 X104.714 Y121.938 E22.88243
G1 X104.847 Y121.027 E22.91305
G1 X105.058 Y120.131 E22.94367
G1 X105.346 Y119.257 E22.97428
G1 X105.709 Y118.41 E23.00493
G1 X106.144 Y117.599 E23.03554
G1 X106.648 Y116.829 E23.06614
G1 X107.217 Y116.105 E23.09677
G1 X107.847 Y115.433 E23.12741
G0 F6000 X108.238 Y115.611
G1 F1200 X108.92 Y115.019 E23.15745
G1 X109.994 Y114.274 E23.20092
G1 X110.531 Y113.95 E23.22178
G1 X112.824 Y112.536 E23.31138
G1 X114.938 Y111.148 E23.39549
G1 X117.042 Y109.68 E23.48082
G1 X119.057 Y108.188 E23.56421
G1 X121.071 Y106.607 E23.64937
G1 X122.999 Y105.003 E23.73279
G1 X124.931 Y103.299 E23.81847
G1 X126.769 Y101.586 E23.90204
G1 X128.595 Y99.782 E23.98741
G1 X130.336 Y97.966 E24.07108
G1 X132.036 Y96.088 E24.15534
G1 X133.215 Y94.707 E24.21573
G1 X133.308 Y94.6 E24.22045
G1 X133.582 Y94.288 E24.23426
G1 X134.207 Y93.637 E24.26427
G1 X134.888 Y93.043 E24.29433
G1 X135.618 Y92.512 E24.32435
G1 X136.393 Y92.048 E24.3544
G1 X137.205 Y91.653 E24.38443
G1 X138.05 Y91.333 E24.41448
G1 X138.919 Y91.088 E24.44451
G1 X139.806 Y90.921 E24.47453
G1 X140.667 Y90.835 E24.50331
G1 X141.001 Y90.816 E24.51444
G1 X141.58 Y90.8 E24.5337
G1 X158.043 Y90.8 E25.08126
G1 X158.188 Y90.801 E25.08609
G1 X158.89 Y90.811 E25.10944
G1 X159.792 Y90.864 E25.13949
G1 X160.685 Y90.996 E25.16952
G1 X161.563 Y91.207 E25.19955
G1 X162.419 Y91.495 E25.22959
G1 X163.247 Y91.857 E25.25964
G1 X164.039 Y92.291 E25.28968
G1 X164.789 Y92.794 E25.31972
G1 X165.492 Y93.36 E25.34974
G1 X166.142 Y93.987 E25.37977
G1 X166.492 Y94.375 E25.39715
G1 X167.125 Y95.114 E25.42952
G1 X168.875 Y97.099 E25.51753
G1 X170.634 Y98.987 E25.60336
G1 X172.372 Y100.746 E25.6856
G1 X174.234 Y102.529 E25.77135
G1 X176.098 Y104.215 E25.85494
G1 X178.053 Y105.887 E25.9405
G1 X180.02 Y107.472 E26.02452
G1 X182.052 Y109.017 E26.10943
G1 X184.099 Y110.486 E26.19323
G1 X186.22 Y111.918 E26.27834
G1 X188.356 Y113.274 E26.36249
G1 X189.275 Y113.821 E26.39807
G1 X189.409 Y113.902 E26.40327
G1 X190.092 Y114.323 E26.42996
G1 X190.839 Y114.83 E26.45999
G1 X191.538 Y115.402 E26.49003
G1 X192.184 Y116.033 E26.52006
G1 X192.772 Y116.719 E26.55011
G1 X193.297 Y117.454 E26.58016
G1 X193.754 Y118.233 E26.61019
G1 X194.141 Y119.049 E26.64023
G1 X194.454 Y119.896 E26.67027
G1 X194.691 Y120.767 E26.70029
G1 X194.85 Y121.656 E26.73033
G1 X194.935 Y122.691 E26.76487
G1 X194.945 Y123.015 E26.77565
G1 X194.95 Y123.33 E26.78613
G1 X194.95 Y132.274 E27.0836
G1 X194.949 Y132.415 E27.08829
G1 X194.939 Y133.139 E27.11238
G1 X194.931 Y133.431 E27.12209
G1 X194.885 Y134.513 E27.15811
G1 X194.878 Y134.649 E27.16264
G1 X194.841 Y135.313 E27.18476
G1 X194.772 Y137.833 E27.26861
G1 X194.774 Y140.355 E27.35249
G1 X194.943 Y144.955 E27.50559
