;FLAVOR:Marlin
;TIME:9387
;Filament used: 2.69628m
;Layer height: 0.16
;MINX:111.945
;MINY:113.25
;MINZ:0.2
;MAXX:177.548
;MAXY:186.75
;MAXZ:13.96
;Generated with Cura_SteamEngine 4.4.1
M140 S80
M105
M190 S80
M104 S235
M105
M109 S235
M82 ;absolute extrusion mode
M201 X500.00 Y500.00 Z100.00 E5000.00 ;Setup machine max acceleration
M203 X500.00 Y500.00 Z10.00 E50.00 ;Setup machine max feedrate
M204 P500.00 R1000.00 T500.00 ;Setup Print/Retract/Travel acceleration
M205 X8.00 Y8.00 Z0.40 E5.00 ;Setup Jerk
M220 S100 ;Reset Feedrate
M221 S100 ;Reset Flowrate

G28 ;Home

G92 E0 ;Reset Extruder
G1 Z2.0 F3000 ;Move Z Axis up
G1 X10.1 Y20 Z0.28 F5000.0 ;Move to start position
G1 X10.1 Y200.0 Z0.28 F1500.0 E15 ;Draw the first line
G1 X10.4 Y200.0 Z0.28 F5000.0 ;Move to side a little
G1 X10.4 Y20 Z0.28 F1500.0 E30 ;Draw the second line
G92 E0 ;Reset Extruder
G1 Z2.0 F3000 ;Move Z Axis up

G92 E0
G92 E0
G1 F1500 E-6.5
;LAYER_COUNT:87
;LAYER:0
M107
G0 F6000 X125.281 Y116.918 Z0.2
;TYPE:SKIRT
G1 F1500 E0
G1 F1200 X125.937 Y116.249 E0.03116
G1 X126.649 Y115.638 E0.06237
G1 X127.41 Y115.089 E0.09358
G1 X128.215 Y114.608 E0.12477
G1 X129.057 Y114.197 E0.15593
G1 X129.932 Y113.859 E0.18713
G1 X130.833 Y113.597 E0.21834
G1 X131.752 Y113.412 E0.24952
G1 X132.461 Y113.325 E0.27328
G1 X132.792 Y113.295 E0.28433
G1 X133.785 Y113.25 E0.31739
G1 X137.746 Y113.25 E0.44914
G1 X137.903 Y113.251 E0.45436
G1 X138.605 Y113.261 E0.47771
G1 X138.914 Y113.27 E0.48799
G1 X139.436 Y113.292 E0.50537
G1 X142.082 Y113.367 E0.59341
G1 X144.57 Y113.367 E0.67616
G1 X147.162 Y113.294 E0.7624
G1 X147.34 Y113.285 E0.76833
G1 X147.535 Y113.277 E0.77482
G1 X148.214 Y113.256 E0.79742
G1 X148.55 Y113.251 E0.80859
G1 X151.043 Y113.25 E0.89151
G1 X151.202 Y113.251 E0.8968
G1 X151.912 Y113.261 E0.92042
G1 X152.224 Y113.27 E0.9308
G1 X152.748 Y113.292 E0.94824
G1 X155.389 Y113.367 E1.03612
G1 X157.877 Y113.367 E1.11887
G1 X160.436 Y113.295 E1.20402
G1 X160.662 Y113.283 E1.21154
G1 X160.919 Y113.273 E1.2201
G1 X161.566 Y113.255 E1.24163
G1 X161.869 Y113.251 E1.2517
G1 X165.838 Y113.25 E1.38371
G1 X165.999 Y113.251 E1.38907
G1 X166.697 Y113.261 E1.41229
G1 X167.633 Y113.315 E1.44347
G1 X168.561 Y113.447 E1.47465
G1 X169.475 Y113.659 E1.50585
G1 X170.367 Y113.948 E1.53704
G1 X171.232 Y114.311 E1.56824
G1 X172.062 Y114.747 E1.59942
G1 X172.853 Y115.252 E1.63064
G1 X173.597 Y115.823 E1.66183
G1 X174.29 Y116.455 E1.69302
G1 X174.927 Y117.143 E1.72421
G1 X175.502 Y117.884 E1.7554
G1 X176.013 Y118.67 E1.78659
G1 X176.455 Y119.498 E1.8178
G1 X176.824 Y120.36 E1.84899
G1 X177.119 Y121.25 E1.88018
G1 X177.337 Y122.162 E1.91136
G1 X177.477 Y123.09 E1.94258
G1 X177.534 Y123.945 E1.97108
G1 X177.543 Y124.259 E1.98153
G1 X177.548 Y124.574 E1.99201
G1 X177.548 Y136.008 E2.3723
G1 X177.547 Y175.015 E3.66968
G1 X177.546 Y175.167 E3.67474
G1 X177.536 Y175.892 E3.69885
G1 X177.483 Y176.828 E3.73003
G1 X177.351 Y177.757 E3.76124
G1 X177.139 Y178.67 E3.79242
G1 X176.851 Y179.563 E3.82362
G1 X176.488 Y180.428 E3.85482
G1 X176.053 Y181.258 E3.88599
G1 X175.548 Y182.049 E3.91721
G1 X174.978 Y182.793 E3.94838
G1 X174.346 Y183.487 E3.9796
G1 X173.658 Y184.124 E4.01078
G1 X172.918 Y184.7 E4.04197
G1 X172.132 Y185.211 E4.07315
G1 X171.305 Y185.653 E4.10434
G1 X170.443 Y186.023 E4.13554
G1 X169.553 Y186.319 E4.16674
G1 X168.641 Y186.537 E4.19793
G1 X167.713 Y186.677 E4.22914
G1 X166.877 Y186.735 E4.25701
G1 X166.554 Y186.745 E4.26776
G1 X166.214 Y186.75 E4.27907
G1 X162.254 Y186.75 E4.41078
G1 X162.098 Y186.749 E4.41597
G1 X161.393 Y186.739 E4.43942
G1 X161.086 Y186.73 E4.44964
G1 X160.537 Y186.707 E4.46791
G1 X157.893 Y186.633 E4.55589
G1 X155.423 Y186.633 E4.63804
G1 X153.562 Y186.699 E4.69997
G1 X153.443 Y186.703 E4.70393
G1 X151.7 Y186.746 E4.76192
G1 X151.433 Y186.749 E4.77081
G1 X148.957 Y186.75 E4.85316
G1 X148.799 Y186.749 E4.85841
G1 X148.086 Y186.739 E4.88213
G1 X147.773 Y186.73 E4.89254
G1 X147.249 Y186.708 E4.90999
G1 X144.608 Y186.633 E4.99786
G1 X142.12 Y186.633 E5.08061
G1 X139.551 Y186.706 E5.16609
G1 X139.309 Y186.718 E5.17415
G1 X139.065 Y186.727 E5.18227
G1 X138.438 Y186.745 E5.20314
G1 X138.122 Y186.75 E5.21365
G1 X134.159 Y186.75 E5.34546
G1 X134.001 Y186.749 E5.35071
G1 X133.303 Y186.739 E5.37393
G1 X132.367 Y186.685 E5.40511
G1 X131.439 Y186.553 E5.43629
G1 X130.525 Y186.341 E5.4675
G1 X129.633 Y186.052 E5.49868
G1 X128.768 Y185.689 E5.52988
G1 X127.938 Y185.253 E5.56107
G1 X127.147 Y184.748 E5.59228
G1 X126.403 Y184.177 E5.62347
G1 X125.71 Y183.545 E5.65467
G1 X125.073 Y182.857 E5.68585
G1 X124.498 Y182.116 E5.71705
G1 X123.987 Y181.33 E5.74823
G1 X123.545 Y180.502 E5.77945
G1 X123.176 Y179.64 E5.81064
G1 X122.824 Y178.542 E5.84899
G1 X122.667 Y177.946 E5.86948
G1 X122.623 Y177.776 E5.87533
G1 X122.262 Y176.312 E5.92548
G1 X121.597 Y173.903 E6.0086
G1 X120.859 Y171.503 E6.09211
G1 X120.044 Y169.097 E6.1766
G1 X119.178 Y166.758 E6.25956
G1 X118.236 Y164.418 E6.34346
G1 X117.219 Y162.089 E6.42798
G1 X116.158 Y159.832 E6.51093
G1 X115.033 Y157.606 E6.59389
G1 X114.019 Y155.743 E6.66443
G1 X113.917 Y155.551 E6.67166
G1 X113.429 Y154.611 E6.70689
G1 X113.033 Y153.761 E6.73808
G1 X112.816 Y153.194 E6.75827
G1 X112.702 Y152.87 E6.7697
G1 X112.477 Y152.156 E6.79459
G1 X112.395 Y151.86 E6.80481
G1 X112.184 Y150.946 E6.83601
G1 X112.086 Y150.331 E6.85672
G1 X112.034 Y149.928 E6.87024
G1 X111.954 Y148.993 E6.90145
G1 X111.945 Y148.362 E6.92244
G1 X111.951 Y147.944 E6.93634
G1 X112.005 Y147.008 E6.96753
G1 X112.082 Y146.403 E6.98781
G1 X112.145 Y146 E7.00138
G1 X112.329 Y145.08 E7.03258
G1 X112.501 Y144.459 E7.05402
G1 X112.595 Y144.154 E7.06463
G1 X112.847 Y143.428 E7.09019
G1 X112.968 Y143.115 E7.10135
G1 X113.343 Y142.255 E7.13256
G1 X113.613 Y141.738 E7.15196
G1 X113.932 Y141.164 E7.1738
G1 X114.052 Y140.953 E7.18187
G1 X115.28 Y138.854 E7.26275
G1 X116.503 Y136.621 E7.34743
G1 X117.628 Y134.423 E7.42956
G1 X118.724 Y132.12 E7.51439
G1 X119.74 Y129.821 E7.59799
G1 X120.693 Y127.49 E7.68175
G1 X121.581 Y125.127 E7.76571
G1 X122.391 Y122.776 E7.84841
G1 X122.967 Y120.958 E7.91184
G1 X123.289 Y120.077 E7.94304
G1 X123.684 Y119.227 E7.97421
G1 X124.15 Y118.413 E8.00541
G1 X124.683 Y117.641 E8.03661
G1 X125.281 Y116.918 E8.06782
G0 F6000 X125.635 Y117.123
G1 F1200 X126.285 Y116.472 E8.09842
G1 X126.99 Y115.879 E8.12906
G1 X127.743 Y115.35 E8.15966
G1 X128.539 Y114.888 E8.19027
G1 X129.373 Y114.497 E8.22091
G1 X130.237 Y114.18 E8.25152
G1 X131.126 Y113.939 E8.28216
G1 X132.032 Y113.776 E8.31277
G1 X132.497 Y113.723 E8.32834
G1 X132.828 Y113.693 E8.33939
G1 X133.785 Y113.65 E8.37126
G1 X137.746 Y113.65 E8.503
G1 X137.897 Y113.651 E8.50802
G1 X138.599 Y113.661 E8.53137
G1 X138.897 Y113.67 E8.54129
G1 X139.407 Y113.692 E8.55827
G1 X142.071 Y113.767 E8.64691
G1 X144.581 Y113.767 E8.73039
G1 X147.193 Y113.693 E8.8173
G1 X147.359 Y113.685 E8.82283
G1 X147.547 Y113.677 E8.82909
G1 X148.226 Y113.656 E8.85168
G1 X148.55 Y113.651 E8.86246
G1 X151.043 Y113.65 E8.94538
G1 X151.196 Y113.651 E8.95047
G1 X151.906 Y113.661 E8.97408
G1 X152.207 Y113.67 E8.9841
G1 X152.719 Y113.692 E9.00114
G1 X155.378 Y113.767 E9.08962
G1 X157.888 Y113.767 E9.1731
G1 X160.467 Y113.694 E9.25891
G1 X160.682 Y113.683 E9.26607
G1 X160.93 Y113.673 E9.27433
G1 X161.577 Y113.655 E9.29586
G1 X161.869 Y113.651 E9.30557
G1 X165.838 Y113.65 E9.43758
G1 X165.993 Y113.651 E9.44273
G1 X166.691 Y113.661 E9.46595
G1 X167.61 Y113.714 E9.49657
G1 X168.521 Y113.847 E9.52719
G1 X169.417 Y114.058 E9.55781
G1 X170.291 Y114.346 E9.58841
G1 X171.138 Y114.709 E9.61906
G1 X171.949 Y115.144 E9.64967
G1 X172.719 Y115.648 E9.68028
G1 X173.443 Y116.217 E9.71091
G1 X174.115 Y116.847 E9.74154
G1 X174.73 Y117.532 E9.77216
G1 X175.283 Y118.268 E9.80278
G1 X175.77 Y119.049 E9.83339
G1 X176.187 Y119.87 E9.86402
G1 X176.532 Y120.724 E9.89466
G1 X176.801 Y121.604 E9.92526
G1 X176.993 Y122.505 E9.9559
G1 X177.106 Y123.418 E9.9865
G1 X177.135 Y123.956 E10.00442
G1 X177.144 Y124.27 E10.01487
G1 X177.148 Y124.574 E10.02498
G1 X177.148 Y136.008 E10.40528
G1 X177.147 Y175.015 E11.70265
G1 X177.146 Y175.161 E11.70751
G1 X177.136 Y175.886 E11.73163
G1 X177.083 Y176.805 E11.76224
G1 X176.951 Y177.716 E11.79286
G1 X176.74 Y178.613 E11.82351
G1 X176.453 Y179.487 E11.8541
G1 X176.09 Y180.333 E11.88472
G1 X175.655 Y181.145 E11.91536
G1 X175.152 Y181.916 E11.94598
G1 X174.584 Y182.64 E11.97659
G1 X173.955 Y183.312 E12.0072
G1 X173.269 Y183.927 E12.03784
G1 X172.534 Y184.481 E12.06846
G1 X171.753 Y184.968 E12.09907
G1 X170.932 Y185.386 E12.12971
G1 X170.079 Y185.731 E12.16031
G1 X169.198 Y186 E12.19095
G1 X168.298 Y186.193 E12.22157
G1 X167.384 Y186.306 E12.2522
G1 X166.865 Y186.335 E12.26949
G1 X166.542 Y186.345 E12.28024
G1 X166.214 Y186.35 E12.29115
G1 X162.254 Y186.35 E12.42286
G1 X162.104 Y186.349 E12.42785
G1 X161.399 Y186.339 E12.4513
G1 X161.102 Y186.331 E12.46118
G1 X160.493 Y186.305 E12.48145
G1 X157.904 Y186.233 E12.5676
G1 X155.409 Y186.233 E12.65058
G1 X153.548 Y186.299 E12.71252
G1 X153.433 Y186.303 E12.71634
G1 X151.69 Y186.346 E12.77433
G1 X151.433 Y186.349 E12.78288
G1 X148.957 Y186.35 E12.86523
G1 X148.804 Y186.349 E12.87032
G1 X148.091 Y186.339 E12.89404
G1 X147.79 Y186.33 E12.90405
G1 X147.278 Y186.308 E12.9211
G1 X144.619 Y186.233 E13.00957
G1 X142.109 Y186.233 E13.09306
G1 X139.518 Y186.306 E13.17927
G1 X139.288 Y186.318 E13.18693
G1 X139.053 Y186.328 E13.19475
G1 X138.426 Y186.346 E13.21561
G1 X138.122 Y186.35 E13.22573
G1 X134.159 Y186.35 E13.35754
G1 X134.007 Y186.349 E13.36259
G1 X133.309 Y186.339 E13.38581
G1 X132.39 Y186.286 E13.41643
G1 X131.479 Y186.153 E13.44705
G1 X130.583 Y185.942 E13.47766
G1 X129.709 Y185.654 E13.50827
G1 X128.862 Y185.291 E13.53892
G1 X128.051 Y184.856 E13.56953
G1 X127.281 Y184.352 E13.60014
G1 X126.557 Y183.783 E13.63077
G1 X125.885 Y183.153 E13.6614
G1 X125.27 Y182.468 E13.69202
G1 X124.717 Y181.732 E13.72264
G1 X124.23 Y180.951 E13.75325
G1 X123.813 Y180.13 E13.78388
G1 X123.468 Y179.276 E13.81451
G1 X123.211 Y178.44 E13.8436
G1 X123.054 Y177.844 E13.8641
G1 X123.012 Y177.68 E13.86973
G1 X122.651 Y176.215 E13.91992
G1 X121.982 Y173.793 E14.00349
G1 X121.242 Y171.384 E14.08731
G1 X120.427 Y168.977 E14.17183
G1 X119.553 Y166.618 E14.2555
G1 X118.597 Y164.246 E14.34056
G1 X117.59 Y161.938 E14.42432
G1 X116.512 Y159.646 E14.50856
G1 X115.398 Y157.439 E14.59078
G1 X114.37 Y155.552 E14.66226
G1 X114.272 Y155.367 E14.66922
G1 X113.784 Y154.427 E14.70445
G1 X113.396 Y153.592 E14.73507
G1 X113.193 Y153.061 E14.75398
G1 X113.079 Y152.737 E14.7654
G1 X112.863 Y152.049 E14.78938
G1 X112.781 Y151.753 E14.7996
G1 X112.574 Y150.856 E14.83022
G1 X112.483 Y150.279 E14.84965
G1 X112.431 Y149.876 E14.86316
G1 X112.353 Y148.959 E14.89377
G1 X112.345 Y148.368 E14.91343
G1 X112.351 Y147.95 E14.92733
G1 X112.404 Y147.031 E14.95795
G1 X112.477 Y146.465 E14.97693
G1 X112.54 Y146.062 E14.9905
G1 X112.722 Y145.159 E15.02114
G1 X112.883 Y144.577 E15.04122
G1 X112.977 Y144.272 E15.05184
G1 X113.22 Y143.572 E15.07648
G1 X113.341 Y143.259 E15.08764
G1 X113.71 Y142.415 E15.11828
G1 X113.963 Y141.932 E15.13642
G1 X114.282 Y141.358 E15.15826
G1 X114.397 Y141.155 E15.16602
G1 X115.633 Y139.042 E15.24744
G1 X116.853 Y136.816 E15.33186
G1 X117.987 Y134.598 E15.41472
G1 X119.087 Y132.288 E15.49981
G1 X120.105 Y129.985 E15.58356
G1 X121.066 Y127.634 E15.66804
G1 X121.958 Y125.262 E15.75232
G1 X122.784 Y122.864 E15.83668
G1 X123.349 Y121.079 E15.89895
G1 X123.665 Y120.214 E15.92958
G1 X124.054 Y119.38 E15.96019
G1 X124.515 Y118.583 E15.99081
G1 X125.043 Y117.829 E16.02143
G1 X125.635 Y117.123 E16.05207
G0 F6000 X125.988 Y117.33
G1 F1200 X126.632 Y116.697 E16.08211
G1 X127.329 Y116.123 E16.11214
G1 X128.075 Y115.614 E16.14218
G1 X128.863 Y115.172 E16.17223
G1 X129.686 Y114.801 E16.20225
G1 X130.539 Y114.505 E16.23228
G1 X131.415 Y114.286 E16.26232
G1 X132.533 Y114.122 E16.2999
G1 X132.864 Y114.092 E16.31095
G1 X133.785 Y114.05 E16.34162
G1 X137.746 Y114.05 E16.47336
G1 X137.891 Y114.051 E16.47818
G1 X138.593 Y114.061 E16.50154
G1 X138.88 Y114.069 E16.51109
G1 X139.449 Y114.093 E16.53003
G1 X142.06 Y114.167 E16.6169
G1 X144.592 Y114.167 E16.70112
G1 X147.176 Y114.094 E16.7871
G1 X147.379 Y114.084 E16.79386
G1 X147.56 Y114.077 E16.79988
G1 X148.239 Y114.056 E16.82248
G1 X148.55 Y114.051 E16.83282
G1 X151.043 Y114.05 E16.91574
G1 X151.191 Y114.051 E16.92066
G1 X151.901 Y114.061 E16.94428
G1 X152.19 Y114.069 E16.95389
G1 X152.76 Y114.093 E16.97287
G1 X155.367 Y114.167 E17.05961
G1 X157.899 Y114.167 E17.14383
G1 X160.457 Y114.095 E17.22894
G1 X160.703 Y114.082 E17.23713
G1 X160.941 Y114.073 E17.24506
G1 X161.588 Y114.055 E17.26658
G1 X161.869 Y114.051 E17.27593
G1 X165.838 Y114.05 E17.40794
G1 X165.987 Y114.051 E17.4129
G1 X166.685 Y114.061 E17.43611
G1 X167.587 Y114.114 E17.46617
G1 X168.48 Y114.246 E17.49619
G1 X169.358 Y114.457 E17.52622
G1 X170.214 Y114.745 E17.55626
G1 X171.041 Y115.107 E17.58629
G1 X171.833 Y115.542 E17.61634
G1 X172.584 Y116.044 E17.64639
G1 X173.287 Y116.611 E17.67643
G1 X173.937 Y117.238 E17.70647
G1 X174.529 Y117.92 E17.7365
G1 X175.059 Y118.651 E17.76653
G1 X175.521 Y119.427 E17.79657
G1 X175.914 Y120.24 E17.82661
G1 X176.232 Y121.085 E17.85663
G1 X176.475 Y121.955 E17.88668
G1 X176.64 Y122.843 E17.91672
G1 X176.735 Y123.968 E17.95427
G1 X176.744 Y124.282 E17.96472
G1 X176.748 Y124.574 E17.97443
G1 X176.748 Y136.008 E18.35473
G1 X176.747 Y175.015 E19.65211
G1 X176.746 Y175.156 E19.65679
G1 X176.736 Y175.881 E19.68091
G1 X176.684 Y176.782 E19.71093
G1 X176.552 Y177.676 E19.74099
G1 X176.341 Y178.554 E19.77102
G1 X176.054 Y179.41 E19.80105
G1 X175.692 Y180.237 E19.83107
G1 X175.258 Y181.03 E19.86114
G1 X174.756 Y181.78 E19.89116
G1 X174.19 Y182.484 E19.9212
G1 X173.563 Y183.134 E19.95124
G1 X172.882 Y183.727 E19.98127
G1 X172.15 Y184.257 E20.01133
G1 X171.375 Y184.72 E20.04136
G1 X170.562 Y185.112 E20.07138
G1 X169.717 Y185.432 E20.10143
G1 X168.847 Y185.675 E20.13147
G1 X167.959 Y185.84 E20.16151
G1 X166.853 Y185.935 E20.19844
G1 X166.53 Y185.945 E20.20918
G1 X166.214 Y185.95 E20.2197
G1 X162.254 Y185.95 E20.35141
G1 X162.109 Y185.949 E20.35623
G1 X161.404 Y185.939 E20.37968
G1 X161.119 Y185.931 E20.38916
G1 X160.522 Y185.906 E20.40904
G1 X157.915 Y185.833 E20.49578
G1 X155.423 Y185.833 E20.57866
G1 X153.534 Y185.9 E20.64153
G1 X153.424 Y185.903 E20.64519
G1 X151.681 Y185.946 E20.70318
G1 X151.433 Y185.949 E20.71143
G1 X148.957 Y185.95 E20.79378
G1 X148.81 Y185.949 E20.79867
G1 X148.097 Y185.939 E20.82239
G1 X147.807 Y185.931 E20.83204
G1 X147.237 Y185.907 E20.85101
G1 X144.63 Y185.833 E20.93776
G1 X142.097 Y185.833 E21.022
G1 X139.532 Y185.906 E21.10735
G1 X139.268 Y185.919 E21.11614
G1 X139.042 Y185.928 E21.12367
G1 X138.415 Y185.946 E21.14453
G1 X138.122 Y185.95 E21.15427
G1 X134.159 Y185.95 E21.28608
G1 X134.013 Y185.949 E21.29094
G1 X133.315 Y185.939 E21.31416
G1 X132.413 Y185.886 E21.34421
G1 X131.52 Y185.754 E21.37423
G1 X130.642 Y185.543 E21.40427
G1 X129.786 Y185.255 E21.43431
G1 X128.959 Y184.893 E21.46433
G1 X128.167 Y184.458 E21.49439
G1 X127.416 Y183.956 E21.52443
G1 X126.713 Y183.389 E21.55447
G1 X126.063 Y182.762 E21.58451
G1 X125.471 Y182.08 E21.61455
G1 X124.941 Y181.349 E21.64458
G1 X124.479 Y180.573 E21.67462
G1 X124.086 Y179.76 E21.70465
G1 X123.768 Y178.915 E21.73468
G1 X123.597 Y178.338 E21.75469
G1 X123.44 Y177.742 E21.77519
G1 X123.4 Y177.584 E21.78061
G1 X123.041 Y176.127 E21.83052
G1 X122.361 Y173.665 E21.91548
G1 X121.62 Y171.254 E21.99937
G1 X120.805 Y168.847 E22.08389
G1 X119.916 Y166.448 E22.16898
G1 X118.984 Y164.132 E22.25202
G1 X117.947 Y161.757 E22.33821
G1 X116.873 Y159.474 E22.42213
G1 X115.735 Y157.22 E22.50611
G1 X114.722 Y155.36 E22.57655
G1 X114.627 Y155.183 E22.58323
G1 X114.139 Y154.243 E22.61846
G1 X113.759 Y153.424 E22.64849
G1 X113.57 Y152.928 E22.66614
G1 X113.456 Y152.604 E22.67757
G1 X113.248 Y151.942 E22.70065
G1 X113.166 Y151.646 E22.71086
G1 X112.964 Y150.766 E22.74089
G1 X112.88 Y150.228 E22.759
G1 X112.828 Y149.825 E22.77252
G1 X112.752 Y148.925 E22.80256
G1 X112.745 Y148.374 E22.82089
G1 X112.751 Y147.956 E22.83479
G1 X112.804 Y147.054 E22.86484
