;FLAVOR:Marlin
;TIME:9432
;Filament used: 1.91185m
;Layer height: 0.1
;MINX:124.5
;MINY:106.001
;MINZ:0.2
;MAXX:175.5
;MAXY:194
;MAXZ:6
;Generated with Cura_SteamEngine 4.4.1
M140 S80
M105
M190 S80
M104 S235
M105
M109 S235
M82 ;absolute extrusion mode
M201 X500.00 Y500.00 Z100.00 E5000.00 ;Setup machine max acceleration
M203 X500.00 Y500.00 Z10.00 E50.00 ;Setup machine max feedrate
M204 P500.00 R1000.00 T500.00 ;Setup Print/Retract/Travel acceleration
M205 X8.00 Y8.00 Z0.40 E5.00 ;Setup Jerk
M220 S100 ;Reset Feedrate
M221 S100 ;Reset Flowrate

G28 ;Home

G92 E0 ;Reset Extruder
G1 Z2.0 F3000 ;Move Z Axis up
G1 X10.1 Y20 Z0.28 F5000.0 ;Move to start position
G1 X10.1 Y200.0 Z0.28 F1500.0 E15 ;Draw the first line
G1 X10.4 Y200.0 Z0.28 F5000.0 ;Move to side a little
G1 X10.4 Y20 Z0.28 F1500.0 E30 ;Draw the second line
G92 E0 ;Reset Extruder
G1 Z2.0 F3000 ;Move Z Axis up

G92 E0
G92 E0
G1 F1500 E-6.5
;LAYER_COUNT:59
;LAYER:0
M107
G0 F6000 X127.187 Y110.451 Z0.2
;TYPE:SKIRT
G1 F1500 E0
G1 F1200 X127.817 Y109.743 E0.03152
G1 X127.989 Y109.566 E0.03973
G1 X128.671 Y108.922 E0.07093
G1 X129.405 Y108.338 E0.10213
G1 X130.224 Y107.796 E0.13479
G1 X130.466 Y107.651 E0.14417
G1 X131.291 Y107.204 E0.17538
G1 X132.15 Y106.828 E0.20657
G1 X132.811 Y106.597 E0.22986
G1 X132.979 Y106.544 E0.23572
G1 X133.884 Y106.3 E0.26689
G1 X134.807 Y106.134 E0.29808
G1 X135.479 Y106.064 E0.32056
G1 X135.845 Y106.037 E0.33276
G1 X136.516 Y106.008 E0.3551
G1 X136.993 Y106.002 E0.37097
G1 X137.133 Y106.001 E0.37562
G1 X162.911 Y106.005 E1.233
G1 X163.069 Y106.006 E1.23826
G1 X163.756 Y106.016 E1.26111
G1 X164.692 Y106.07 E1.29229
G1 X165.621 Y106.203 E1.32351
G1 X166.162 Y106.318 E1.3419
G1 X166.433 Y106.383 E1.35117
G1 X167.334 Y106.641 E1.38234
G1 X168.211 Y106.974 E1.41355
G1 X169.189 Y107.453 E1.44977
G1 X169.397 Y107.568 E1.45767
G1 X170.198 Y108.057 E1.48888
G1 X170.954 Y108.612 E1.52008
G1 X171.618 Y109.189 E1.54934
G1 X171.808 Y109.368 E1.55802
G1 X172.463 Y110.039 E1.58921
G1 X173.058 Y110.764 E1.6204
G1 X173.691 Y111.703 E1.65807
G1 X173.839 Y111.949 E1.66761
G1 X174.287 Y112.773 E1.69881
G1 X174.664 Y113.632 E1.73001
G1 X175.052 Y114.825 E1.77174
G1 X175.119 Y115.08 E1.7805
G1 X175.318 Y115.996 E1.81168
G1 X175.439 Y116.926 E1.84287
G1 X175.478 Y117.664 E1.86745
G1 X175.498 Y118.708 E1.90218
G1 X175.5 Y118.924 E1.90937
G1 X175.495 Y129.445 E2.2593
G1 X175.494 Y129.588 E2.26405
G1 X175.485 Y130.256 E2.28627
G1 X175.476 Y130.582 E2.29712
G1 X175.466 Y130.814 E2.30484
G1 X175.458 Y130.971 E2.31007
G1 X175.332 Y133.163 E2.3831
G1 X175.26 Y135.648 E2.46579
G1 X175.258 Y138.173 E2.54977
G1 X175.327 Y140.666 E2.63272
G1 X175.386 Y141.638 E2.66511
G1 X175.394 Y141.787 E2.67007
G1 X175.471 Y143.416 E2.72431
G1 X175.481 Y143.745 E2.73526
G1 X175.498 Y144.73 E2.76802
G1 X175.5 Y144.925 E2.77451
G1 X175.495 Y155.445 E3.12441
G1 X175.494 Y155.588 E3.12916
G1 X175.485 Y156.256 E3.15138
G1 X175.476 Y156.582 E3.16223
G1 X175.466 Y156.814 E3.16995
G1 X175.458 Y156.971 E3.17518
G1 X175.332 Y159.163 E3.24821
G1 X175.26 Y161.648 E3.33089
G1 X175.258 Y164.173 E3.41488
G1 X175.327 Y166.667 E3.49786
G1 X175.386 Y167.639 E3.53025
G1 X175.394 Y167.787 E3.53518
G1 X175.471 Y169.416 E3.58942
G1 X175.481 Y169.745 E3.60037
G1 X175.498 Y170.73 E3.63313
G1 X175.5 Y170.925 E3.63962
G1 X175.495 Y181.438 E3.98928
G1 X175.494 Y181.58 E3.994
G1 X175.485 Y182.252 E4.01636
G1 X175.432 Y183.189 E4.04757
G1 X175.3 Y184.117 E4.07875
G1 X175.15 Y184.802 E4.10207
G1 X175.084 Y185.063 E4.11103
G1 X174.816 Y185.961 E4.14219
G1 X174.472 Y186.834 E4.1734
G1 X174.045 Y187.692 E4.20528
G1 X173.931 Y187.898 E4.21311
G1 X173.442 Y188.699 E4.24432
G1 X172.887 Y189.455 E4.27552
G1 X172.326 Y190.101 E4.30397
G1 X172.142 Y190.297 E4.31292
G1 X171.471 Y190.953 E4.34413
G1 X170.747 Y191.549 E4.37532
G1 X169.776 Y192.204 E4.41427
G1 X169.534 Y192.349 E4.42366
G1 X168.709 Y192.796 E4.45486
G1 X167.85 Y193.172 E4.48605
G1 X166.655 Y193.557 E4.52781
G1 X166.398 Y193.624 E4.53664
G1 X165.481 Y193.822 E4.56785
G1 X164.551 Y193.941 E4.59903
G1 X163.833 Y193.978 E4.62294
G1 X162.785 Y193.998 E4.65781
G1 X162.573 Y194 E4.66486
G1 X137.071 Y193.995 E5.51306
G1 X136.923 Y193.994 E5.51798
G1 X136.263 Y193.985 E5.53993
G1 X135.327 Y193.932 E5.57111
G1 X134.398 Y193.8 E5.60232
G1 X133.844 Y193.682 E5.62116
G1 X133.565 Y193.615 E5.63071
G1 X132.664 Y193.357 E5.66188
G1 X131.787 Y193.024 E5.69308
G1 X130.803 Y192.541 E5.72954
G1 X130.59 Y192.423 E5.73764
G1 X129.79 Y191.934 E5.76882
G1 X129.034 Y191.379 E5.80001
G1 X128.355 Y190.785 E5.83002
G1 X128.164 Y190.604 E5.83877
G1 X127.511 Y189.931 E5.86996
G1 X126.918 Y189.204 E5.90117
G1 X126.273 Y188.239 E5.93977
G1 X126.131 Y188 E5.94902
G1 X125.687 Y187.174 E5.98021
G1 X125.315 Y186.313 E6.0114
G1 X124.951 Y185.184 E6.05086
G1 X124.883 Y184.926 E6.05973
G1 X124.683 Y184.01 E6.09092
G1 X124.562 Y183.08 E6.12211
G1 X124.522 Y182.326 E6.14722
G1 X124.502 Y181.24 E6.18335
G1 X124.5 Y181.032 E6.19027
G1 X124.505 Y170.555 E6.53873
G1 X124.506 Y170.397 E6.54399
G1 X124.516 Y169.722 E6.56644
G1 X124.524 Y169.445 E6.57566
G1 X124.533 Y169.22 E6.58315
G1 X124.542 Y169.029 E6.58951
G1 X124.668 Y166.837 E6.66253
G1 X124.74 Y164.352 E6.74522
G1 X124.742 Y161.817 E6.82953
G1 X124.673 Y159.334 E6.91215
G1 X124.614 Y158.362 E6.94454
G1 X124.606 Y158.213 E6.9495
G1 X124.529 Y156.584 E7.00374
G1 X124.519 Y156.255 E7.01469
G1 X124.502 Y155.27 E7.04746
G1 X124.5 Y155.075 E7.05394
G1 X124.505 Y144.555 E7.40384
G1 X124.506 Y144.397 E7.4091
G1 X124.516 Y143.722 E7.43155
G1 X124.524 Y143.445 E7.44077
G1 X124.533 Y143.22 E7.44825
G1 X124.542 Y143.029 E7.45461
G1 X124.668 Y140.837 E7.52764
G1 X124.74 Y138.352 E7.61033
G1 X124.742 Y135.817 E7.69464
G1 X124.673 Y133.333 E7.77729
G1 X124.614 Y132.361 E7.80968
G1 X124.606 Y132.213 E7.81461
G1 X124.529 Y130.584 E7.86885
G1 X124.519 Y130.255 E7.8798
G1 X124.502 Y129.27 E7.91256
G1 X124.5 Y129.075 E7.91905
G1 X124.505 Y118.502 E8.27071
G1 X124.506 Y118.345 E8.27593
G1 X124.515 Y117.734 E8.29626
G1 X124.569 Y116.798 E8.32744
G1 X124.702 Y115.869 E8.35865
G1 X124.842 Y115.228 E8.38048
G1 X124.908 Y114.964 E8.38953
G1 X125.174 Y114.065 E8.42071
G1 X125.516 Y113.191 E8.45192
G1 X126.003 Y112.221 E8.48802
G1 X126.129 Y111.998 E8.49654
G1 X126.625 Y111.202 E8.52774
G1 X127.187 Y110.451 E8.55894
G0 F6000 X127.518 Y110.678
G1 F1200 X128.104 Y110.022 E8.58819
G1 X128.276 Y109.845 E8.5964
G1 X128.946 Y109.213 E8.62704
G1 X129.668 Y108.642 E8.65765
G1 X130.43 Y108.139 E8.68802
G1 X130.672 Y107.994 E8.6974
G1 X131.481 Y107.556 E8.728
G1 X132.326 Y107.189 E8.75864
G1 X132.931 Y106.978 E8.77995
G1 X133.099 Y106.925 E8.78581
G1 X133.988 Y106.687 E8.81642
G1 X134.895 Y106.526 E8.84706
G1 X135.508 Y106.463 E8.86756
G1 X135.874 Y106.436 E8.87976
G1 X136.521 Y106.408 E8.9013
G1 X136.998 Y106.402 E8.91717
G1 X137.133 Y106.401 E8.92166
G1 X162.911 Y106.405 E9.77904
G1 X163.063 Y106.406 E9.78409
G1 X163.75 Y106.416 E9.80695
G1 X164.669 Y106.469 E9.83756
G1 X165.58 Y106.602 E9.86818
G1 X166.068 Y106.707 E9.88479
G1 X166.339 Y106.772 E9.89406
G1 X167.224 Y107.026 E9.92468
G1 X168.084 Y107.355 E9.9553
G1 X168.996 Y107.803 E9.9891
G1 X169.204 Y107.918 E9.997
G1 X169.989 Y108.398 E10.02761
G1 X170.73 Y108.945 E10.05824
G1 X171.344 Y109.48 E10.08533
G1 X171.534 Y109.659 E10.09401
G1 X172.176 Y110.318 E10.12461
G1 X172.758 Y111.032 E10.15525
G1 X173.348 Y111.909 E10.1904
G1 X173.496 Y112.155 E10.19995
G1 X173.936 Y112.964 E10.23058
G1 X174.304 Y113.808 E10.26121
G1 X174.665 Y114.926 E10.30028
G1 X174.732 Y115.181 E10.30905
G1 X174.927 Y116.081 E10.33968
G1 X175.043 Y116.994 E10.37029
G1 X175.078 Y117.672 E10.39287
G1 X175.098 Y118.716 E10.4276
G1 X175.1 Y118.924 E10.43452
G1 X175.095 Y129.445 E10.78445
G1 X175.094 Y129.583 E10.78904
G1 X175.085 Y130.251 E10.81126
G1 X175.076 Y130.564 E10.82167
G1 X175.066 Y130.796 E10.8294
G1 X175.059 Y130.948 E10.83446
G1 X174.934 Y133.129 E10.90712
G1 X174.86 Y135.666 E10.99153
G1 X174.858 Y138.184 E11.07528
G1 X174.928 Y140.702 E11.15906
G1 X174.986 Y141.663 E11.19108
G1 X174.994 Y141.806 E11.19585
G1 X175.071 Y143.435 E11.25009
G1 X175.081 Y143.752 E11.26064
G1 X175.098 Y144.737 E11.2934
G1 X175.1 Y144.925 E11.29966
G1 X175.095 Y155.445 E11.64955
G1 X175.094 Y155.583 E11.65414
G1 X175.085 Y156.251 E11.67636
G1 X175.076 Y156.564 E11.68678
G1 X175.066 Y156.796 E11.6945
G1 X175.059 Y156.948 E11.69956
G1 X174.934 Y159.129 E11.77222
G1 X174.86 Y161.666 E11.85664
G1 X174.858 Y164.184 E11.94039
G1 X174.928 Y166.701 E12.02414
G1 X174.986 Y167.663 E12.05619
G1 X174.994 Y167.806 E12.06095
G1 X175.071 Y169.435 E12.1152
G1 X175.081 Y169.752 E12.12574
G1 X175.098 Y170.737 E12.15851
G1 X175.1 Y170.925 E12.16476
G1 X175.095 Y181.438 E12.51443
G1 X175.094 Y181.575 E12.51898
G1 X175.085 Y182.247 E12.54134
G1 X175.033 Y183.166 E12.57195
G1 X174.901 Y184.077 E12.60257
G1 X174.763 Y184.704 E12.62392
G1 X174.697 Y184.965 E12.63288
G1 X174.432 Y185.847 E12.66351
G1 X174.092 Y186.702 E12.69411
G1 X173.695 Y187.499 E12.72373
G1 X173.581 Y187.705 E12.73156
G1 X173.1 Y188.49 E12.76218
G1 X172.554 Y189.231 E12.79279
G1 X172.034 Y189.827 E12.8191
G1 X171.85 Y190.023 E12.82804
G1 X171.191 Y190.666 E12.85866
G1 X170.479 Y191.25 E12.88929
G1 X169.57 Y191.861 E12.92572
G1 X169.328 Y192.006 E12.9351
G1 X168.519 Y192.444 E12.9657
G1 X167.674 Y192.811 E12.99634
G1 X166.554 Y193.17 E13.03546
G1 X166.297 Y193.237 E13.04429
G1 X165.397 Y193.431 E13.07492
G1 X164.483 Y193.545 E13.10555
G1 X163.825 Y193.578 E13.12746
G1 X162.777 Y193.598 E13.16233
G1 X162.573 Y193.6 E13.16911
G1 X137.071 Y193.595 E14.01731
G1 X136.928 Y193.594 E14.02207
G1 X136.268 Y193.585 E14.04402
G1 X135.349 Y193.532 E14.07464
G1 X134.438 Y193.4 E14.10526
G1 X133.938 Y193.293 E14.12226
G1 X133.659 Y193.226 E14.13181
G1 X132.774 Y192.972 E14.16243
G1 X131.914 Y192.643 E14.19305
G1 X130.997 Y192.191 E14.22706
G1 X130.784 Y192.073 E14.23516
G1 X129.999 Y191.593 E14.26576
G1 X129.259 Y191.046 E14.29637
G1 X128.63 Y190.495 E14.32418
G1 X128.439 Y190.314 E14.33293
G1 X127.799 Y189.652 E14.36356
G1 X127.218 Y188.938 E14.39417
G1 X126.617 Y188.034 E14.43028
G1 X126.475 Y187.795 E14.43952
G1 X126.04 Y186.984 E14.47013
G1 X125.676 Y186.138 E14.50077
G1 X125.338 Y185.083 E14.53761
G1 X125.27 Y184.825 E14.54649
G1 X125.074 Y183.925 E14.57712
G1 X124.957 Y183.012 E14.60774
G1 X124.922 Y182.318 E14.63085
G1 X124.902 Y181.232 E14.66698
G1 X124.9 Y181.032 E14.67363
G1 X124.905 Y170.555 E15.02209
G1 X124.906 Y170.403 E15.02715
G1 X124.916 Y169.728 E15.0496
G1 X124.923 Y169.461 E15.05849
G1 X124.932 Y169.236 E15.06598
G1 X124.941 Y169.052 E15.0721
G1 X125.067 Y166.862 E15.14506
G1 X125.14 Y164.327 E15.22941
G1 X125.142 Y161.805 E15.3133
G1 X125.072 Y159.298 E15.39671
G1 X125.014 Y158.337 E15.42873
G1 X125.006 Y158.194 E15.4335
G1 X124.929 Y156.565 E15.48774
G1 X124.919 Y156.248 E15.49829
G1 X124.902 Y155.263 E15.53105
G1 X124.9 Y155.075 E15.5373
G1 X124.905 Y144.555 E15.8872
G1 X124.906 Y144.403 E15.89226
G1 X124.916 Y143.728 E15.91471
G1 X124.923 Y143.461 E15.92359
G1 X124.932 Y143.236 E15.93108
G1 X124.941 Y143.052 E15.93721
G1 X125.067 Y140.863 E16.01014
G1 X125.14 Y138.327 E16.09452
G1 X125.142 Y135.805 E16.1784
G1 X125.072 Y133.299 E16.26178
G1 X125.014 Y132.337 E16.29384
G1 X125.006 Y132.194 E16.2986
G1 X124.929 Y130.565 E16.35284
G1 X124.919 Y130.248 E16.36339
G1 X124.902 Y129.263 E16.39616
G1 X124.9 Y129.075 E16.40241
G1 X124.905 Y118.502 E16.75407
G1 X124.906 Y118.351 E16.75909
G1 X124.915 Y117.74 E16.77942
G1 X124.969 Y116.821 E16.81004
G1 X125.102 Y115.91 E16.84066
G1 X125.23 Y115.325 E16.86058
G1 X125.296 Y115.061 E16.86963
G1 X125.558 Y114.178 E16.90026
G1 X125.896 Y113.322 E16.93087
G1 X126.351 Y112.418 E16.96453
G1 X126.477 Y112.195 E16.97305
G1 X126.965 Y111.413 E17.00371
G1 X127.518 Y110.678 E17.0343
G0 F6000 X127.849 Y110.905
G1 F1200 X128.391 Y110.301 E17.06129
G1 X128.563 Y110.124 E17.0695
G1 X129.22 Y109.504 E17.09955
G1 X129.93 Y108.946 E17.12958
G1 X130.635 Y108.482 E17.15765
G1 X130.877 Y108.337 E17.16704
G1 X131.672 Y107.908 E17.19708
G1 X132.501 Y107.55 E17.22712
G1 X133.051 Y107.36 E17.24647
G1 X133.219 Y107.307 E17.25233
G1 X134.092 Y107.073 E17.28239
G1 X134.981 Y106.918 E17.3124
G1 X135.538 Y106.862 E17.33102
G1 X135.904 Y106.835 E17.34323
G1 X136.526 Y106.808 E17.36394
G1 X137.003 Y106.802 E17.3798
G1 X137.133 Y106.801 E17.38413
G1 X162.911 Y106.805 E18.24151
G1 X163.057 Y106.806 E18.24636
G1 X163.744 Y106.816 E18.26922
G1 X164.646 Y106.869 E18.29927
G1 X165.975 Y107.096 E18.34411
G1 X166.246 Y107.161 E18.35338
G1 X167.114 Y107.411 E18.38342
G1 X167.957 Y107.736 E18.41347
G1 X168.802 Y108.153 E18.44481
G1 X169.01 Y108.268 E18.45272
G1 X169.781 Y108.74 E18.48279
G1 X170.506 Y109.278 E18.51281
G1 X171.069 Y109.771 E18.5377
G1 X171.259 Y109.95 E18.54639
G1 X171.889 Y110.598 E18.57645
G1 X172.458 Y111.298 E18.60645
G1 X173.005 Y112.116 E18.63918
G1 X173.153 Y112.362 E18.64873
G1 X173.584 Y113.155 E18.67875
G1 X173.943 Y113.984 E18.70879
G1 X174.278 Y115.028 E18.74526
G1 X174.345 Y115.283 E18.75403
G1 X174.536 Y116.166 E18.78408
G1 X174.648 Y117.062 E18.81411
G1 X174.678 Y117.68 E18.83469
G1 X174.698 Y118.724 E18.86942
G1 X174.7 Y118.924 E18.87607
G1 X174.695 Y129.445 E19.226
G1 X174.694 Y129.577 E19.23039
G1 X174.685 Y130.245 E19.25261
G1 X174.677 Y130.547 E19.26266
G1 X174.667 Y130.779 E19.27038
G1 X174.659 Y130.925 E19.27525
G1 X174.534 Y133.094 E19.34751
G1 X174.46 Y135.66 E19.43289
G1 X174.458 Y138.195 E19.5172
G1 X174.527 Y140.707 E19.60079
G1 X174.587 Y141.687 E19.63344
G1 X174.595 Y141.824 E19.63801
G1 X174.672 Y143.453 E19.69225
G1 X174.681 Y143.759 E19.70243
G1 X174.698 Y144.744 E19.73519
G1 X174.7 Y144.925 E19.74122
G1 X174.695 Y155.445 E20.09111
G1 X174.694 Y155.577 E20.0955
G1 X174.685 Y156.245 E20.11772
G1 X174.677 Y156.547 E20.12777
G1 X174.667 Y156.779 E20.13549
G1 X174.659 Y156.925 E20.14036
G1 X174.534 Y159.094 E20.21262
G1 X174.46 Y161.66 E20.298
G1 X174.458 Y164.195 E20.38231
G1 X174.527 Y166.706 E20.46586
G1 X174.587 Y167.687 E20.49855
G1 X174.595 Y167.824 E20.50311
G1 X174.672 Y169.453 E20.55736
G1 X174.681 Y169.759 E20.56754
G1 X174.698 Y170.744 E20.6003
G1 X174.7 Y170.925 E20.60632
G1 X174.695 Y181.438 E20.95599
G1 X174.694 Y181.57 E20.96038
G1 X174.685 Y182.242 E20.98273
G1 X174.633 Y183.143 E21.01275
G1 X174.501 Y184.037 E21.04281
G1 X174.375 Y184.606 E21.06219
G1 X174.309 Y184.867 E21.07114
G1 X174.049 Y185.731 E21.10115
G1 X173.713 Y186.57 E21.13121
G1 X173.345 Y187.305 E21.15855
G1 X173.231 Y187.511 E21.16638
G1 X172.759 Y188.281 E21.19642
G1 X172.221 Y189.006 E21.22645
G1 X171.743 Y189.553 E21.25061
G1 X171.559 Y189.749 E21.25955
G1 X170.912 Y190.38 E21.28961
G1 X170.212 Y190.95 E21.31964
G1 X169.365 Y191.518 E21.35355
G1 X169.123 Y191.663 E21.36294
G1 X168.328 Y192.092 E21.39298
G1 X167.499 Y192.45 E21.42302
G1 X166.453 Y192.783 E21.45953
G1 X166.196 Y192.85 E21.46836
G1 X165.313 Y193.039 E21.4984
G1 X164.417 Y193.149 E21.52842
G1 X163.818 Y193.178 E21.54837
G1 X162.77 Y193.198 E21.58323
G1 X162.573 Y193.2 E21.58978
G1 X137.071 Y193.195 E22.43798
G1 X136.934 Y193.194 E22.44254
G1 X136.274 Y193.185 E22.46449
G1 X135.372 Y193.133 E22.49454
G1 X134.479 Y193.001 E22.52457
G1 X134.031 Y192.904 E22.53981
G1 X133.752 Y192.837 E22.54936
G1 X132.884 Y192.587 E22.5794
G1 X132.042 Y192.262 E22.60942
G1 X131.191 Y191.841 E22.641
G1 X130.978 Y191.723 E22.6491
G1 X130.208 Y191.251 E22.67914
G1 X129.483 Y190.713 E22.70916
G1 X128.905 Y190.205 E22.73476
G1 X128.714 Y190.024 E22.74351
G1 X128.087 Y189.374 E22.77355
G1 X127.519 Y188.672 E22.80358
G1 X126.961 Y187.83 E22.83718
G1 X126.819 Y187.591 E22.84642
G1 X126.393 Y186.795 E22.87645
G1 X126.038 Y185.964 E22.90651
G1 X125.725 Y184.981 E22.94082
G1 X125.657 Y184.723 E22.94969
G1 X125.466 Y183.84 E22.97974
G1 X125.353 Y182.944 E23.00978
G1 X125.322 Y182.311 E23.03086
G1 X125.302 Y181.225 E23.06698
G1 X125.3 Y181.032 E23.0734
G1 X125.305 Y170.555 E23.42187
G1 X125.306 Y170.409 E23.42673
G1 X125.316 Y169.734 E23.44918
G1 X125.323 Y169.477 E23.45773
G1 X125.332 Y169.252 E23.46522
G1 X125.341 Y169.075 E23.47111
