;FLAVOR:Marlin
;TIME:6267
;Filament used: 1.91173m
;Layer height: 0.16
;MINX:129.352
;MINY:96.125
;MINZ:0.2
;MAXX:170.65
;MAXY:203.875
;MAXZ:17.64
;Generated with Cura_SteamEngine 4.4.1
M140 S80
M105
M190 S80
M104 S235
M105
M109 S235
M82 ;absolute extrusion mode
M201 X500.00 Y500.00 Z100.00 E5000.00 ;Setup machine max acceleration
M203 X500.00 Y500.00 Z10.00 E50.00 ;Setup machine max feedrate
M204 P500.00 R1000.00 T500.00 ;Setup Print/Retract/Travel acceleration
M205 X8.00 Y8.00 Z0.40 E5.00 ;Setup Jerk
M220 S100 ;Reset Feedrate
M221 S100 ;Reset Flowrate

G28 ;Home

G92 E0 ;Reset Extruder
G1 Z2.0 F3000 ;Move Z Axis up
G1 X10.1 Y20 Z0.28 F5000.0 ;Move to start position
G1 X10.1 Y200.0 Z0.28 F1500.0 E15 ;Draw the first line
G1 X10.4 Y200.0 Z0.28 F5000.0 ;Move to side a little
G1 X10.4 Y20 Z0.28 F1500.0 E30 ;Draw the second line
G92 E0 ;Reset Extruder
G1 Z2.0 F3000 ;Move Z Axis up

G92 E0
G92 E0
G1 F1500 E-6.5
;LAYER_COUNT:110
;LAYER:0
M107
G0 F6000 X131.893 Y100.113 Z0.2
;TYPE:SKIRT
G1 F1500 E0
G1 F1200 X132.522 Y99.417 E0.0312
G1 X133.208 Y98.777 E0.06241
G1 X133.946 Y98.199 E0.09358
G1 X134.73 Y97.685 E0.12476
G1 X135.556 Y97.24 E0.15597
G1 X136.416 Y96.866 E0.18716
G1 X137.305 Y96.568 E0.21835
G1 X138.217 Y96.346 E0.24957
G1 X139.143 Y96.202 E0.28074
G1 X140.134 Y96.137 E0.31377
G1 X140.621 Y96.127 E0.32997
G1 X140.847 Y96.125 E0.33749
G1 X158.943 Y96.125 E0.93936
G1 X159.101 Y96.126 E0.94462
G1 X159.799 Y96.136 E0.96783
G1 X160.735 Y96.19 E0.99902
G1 X161.663 Y96.322 E1.03019
G1 X162.577 Y96.534 E1.0614
G1 X163.469 Y96.823 E1.09259
G1 X164.334 Y97.186 E1.12379
G1 X165.164 Y97.622 E1.15497
G1 X165.955 Y98.127 E1.18618
G1 X166.699 Y98.698 E1.21738
G1 X167.392 Y99.33 E1.24857
G1 X168.029 Y100.018 E1.27976
G1 X168.604 Y100.759 E1.31095
G1 X169.115 Y101.545 E1.34213
G1 X169.557 Y102.373 E1.37335
G1 X169.926 Y103.235 E1.40454
G1 X170.221 Y104.125 E1.43572
G1 X170.439 Y105.037 E1.46691
G1 X170.579 Y105.965 E1.49813
G1 X170.637 Y106.826 E1.52683
G1 X170.646 Y107.146 E1.53748
G1 X170.65 Y107.455 E1.54775
G1 X170.65 Y192.139 E4.36435
G1 X170.649 Y192.275 E4.36888
G1 X170.64 Y193.002 E4.39306
G1 X170.589 Y193.939 E4.42427
G1 X170.457 Y194.867 E4.45545
G1 X170.248 Y195.781 E4.48663
G1 X169.961 Y196.674 E4.51783
G1 X169.599 Y197.54 E4.54905
G1 X169.165 Y198.371 E4.58023
G1 X168.661 Y199.162 E4.61142
G1 X168.092 Y199.907 E4.6426
G1 X167.461 Y200.602 E4.67383
G1 X166.774 Y201.24 E4.70501
G1 X166.035 Y201.817 E4.73619
G1 X165.249 Y202.329 E4.76739
G1 X164.423 Y202.772 E4.79857
G1 X163.561 Y203.144 E4.82979
G1 X162.672 Y203.44 E4.86096
G1 X161.76 Y203.66 E4.89216
G1 X160.833 Y203.801 E4.92335
G1 X159.949 Y203.862 E4.95282
G1 X159.628 Y203.871 E4.9635
G1 X159.32 Y203.875 E4.97374
G1 X142.057 Y203.875 E5.54791
G1 X141.915 Y203.874 E5.55264
G1 X141.217 Y203.865 E5.57586
G1 X140.281 Y203.813 E5.60703
G1 X139.352 Y203.681 E5.63824
G1 X138.438 Y203.471 E5.66944
G1 X137.545 Y203.184 E5.70063
G1 X136.68 Y202.821 E5.73183
G1 X135.849 Y202.387 E5.76302
G1 X135.058 Y201.883 E5.79421
G1 X134.313 Y201.313 E5.82541
G1 X133.619 Y200.682 E5.85661
G1 X132.982 Y199.995 E5.88777
G1 X132.405 Y199.255 E5.91898
G1 X131.893 Y198.469 E5.95018
G1 X131.45 Y197.642 E5.98138
G1 X131.079 Y196.781 E6.01256
G1 X130.783 Y195.891 E6.04376
G1 X130.564 Y194.979 E6.07496
G1 X130.423 Y194.052 E6.10614
G1 X130.363 Y193.163 E6.13578
G1 X130.354 Y192.83 E6.14686
G1 X130.35 Y192.533 E6.15674
G1 X130.35 Y168.832 E6.94503
G1 X130.351 Y168.674 E6.95029
G1 X130.361 Y167.977 E6.97347
G1 X130.415 Y167.041 E7.00466
G1 X130.548 Y166.112 E7.03587
G1 X130.673 Y165.53 E7.05567
G1 X130.901 Y164.596 E7.08765
G1 X131.482 Y162.073 E7.17376
G1 X131.988 Y159.559 E7.25905
G1 X132.405 Y157.116 E7.34148
G1 X132.763 Y154.603 E7.42591
G1 X133.045 Y152.131 E7.50866
G1 X133.262 Y149.596 E7.59328
G1 X133.403 Y147.093 E7.67667
G1 X133.475 Y144.598 E7.75968
G1 X133.475 Y142.074 E7.84363
G1 X133.404 Y139.55 E7.92761
G1 X133.262 Y137.028 E8.01163
G1 X133.05 Y134.523 E8.09524
G1 X132.767 Y132.028 E8.17876
G1 X132.409 Y129.51 E8.26335
G1 X131.992 Y127.073 E8.34558
G1 X131.493 Y124.585 E8.42998
G1 X130.929 Y122.128 E8.51383
G1 X130.296 Y119.695 E8.59744
G1 X129.786 Y117.908 E8.65925
G1 X129.568 Y116.996 E8.69044
G1 X129.427 Y116.069 E8.72163
G1 X129.377 Y115.42 E8.74328
G1 X129.367 Y115.213 E8.75017
G1 X129.354 Y114.751 E8.76554
G1 X129.352 Y114.432 E8.77615
G1 X129.352 Y114.305 E8.78038
G1 X129.361 Y112.606 E8.83689
G1 X129.355 Y110.57 E8.90461
G1 X129.355 Y110.482 E8.90753
G1 X129.361 Y109.383 E8.94409
G1 X129.353 Y107.885 E8.99391
G1 X129.354 Y107.717 E8.9995
G1 X129.361 Y107.024 E9.02255
G1 X129.41 Y106.087 E9.05376
G1 X129.539 Y105.158 E9.08495
G1 X129.747 Y104.244 E9.11613
G1 X130.032 Y103.35 E9.14734
G1 X130.392 Y102.484 E9.17853
G1 X130.824 Y101.652 E9.20971
G1 X131.326 Y100.86 E9.2409
G1 X131.893 Y100.113 E9.27209
G0 F6000 X132.288 Y100.265
G1 F1200 X132.915 Y99.59 E9.30273
G1 X133.597 Y98.973 E9.33332
G1 X134.331 Y98.416 E9.36397
G1 X135.11 Y97.926 E9.39458
G1 X135.929 Y97.505 E9.4252
G1 X136.782 Y97.157 E9.45585
G1 X137.661 Y96.884 E9.48646
G1 X138.56 Y96.689 E9.51705
G1 X139.474 Y96.572 E9.5477
G1 X140.142 Y96.537 E9.56995
G1 X140.629 Y96.527 E9.58615
G1 X140.847 Y96.525 E9.5934
G1 X158.943 Y96.525 E10.19528
G1 X159.095 Y96.526 E10.20033
G1 X159.793 Y96.536 E10.22355
G1 X160.712 Y96.589 E10.25417
G1 X161.623 Y96.722 E10.28479
G1 X162.519 Y96.933 E10.31541
G1 X163.393 Y97.221 E10.34601
G1 X164.24 Y97.584 E10.37666
G1 X165.051 Y98.019 E10.40727
G1 X165.821 Y98.523 E10.43788
G1 X166.545 Y99.092 E10.46851
G1 X167.217 Y99.722 E10.49914
G1 X167.832 Y100.407 E10.52976
G1 X168.385 Y101.143 E10.56038
G1 X168.872 Y101.924 E10.59099
G1 X169.289 Y102.745 E10.62162
G1 X169.634 Y103.599 E10.65226
G1 X169.903 Y104.479 E10.68286
G1 X170.095 Y105.38 E10.7135
G1 X170.208 Y106.293 E10.7441
G1 X170.237 Y106.837 E10.76222
G1 X170.246 Y107.157 E10.77287
G1 X170.25 Y107.455 E10.78278
G1 X170.25 Y192.139 E13.59938
G1 X170.249 Y192.27 E13.60374
G1 X170.24 Y192.997 E13.62792
G1 X170.189 Y193.916 E13.65853
G1 X170.058 Y194.828 E13.68918
G1 X169.848 Y195.724 E13.71979
G1 X169.562 Y196.599 E13.7504
G1 X169.201 Y197.446 E13.78103
G1 X168.767 Y198.258 E13.81165
G1 X168.265 Y199.03 E13.84228
G1 X167.697 Y199.755 E13.87291
G1 X167.069 Y200.428 E13.90353
G1 X166.385 Y201.044 E13.93414
G1 X165.65 Y201.598 E13.96475
G1 X164.87 Y202.087 E13.99537
G1 X164.05 Y202.506 E14.026
G1 X163.197 Y202.852 E14.05662
G1 X162.317 Y203.123 E14.08724
G1 X161.417 Y203.316 E14.11786
G1 X160.503 Y203.431 E14.1485
G1 X159.938 Y203.462 E14.16732
G1 X159.617 Y203.471 E14.178
G1 X159.32 Y203.475 E14.18788
G1 X142.057 Y203.475 E14.76205
G1 X141.92 Y203.474 E14.7666
G1 X141.222 Y203.465 E14.78982
G1 X140.303 Y203.413 E14.82044
G1 X139.392 Y203.282 E14.85105
G1 X138.496 Y203.072 E14.88166
G1 X137.621 Y202.785 E14.91229
G1 X136.774 Y202.423 E14.94292
G1 X135.962 Y201.989 E14.97354
G1 X135.191 Y201.487 E15.00414
G1 X134.466 Y200.919 E15.03478
G1 X133.793 Y200.29 E15.06542
G1 X133.178 Y199.606 E15.09601
G1 X132.624 Y198.871 E15.12662
G1 X132.136 Y198.09 E15.15725
G1 X131.717 Y197.27 E15.18788
G1 X131.371 Y196.417 E15.2185
G1 X131.101 Y195.537 E15.24911
G1 X130.908 Y194.636 E15.27976
G1 X130.794 Y193.723 E15.31036
G1 X130.763 Y193.152 E15.32938
G1 X130.754 Y192.819 E15.34046
G1 X130.75 Y192.533 E15.34997
G1 X130.75 Y168.832 E16.13827
G1 X130.751 Y168.68 E16.14333
G1 X130.761 Y167.983 E16.16651
G1 X130.814 Y167.064 E16.19713
G1 X130.947 Y166.153 E16.22775
G1 X131.062 Y165.625 E16.24572
G1 X131.287 Y164.702 E16.27732
G1 X131.878 Y162.136 E16.3649
G1 X132.375 Y159.667 E16.44867
G1 X132.802 Y157.169 E16.53296
G1 X133.158 Y154.673 E16.61681
G1 X133.446 Y152.138 E16.70167
G1 X133.659 Y149.653 E16.78463
G1 X133.802 Y147.126 E16.86881
G1 X133.875 Y144.574 E16.95372
G1 X133.875 Y142.063 E17.03724
G1 X133.804 Y139.515 E17.12202
G1 X133.663 Y137.008 E17.20553
G1 X133.448 Y134.48 E17.28992
G1 X133.167 Y131.998 E17.373
G1 X132.805 Y129.452 E17.45853
G1 X132.379 Y126.964 E17.54249
G1 X131.89 Y124.522 E17.62532
G1 X131.322 Y122.051 E17.70965
G1 X130.674 Y119.562 E17.79519
G1 X130.171 Y117.798 E17.8562
G1 X129.957 Y116.903 E17.88681
G1 X129.822 Y115.992 E17.91744
G1 X129.776 Y115.4 E17.93719
G1 X129.766 Y115.193 E17.94408
G1 X129.754 Y114.748 E17.95889
G1 X129.752 Y114.429 E17.9695
G1 X129.752 Y114.307 E17.97356
G1 X129.761 Y112.608 E18.03007
G1 X129.755 Y110.569 E18.09788
G1 X129.755 Y110.484 E18.10071
G1 X129.761 Y109.383 E18.13733
G1 X129.753 Y107.883 E18.18722
G1 X129.754 Y107.721 E18.19261
G1 X129.761 Y107.028 E18.21566
G1 X129.81 Y106.109 E18.24627
G1 X129.939 Y105.197 E18.2769
G1 X130.146 Y104.3 E18.30752
G1 X130.431 Y103.424 E18.33816
G1 X130.79 Y102.577 E18.36876
G1 X131.222 Y101.764 E18.39938
G1 X131.722 Y100.991 E18.43
G1 X132.288 Y100.265 E18.46062
G0 F6000 X132.683 Y100.42
G1 F1200 X133.307 Y99.767 E18.49066
G1 X133.986 Y99.172 E18.52069
G1 X134.715 Y98.639 E18.55072
G1 X135.489 Y98.173 E18.58077
G1 X136.301 Y97.778 E18.6108
G1 X137.144 Y97.455 E18.64083
G1 X138.013 Y97.209 E18.67087
G1 X138.9 Y97.04 E18.7009
G1 X140.151 Y96.937 E18.74265
G1 X140.638 Y96.927 E18.75885
G1 X140.847 Y96.925 E18.7658
G1 X158.943 Y96.925 E19.36768
G1 X159.089 Y96.926 E19.37254
G1 X159.787 Y96.936 E19.39575
G1 X160.689 Y96.989 E19.42581
G1 X161.582 Y97.121 E19.45583
G1 X162.46 Y97.332 E19.48586
G1 X163.316 Y97.62 E19.5159
G1 X164.143 Y97.982 E19.54593
G1 X164.935 Y98.417 E19.57598
G1 X165.686 Y98.919 E19.60603
G1 X166.389 Y99.486 E19.63607
G1 X167.039 Y100.113 E19.6661
G1 X167.631 Y100.795 E19.69614
G1 X168.161 Y101.526 E19.72617
G1 X168.623 Y102.302 E19.75621
G1 X169.016 Y103.115 E19.78624
G1 X169.334 Y103.96 E19.81627
G1 X169.577 Y104.83 E19.84632
G1 X169.742 Y105.718 E19.87636
G1 X169.837 Y106.848 E19.91407
G1 X169.846 Y107.168 E19.92472
G1 X169.85 Y107.455 E19.93427
G1 X169.85 Y192.139 E22.75087
G1 X169.849 Y192.265 E22.75506
G1 X169.84 Y192.992 E22.77924
G1 X169.789 Y193.894 E22.80929
G1 X169.658 Y194.788 E22.83934
G1 X169.449 Y195.666 E22.86936
G1 X169.163 Y196.523 E22.89941
G1 X168.802 Y197.351 E22.92945
G1 X168.37 Y198.143 E22.95946
G1 X167.869 Y198.895 E22.98951
G1 X167.303 Y199.599 E23.01956
G1 X166.678 Y200.25 E23.04957
G1 X165.997 Y200.844 E23.07963
G1 X165.266 Y201.375 E23.10968
G1 X164.492 Y201.839 E23.1397
G1 X163.679 Y202.233 E23.16974
G1 X162.835 Y202.553 E23.19977
G1 X161.965 Y202.798 E23.22983
G1 X161.078 Y202.964 E23.25984
G1 X159.927 Y203.062 E23.29826
G1 X159.606 Y203.071 E23.30894
G1 X159.32 Y203.075 E23.31846
G1 X142.057 Y203.075 E23.89263
G1 X141.925 Y203.074 E23.89702
G1 X141.227 Y203.065 E23.92023
G1 X140.326 Y203.014 E23.95025
G1 X139.432 Y202.882 E23.98031
G1 X138.554 Y202.673 E24.01032
G1 X137.697 Y202.386 E24.04038
G1 X136.87 Y202.025 E24.0704
G1 X136.077 Y201.592 E24.10045
G1 X135.326 Y201.091 E24.13047
G1 X134.622 Y200.525 E24.16052
G1 X133.971 Y199.899 E24.19056
G1 X133.378 Y199.218 E24.22059
G1 X132.848 Y198.487 E24.25062
G1 X132.384 Y197.712 E24.28067
G1 X131.99 Y196.899 E24.31071
G1 X131.67 Y196.055 E24.34074
G1 X131.426 Y195.185 E24.37079
G1 X131.26 Y194.297 E24.40084
G1 X131.163 Y193.142 E24.43939
G1 X131.154 Y192.809 E24.45047
G1 X131.15 Y192.533 E24.45965
G1 X131.15 Y168.832 E25.24794
G1 X131.151 Y168.686 E25.2528
G1 X131.161 Y167.989 E25.27599
G1 X131.214 Y167.087 E25.30604
G1 X131.346 Y166.194 E25.33606
G1 X131.45 Y165.719 E25.35223
G1 X131.676 Y164.791 E25.384
G1 X132.273 Y162.199 E25.47247
G1 X132.774 Y159.715 E25.55675
G1 X133.194 Y157.256 E25.63972
G1 X133.552 Y154.738 E25.72431
G1 X133.843 Y152.181 E25.80991
G1 X134.058 Y149.674 E25.8936
G1 X134.202 Y147.125 E25.97851
G1 X134.275 Y144.586 E26.063
G1 X134.275 Y142.052 E26.14728
G1 X134.204 Y139.518 E26.23159
G1 X134.062 Y136.988 E26.31587
G1 X133.845 Y134.434 E26.40112
G1 X133.561 Y131.933 E26.48484
G1 X133.201 Y129.4 E26.56994
G1 X132.772 Y126.89 E26.65463
G1 X132.285 Y124.46 E26.73706
G1 X131.702 Y121.925 E26.82358
G1 X131.056 Y119.438 E26.90904
G1 X130.556 Y117.688 E26.96957
G1 X130.347 Y116.81 E26.99959
G1 X130.216 Y115.916 E27.02964
G1 X130.176 Y115.381 E27.04749
G1 X130.166 Y115.174 E27.05438
G1 X130.154 Y114.746 E27.06862
G1 X130.152 Y114.427 E27.07923
G1 X130.152 Y114.309 E27.08316
G1 X130.161 Y112.61 E27.13967
G1 X130.155 Y110.568 E27.20758
G1 X130.155 Y110.486 E27.21031
G1 X130.161 Y109.382 E27.24703
G1 X130.153 Y107.88 E27.29699
G1 X130.154 Y107.725 E27.30214
G1 X130.161 Y107.032 E27.32519
G1 X130.21 Y106.13 E27.35524
G1 X130.338 Y105.236 E27.38528
G1 X130.546 Y104.357 E27.41532
G1 X130.83 Y103.5 E27.44535
G1 X131.189 Y102.671 E27.47539
G1 X131.619 Y101.878 E27.5054
G1 X132.119 Y101.125 E27.53546
G1 X132.683 Y100.42 E27.56549
G1 F1500 E21.06549
G0 F6000 X139.709 Y110.232
G0 X140.554 Y110.793
G1 F1500 E27.56549
G1 F1200 X141.033 Y110.91 E27.58189
G1 X141.157 Y110.901 E27.58602
G1 X141.257 Y110.81 E27.59052
G1 X141.639 Y110.092 E27.61757
G1 X141.757 Y109.921 E27.62448
G1 X141.904 Y109.747 E27.63206
G1 X142.061 Y109.597 E27.63928
G1 X142.229 Y109.47 E27.64628
G1 X142.408 Y109.362 E27.65324
G1 X142.617 Y109.266 E27.66089
G1 X142.82 Y109.197 E27.66802
G1 X143.018 Y109.153 E27.67477
G1 X143.243 Y109.129 E27.68229
G1 X143.457 Y109.129 E27.68941
G1 X143.682 Y109.153 E27.69693
G1 X143.88 Y109.197 E27.70368
G1 X144.083 Y109.266 E27.71081
G1 X144.292 Y109.362 E27.71846
G1 X144.471 Y109.47 E27.72541
G1 X144.639 Y109.597 E27.73242
G1 X144.803 Y109.753 E27.73995
G1 X144.945 Y109.921 E27.74726
G1 X145.055 Y110.083 E27.75378
G1 X145.165 Y110.289 E27.76154
G1 X145.241 Y110.482 E27.76844
G1 X145.305 Y110.708 E27.77626
G1 X145.335 Y110.897 E27.78262
G1 X145.347 Y111.125 E27.79021
G1 X145.335 Y111.35 E27.79771
G1 X145.305 Y111.54 E27.80411
G1 X145.241 Y111.768 E27.81198
G1 X145.165 Y111.961 E27.81888
G1 X145.056 Y112.165 E27.82657
G1 X144.945 Y112.329 E27.83316
G1 X144.803 Y112.497 E27.84048
G1 X144.639 Y112.653 E27.84801
G1 X144.471 Y112.78 E27.85501
G1 X144.292 Y112.888 E27.86196
G1 X144.083 Y112.984 E27.86961
G1 X143.88 Y113.053 E27.87674
G1 X143.682 Y113.097 E27.88349
G1 X143.457 Y113.121 E27.89102
G1 X143.243 Y113.121 E27.89813
G1 X143.018 Y113.097 E27.90566
G1 X142.82 Y113.053 E27.91241
G1 X142.617 Y112.984 E27.91954
G1 X142.408 Y112.888 E27.92719
G1 X142.229 Y112.78 E27.93414
G1 X142.061 Y112.653 E27.94114
G1 X141.897 Y112.497 E27.94867
G1 X141.76 Y112.335 E27.95573
G1 X141.635 Y112.153 E27.96307
G1 X141.255 Y111.436 E27.99006
G1 X141.165 Y111.35 E27.9942
G1 X141.03 Y111.336 E27.99872
G1 X140.553 Y111.454 E28.01506
G1 X140.554 Y110.793 E28.03705
G0 F6000 X142.194 Y110.023
G1 F1200 X142.322 Y109.901 E28.04293
G1 X142.455 Y109.801 E28.04846
G1 X142.599 Y109.714 E28.05406
G1 X142.758 Y109.641 E28.05988
G1 X142.928 Y109.583 E28.06585
G1 X143.083 Y109.549 E28.07113
G1 X143.267 Y109.529 E28.07728
G1 X143.433 Y109.529 E28.08281
G1 X143.617 Y109.549 E28.08896
G1 X143.772 Y109.583 E28.09424
G1 X143.942 Y109.641 E28.10021
G1 X144.101 Y109.714 E28.10603
G1 X144.245 Y109.801 E28.11163
G1 X144.383 Y109.905 E28.11738
G1 X144.509 Y110.025 E28.12316
G1 X144.623 Y110.16 E28.12904
G1 X144.714 Y110.294 E28.13443
G1 X144.801 Y110.457 E28.14057
G1 X144.861 Y110.609 E28.14601
G1 X144.914 Y110.796 E28.15247
G1 X144.937 Y110.941 E28.15736
G1 X144.947 Y111.122 E28.16338
G1 X144.937 Y111.307 E28.16955
G1 X144.913 Y111.458 E28.17463
G1 X144.863 Y111.637 E28.18081
G1 X144.801 Y111.793 E28.1864
G1 X144.714 Y111.956 E28.19254
G1 X144.623 Y112.09 E28.19793
G1 X144.509 Y112.225 E28.20381
G1 X144.383 Y112.345 E28.20959
G1 X144.245 Y112.449 E28.21534
G1 X144.101 Y112.536 E28.22094
G1 X143.942 Y112.609 E28.22676
G1 X143.772 Y112.667 E28.23273
G1 X143.617 Y112.701 E28.23801
G1 X143.433 Y112.721 E28.24416
G1 X143.267 Y112.721 E28.24969
G1 X143.083 Y112.701 E28.25584
G1 X142.928 Y112.667 E28.26112
G1 X142.758 Y112.609 E28.26709
G1 X142.599 Y112.536 E28.27291
G1 X142.455 Y112.449 E28.27851
G1 X142.317 Y112.345 E28.28426
G1 X142.191 Y112.225 E28.29004
G1 X142.081 Y112.095 E28.29571
G1 X141.973 Y111.938 E28.30204
G1 X141.608 Y111.249 E28.32798
G1 X141.511 Y111.127 E28.33316
