;FLAVOR:Marlin
;TIME:2335
;Filament used: 0.440284m
;Layer height: 0.1
;MINX:126.5
;MINY:134
;MINZ:0.2
;MAXX:173.5
;MAXY:166
;MAXZ:13.2
;Generated with Cura_SteamEngine 4.4.1
M140 S80
M105
M190 S80
M104 S235
M105
M109 S235
M82 ;absolute extrusion mode
M201 X500.00 Y500.00 Z100.00 E5000.00 ;Setup machine max acceleration
M203 X500.00 Y500.00 Z10.00 E50.00 ;Setup machine max feedrate
M204 P500.00 R1000.00 T500.00 ;Setup Print/Retract/Travel acceleration
M205 X8.00 Y8.00 Z0.40 E5.00 ;Setup Jerk
M220 S100 ;Reset Feedrate
M221 S100 ;Reset Flowrate

G28 ;Home

G92 E0 ;Reset Extruder
G1 Z2.0 F3000 ;Move Z Axis up
G1 X10.1 Y20 Z0.28 F5000.0 ;Move to start position
G1 X10.1 Y200.0 Z0.28 F1500.0 E15 ;Draw the first line
G1 X10.4 Y200.0 Z0.28 F5000.0 ;Move to side a little
G1 X10.4 Y20 Z0.28 F1500.0 E30 ;Draw the second line
G92 E0 ;Reset Extruder
G1 Z2.0 F3000 ;Move Z Axis up

G92 E0
G92 E0
G1 F1500 E-6.5
;LAYER_COUNT:131
;LAYER:0
M107
G0 F6000 X129.698 Y137.264 Z0.2
;TYPE:SKIRT
G1 F1500 E0
G1 F1200 X130.386 Y136.627 E0.03119
G1 X131.126 Y136.051 E0.06237
G1 X131.912 Y135.539 E0.09357
G1 X132.739 Y135.097 E0.12476
G1 X133.601 Y134.727 E0.15596
G1 X134.491 Y134.431 E0.18716
G1 X135.403 Y134.213 E0.21835
G1 X136.33 Y134.072 E0.24953
G1 X137.201 Y134.013 E0.27857
G1 X137.522 Y134.004 E0.28925
G1 X137.83 Y134 E0.29949
G1 X161.793 Y134 E1.09651
G1 X161.951 Y134.001 E1.10176
G1 X162.649 Y134.011 E1.12498
G1 X163.585 Y134.065 E1.15616
G1 X164.513 Y134.197 E1.18734
G1 X165.427 Y134.409 E1.21855
G1 X166.319 Y134.698 E1.24973
G1 X167.184 Y135.061 E1.28093
G1 X168.014 Y135.497 E1.31212
G1 X168.805 Y136.002 E1.34333
G1 X169.549 Y136.573 E1.37452
G1 X170.242 Y137.205 E1.40572
G1 X170.879 Y137.893 E1.4369
G1 X171.454 Y138.634 E1.4681
G1 X171.965 Y139.42 E1.49928
G1 X172.407 Y140.248 E1.5305
G1 X172.776 Y141.11 E1.56168
G1 X173.071 Y142 E1.59287
G1 X173.289 Y142.912 E1.62406
G1 X173.429 Y143.84 E1.65527
G1 X173.487 Y144.701 E1.68397
G1 X173.496 Y145.021 E1.69462
G1 X173.5 Y145.33 E1.7049
G1 X173.5 Y154.264 E2.00205
G1 X173.499 Y154.4 E2.00657
G1 X173.49 Y155.127 E2.03075
G1 X173.439 Y156.064 E2.06196
G1 X173.307 Y156.992 E2.09314
G1 X173.098 Y157.906 E2.12432
G1 X172.811 Y158.799 E2.15552
G1 X172.449 Y159.665 E2.18674
G1 X172.015 Y160.496 E2.21792
G1 X171.511 Y161.287 E2.24912
G1 X170.942 Y162.032 E2.28029
G1 X170.311 Y162.727 E2.31152
G1 X169.624 Y163.365 E2.3427
G1 X168.885 Y163.942 E2.37388
G1 X168.099 Y164.454 E2.40508
G1 X167.273 Y164.897 E2.43626
G1 X166.411 Y165.269 E2.46748
G1 X165.522 Y165.565 E2.49865
G1 X164.61 Y165.785 E2.52985
G1 X163.683 Y165.926 E2.56104
G1 X162.799 Y165.987 E2.59051
G1 X162.478 Y165.996 E2.60119
G1 X162.17 Y166 E2.61144
G1 X138.207 Y166 E3.40845
G1 X138.065 Y165.999 E3.41317
G1 X137.367 Y165.99 E3.43639
G1 X136.431 Y165.938 E3.46757
G1 X135.502 Y165.806 E3.49878
G1 X134.588 Y165.596 E3.52997
G1 X133.695 Y165.309 E3.56117
G1 X132.83 Y164.946 E3.59237
G1 X131.999 Y164.512 E3.62355
G1 X131.208 Y164.008 E3.65474
G1 X130.463 Y163.438 E3.68594
G1 X129.769 Y162.807 E3.71714
G1 X129.132 Y162.12 E3.7483
G1 X128.555 Y161.38 E3.77951
G1 X128.043 Y160.594 E3.81071
G1 X127.6 Y159.767 E3.84192
G1 X127.229 Y158.906 E3.8731
G1 X126.933 Y158.016 E3.90429
G1 X126.714 Y157.104 E3.93549
G1 X126.573 Y156.177 E3.96668
G1 X126.513 Y155.288 E3.99631
G1 X126.504 Y154.955 E4.00739
G1 X126.5 Y154.658 E4.01727
G1 X126.5 Y145.674 E4.31608
G1 X126.501 Y145.525 E4.32104
G1 X126.51 Y144.86 E4.34316
G1 X126.563 Y143.924 E4.37434
G1 X126.695 Y142.995 E4.40555
G1 X126.906 Y142.081 E4.43675
G1 X127.194 Y141.189 E4.46792
G1 X127.557 Y140.324 E4.49912
G1 X127.992 Y139.493 E4.53032
G1 X128.496 Y138.703 E4.56149
G1 X129.066 Y137.958 E4.59269
G1 X129.698 Y137.264 E4.62391
G0 F6000 X130.089 Y137.439
G1 F1200 X130.774 Y136.823 E4.65455
G1 X131.51 Y136.27 E4.68516
G1 X132.291 Y135.782 E4.7158
G1 X133.111 Y135.364 E4.74641
G1 X133.965 Y135.019 E4.77704
G1 X134.845 Y134.749 E4.80766
G1 X135.745 Y134.557 E4.83827
G1 X136.659 Y134.443 E4.8689
G1 X137.212 Y134.413 E4.88732
G1 X137.533 Y134.404 E4.898
G1 X137.83 Y134.4 E4.90788
G1 X161.793 Y134.4 E5.70489
G1 X161.945 Y134.401 E5.70995
G1 X162.643 Y134.411 E5.73317
G1 X163.562 Y134.464 E5.76378
G1 X164.473 Y134.597 E5.7944
G1 X165.369 Y134.808 E5.82502
G1 X166.243 Y135.096 E5.85563
G1 X167.09 Y135.459 E5.88628
G1 X167.901 Y135.894 E5.91689
G1 X168.671 Y136.398 E5.94749
G1 X169.395 Y136.967 E5.97812
G1 X170.067 Y137.597 E6.00876
G1 X170.682 Y138.282 E6.03938
G1 X171.235 Y139.018 E6.07
G1 X171.722 Y139.799 E6.10061
G1 X172.139 Y140.62 E6.13124
G1 X172.484 Y141.474 E6.16187
G1 X172.753 Y142.354 E6.19248
G1 X172.945 Y143.255 E6.22312
G1 X173.058 Y144.168 E6.25371
G1 X173.087 Y144.712 E6.27183
G1 X173.096 Y145.032 E6.28248
G1 X173.1 Y145.33 E6.29239
G1 X173.1 Y154.264 E6.58954
G1 X173.099 Y154.395 E6.5939
G1 X173.09 Y155.122 E6.61808
G1 X173.039 Y156.041 E6.64869
G1 X172.908 Y156.953 E6.67934
G1 X172.698 Y157.849 E6.70995
G1 X172.412 Y158.724 E6.74056
G1 X172.051 Y159.571 E6.77119
G1 X171.617 Y160.383 E6.80181
G1 X171.115 Y161.155 E6.83244
G1 X170.547 Y161.88 E6.86307
G1 X169.919 Y162.553 E6.89369
G1 X169.235 Y163.169 E6.9243
G1 X168.5 Y163.723 E6.95491
G1 X167.72 Y164.212 E6.98553
G1 X166.9 Y164.631 E7.01616
G1 X166.047 Y164.977 E7.04678
G1 X165.167 Y165.248 E7.0774
G1 X164.267 Y165.441 E7.10802
G1 X163.353 Y165.556 E7.13866
G1 X162.788 Y165.587 E7.15748
G1 X162.467 Y165.596 E7.16816
G1 X162.17 Y165.6 E7.17804
G1 X138.207 Y165.6 E7.97505
G1 X138.07 Y165.599 E7.97961
G1 X137.372 Y165.59 E8.00282
G1 X136.453 Y165.538 E8.03344
G1 X135.542 Y165.407 E8.06405
G1 X134.646 Y165.197 E8.09466
G1 X133.771 Y164.91 E8.12529
G1 X132.924 Y164.548 E8.15592
G1 X132.112 Y164.114 E8.18655
G1 X131.341 Y163.612 E8.21715
G1 X130.616 Y163.044 E8.24778
G1 X129.943 Y162.415 E8.27842
G1 X129.328 Y161.731 E8.30901
G1 X128.774 Y160.996 E8.33962
G1 X128.286 Y160.215 E8.37025
G1 X127.867 Y159.395 E8.40088
G1 X127.521 Y158.542 E8.4315
G1 X127.251 Y157.662 E8.46211
G1 X127.058 Y156.761 E8.49276
G1 X126.944 Y155.848 E8.52336
G1 X126.913 Y155.277 E8.54238
G1 X126.904 Y154.944 E8.55346
G1 X126.9 Y154.658 E8.56298
G1 X126.9 Y145.674 E8.86178
G1 X126.901 Y145.531 E8.86654
G1 X126.91 Y144.866 E8.88866
G1 X126.962 Y143.946 E8.91931
G1 X127.094 Y143.035 E8.94993
G1 X127.305 Y142.139 E8.98054
G1 X127.592 Y141.264 E9.01117
G1 X127.955 Y140.418 E9.04179
G1 X128.389 Y139.606 E9.07241
G1 X128.892 Y138.835 E9.10303
G1 X129.461 Y138.111 E9.13366
G1 X130.089 Y137.439 E9.16425
G0 F6000 X130.481 Y137.617
G1 F1200 X131.162 Y137.024 E9.19428
G1 X131.894 Y136.494 E9.22434
G1 X132.669 Y136.031 E9.25437
G1 X133.482 Y135.638 E9.2844
G1 X134.327 Y135.318 E9.31445
G1 X135.196 Y135.075 E9.34447
G1 X136.084 Y134.909 E9.37451
G1 X137.223 Y134.813 E9.41253
G1 X137.544 Y134.804 E9.42321
G1 X137.83 Y134.8 E9.43272
G1 X161.793 Y134.8 E10.22974
G1 X161.939 Y134.801 E10.23459
G1 X162.637 Y134.811 E10.25781
G1 X163.539 Y134.864 E10.28786
G1 X164.432 Y134.996 E10.31789
G1 X165.31 Y135.207 E10.34792
G1 X166.166 Y135.495 E10.37796
G1 X166.993 Y135.857 E10.40799
G1 X167.785 Y136.292 E10.43804
G1 X168.536 Y136.794 E10.46808
G1 X169.239 Y137.361 E10.49812
G1 X169.889 Y137.988 E10.52816
G1 X170.481 Y138.67 E10.5582
G1 X171.011 Y139.401 E10.58823
G1 X171.473 Y140.177 E10.61827
G1 X171.866 Y140.99 E10.6483
G1 X172.184 Y141.835 E10.67833
G1 X172.427 Y142.705 E10.70837
G1 X172.592 Y143.593 E10.73841
G1 X172.687 Y144.723 E10.77613
G1 X172.696 Y145.043 E10.78678
G1 X172.7 Y145.33 E10.79633
G1 X172.7 Y154.264 E11.09347
G1 X172.699 Y154.39 E11.09766
G1 X172.69 Y155.117 E11.12184
G1 X172.639 Y156.019 E11.15189
G1 X172.508 Y156.913 E11.18195
G1 X172.299 Y157.791 E11.21196
G1 X172.013 Y158.648 E11.24201
G1 X171.652 Y159.476 E11.27206
G1 X171.22 Y160.268 E11.30206
G1 X170.719 Y161.02 E11.33212
G1 X170.153 Y161.724 E11.36216
G1 X169.528 Y162.375 E11.39218
G1 X168.847 Y162.969 E11.42223
G1 X168.116 Y163.5 E11.45228
G1 X167.342 Y163.964 E11.4823
G1 X166.529 Y164.358 E11.51235
G1 X165.685 Y164.678 E11.54237
G1 X164.815 Y164.923 E11.57243
G1 X163.928 Y165.089 E11.60244
G1 X162.777 Y165.187 E11.64086
G1 X162.456 Y165.196 E11.65154
G1 X162.17 Y165.2 E11.66106
G1 X138.207 Y165.2 E12.45807
G1 X138.075 Y165.199 E12.46246
G1 X137.377 Y165.19 E12.48568
G1 X136.476 Y165.139 E12.51569
G1 X135.582 Y165.007 E12.54575
G1 X134.704 Y164.798 E12.57577
G1 X133.847 Y164.511 E12.60583
G1 X133.02 Y164.15 E12.63584
G1 X132.227 Y163.717 E12.66589
G1 X131.476 Y163.216 E12.69592
G1 X130.772 Y162.65 E12.72596
G1 X130.121 Y162.024 E12.756
G1 X129.528 Y161.343 E12.78604
G1 X128.998 Y160.612 E12.81607
G1 X128.534 Y159.837 E12.84611
G1 X128.14 Y159.024 E12.87616
G1 X127.82 Y158.18 E12.90618
G1 X127.576 Y157.31 E12.93623
G1 X127.41 Y156.422 E12.96628
G1 X127.313 Y155.267 E13.00483
G1 X127.304 Y154.934 E13.01591
G1 X127.3 Y154.658 E13.02509
G1 X127.3 Y145.674 E13.3239
G1 X127.301 Y145.536 E13.32849
G1 X127.31 Y144.871 E13.35061
G1 X127.362 Y143.969 E13.38066
G1 X127.494 Y143.076 E13.41068
G1 X127.704 Y142.198 E13.44071
G1 X127.991 Y141.341 E13.47077
G1 X128.353 Y140.514 E13.5008
G1 X128.786 Y139.722 E13.53082
G1 X129.288 Y138.971 E13.56086
G1 X129.855 Y138.267 E13.59093
G1 X130.481 Y137.617 E13.62094
G1 F1500 E7.12094
;MESH:Keyboard_Prong.stl
G0 F6000 X137.914 Y144.335
G0 X137.914 Y145.414
G0 X138.5 Y154
;TYPE:WALL-INNER
G1 F1500 E13.62094
G1 F1200 X138.5 Y146 E13.88702
G1 X161.5 Y146 E14.65201
G1 X161.5 Y154 E14.91809
G1 X138.5 Y154 E15.68307
G0 F6000 X138.1 Y154.4
G1 F1200 X138.1 Y145.6 E15.97576
G1 X161.9 Y145.6 E16.76735
G1 X161.9 Y154.4 E17.06004
G1 X138.1 Y154.4 E17.85163
G0 F6000 X137.7 Y154.8
;TYPE:WALL-OUTER
G1 F1200 X137.7 Y145.2 E18.17093
G1 X162.3 Y145.2 E18.98913
G1 X162.3 Y154.8 E19.30843
G1 X137.7 Y154.8 E20.12663
G0 F6000 X137.97 Y154.53
G0 X138.61 Y153.61
G0 X138.89 Y153.61
;TYPE:SKIN
G1 F1200 X138.89 Y146.39 E20.36676
G1 X161.11 Y146.39 E21.1058
G1 X161.11 Y153.61 E21.34594
G1 X138.89 Y153.61 E22.08498
G0 F6000 X139.307 Y153.449
G1 F1200 X139.049 Y153.191 E22.09712
G0 F6000 X139.049 Y152.626
G1 F1200 X139.872 Y153.449 E22.13583
G0 F6000 X140.438 Y153.449
G1 F1200 X139.049 Y152.06 E22.20116
G0 F6000 X139.049 Y151.494
G1 F1200 X141.004 Y153.449 E22.29312
G0 F6000 X141.569 Y153.449
G1 F1200 X139.049 Y150.929 E22.41165
G0 F6000 X139.049 Y150.363
G1 F1200 X142.135 Y153.449 E22.55681
G0 F6000 X142.701 Y153.449
G1 F1200 X139.049 Y149.797 E22.72859
G0 F6000 X139.049 Y149.232
G1 F1200 X143.266 Y153.449 E22.92694
G0 F6000 X143.832 Y153.449
G1 F1200 X139.049 Y148.666 E23.15192
G0 F6000 X139.049 Y148.1
G1 F1200 X144.398 Y153.449 E23.40352
G0 F6000 X144.963 Y153.449
G1 F1200 X139.049 Y147.535 E23.6817
G0 F6000 X139.049 Y146.969
G1 F1200 X145.529 Y153.449 E23.9865
G0 F6000 X146.095 Y153.449
G1 F1200 X139.196 Y146.55 E24.31101
G0 F6000 X139.761 Y146.55
G1 F1200 X146.661 Y153.449 E24.63554
G0 F6000 X147.226 Y153.449
G1 F1200 X140.327 Y146.55 E24.96004
G0 F6000 X140.893 Y146.55
G1 F1200 X147.792 Y153.449 E25.28455
G0 F6000 X148.358 Y153.449
G1 F1200 X141.458 Y146.55 E25.60908
G0 F6000 X142.024 Y146.55
G1 F1200 X148.923 Y153.449 E25.93359
G0 F6000 X149.489 Y153.449
G1 F1200 X142.59 Y146.55 E26.2581
G0 F6000 X143.155 Y146.55
G1 F1200 X150.055 Y153.449 E26.58263
G0 F6000 X150.62 Y153.449
G1 F1200 X143.721 Y146.55 E26.90714
G0 F6000 X144.287 Y146.55
G1 F1200 X151.186 Y153.449 E27.23165
G0 F6000 X151.752 Y153.449
G1 F1200 X144.852 Y146.55 E27.55618
G0 F6000 X145.418 Y146.55
G1 F1200 X152.317 Y153.449 E27.88069
G0 F6000 X152.883 Y153.449
G1 F1200 X145.984 Y146.55 E28.20519
G0 F6000 X146.55 Y146.55
G1 F1200 X153.449 Y153.449 E28.5297
G0 F6000 X154.014 Y153.449
G1 F1200 X147.115 Y146.55 E28.85421
G0 F6000 X147.681 Y146.55
G1 F1200 X154.58 Y153.449 E29.17872
G0 F6000 X155.146 Y153.449
G1 F1200 X148.247 Y146.55 E29.50322
G0 F6000 X148.812 Y146.55
G1 F1200 X155.711 Y153.449 E29.82773
G0 F6000 X156.277 Y153.449
G1 F1200 X149.378 Y146.55 E30.15224
G0 F6000 X149.944 Y146.55
G1 F1200 X156.843 Y153.449 E30.47675
G0 F6000 X157.409 Y153.449
G1 F1200 X150.509 Y146.55 E30.80128
G0 F6000 X151.075 Y146.55
G1 F1200 X157.974 Y153.449 E31.12579
G0 F6000 X158.54 Y153.449
G1 F1200 X151.641 Y146.55 E31.45029
G0 F6000 X152.206 Y146.55
G1 F1200 X159.106 Y153.449 E31.77483
G0 F6000 X159.671 Y153.449
G1 F1200 X152.772 Y146.55 E32.09933
G0 F6000 X153.338 Y146.55
G1 F1200 X160.237 Y153.449 E32.42384
G0 F6000 X160.803 Y153.449
G1 F1200 X153.903 Y146.55 E32.74837
G0 F6000 X154.469 Y146.55
G1 F1200 X160.949 Y153.029 E33.05315
G0 F6000 X160.949 Y152.464
G1 F1200 X155.035 Y146.55 E33.33132
G0 F6000 X155.6 Y146.55
G1 F1200 X160.949 Y151.898 E33.5829
G0 F6000 X160.949 Y151.332
G1 F1200 X156.166 Y146.55 E33.80786
G0 F6000 X156.732 Y146.55
G1 F1200 X160.949 Y150.767 E34.00621
G0 F6000 X160.949 Y150.201
G1 F1200 X157.298 Y146.55 E34.17794
G0 F6000 X157.863 Y146.55
G1 F1200 X160.949 Y149.635 E34.32308
G0 F6000 X160.949 Y149.07
G1 F1200 X158.429 Y146.55 E34.44161
G0 F6000 X158.995 Y146.55
G1 F1200 X160.949 Y148.504 E34.53352
G0 F6000 X160.949 Y147.938
G1 F1200 X159.56 Y146.55 E34.59883
G0 F6000 X160.126 Y146.55
G1 F1200 X160.949 Y147.373 E34.63754
G0 F6000 X160.949 Y146.807
G1 F1200 X160.692 Y146.55 E34.64963
G0 F6000 X160.692 Y145.81
;MESH:NONMESH
G0 F300 X160.692 Y145.81 Z0.3
G0 F6000 X138.682 Y146.182
G0 X138.5 Y154
;TIME_ELAPSED:62.577162
;LAYER:1
M140 S80
M106 S85
;TYPE:WALL-INNER
;MESH:Keyboard_Prong.stl
G1 F975 X138.5 Y146 E34.78267
G1 X161.5 Y146 E35.16516
G1 X161.5 Y154 E35.2982
G1 X138.5 Y154 E35.68069
G0 F7500 X138.1 Y154.4
G1 F975 X138.1 Y145.6 E35.82704
G1 X161.9 Y145.6 E36.22283
G1 X161.9 Y154.4 E36.36918
G1 X138.1 Y154.4 E36.76497
G0 F7500 X137.7 Y154.8
;TYPE:WALL-OUTER
G1 F975 X137.7 Y145.2 E36.92462
G1 X162.3 Y145.2 E37.33372
G1 X162.3 Y154.8 E37.49337
G1 X137.7 Y154.8 E37.90247
G0 F7500 X137.97 Y154.53
G0 X138.61 Y153.61
G0 X138.89 Y153.61
;TYPE:SKIN
G1 F975 X138.89 Y146.39 E38.02254
G1 X161.11 Y146.39 E38.39206
G1 X161.11 Y153.61 E38.51213
G1 X138.89 Y153.61 E38.88165
G0 F7500 X138.61 Y153.61
G0 X138.61 Y146.621
G0 X139.049 Y146.621
G1 F975 X139.121 Y146.549 E38.88334
G0 F7500 X139.687 Y146.549
G1 F975 X139.049 Y147.187 E38.89835
G0 F7500 X139.049 Y147.752
G1 F975 X140.253 Y146.549 E38.92665
G0 F7500 X140.818 Y146.549
G1 F975 X139.049 Y148.318 E38.96826
G0 F7500 X139.049 Y148.884
G1 F975 X141.384 Y146.549 E39.02317
G0 F7500 X141.95 Y146.549
G1 F975 X139.049 Y149.449 E39.09139
G0 F7500 X139.049 Y150.015
G1 F975 X142.515 Y146.549 E39.1729
G0 F7500 X143.081 Y146.549
G1 F975 X139.049 Y150.581 E39.26773
G0 F7500 X139.049 Y151.146
G1 F975 X143.647 Y146.549 E39.37585
G0 F7500 X144.213 Y146.549
G1 F975 X139.049 Y151.712 E39.49729
G0 F7500 X139.049 Y152.278
G1 F975 X144.778 Y146.549 E39.63203
G0 F7500 X145.344 Y146.549
G1 F975 X139.049 Y152.843 E39.78007
G0 F7500 X139.049 Y153.409
G1 F975 X145.91 Y146.549 E39.94141
G0 F7500 X146.475 Y146.549
G1 F975 X139.575 Y153.449 E40.10369
G0 F7500 X140.14 Y153.449
G1 F975 X147.041 Y146.549 E40.26598
G0 F7500 X147.607 Y146.549
G1 F975 X140.706 Y153.449 E40.42827
G0 F7500 X141.272 Y153.449
G1 F975 X148.172 Y146.549 E40.59055
G0 F7500 X148.738 Y146.549
G1 F975 X141.837 Y153.449 E40.75284
G0 F7500 X142.403 Y153.449
G1 F975 X149.304 Y146.549 E40.91513
G0 F7500 X149.869 Y146.549
G1 F975 X142.969 Y153.449 E41.0774
G0 F7500 X143.534 Y153.449
G1 F975 X150.435 Y146.549 E41.23969
G0 F7500 X151.001 Y146.549
G1 F975 X144.1 Y153.449 E41.40198
G0 F7500 X144.666 Y153.449
G1 F975 X151.566 Y146.549 E41.56426
G0 F7500 X152.132 Y146.549
G1 F975 X145.231 Y153.449 E41.72655
G0 F7500 X145.797 Y153.449
G1 F975 X152.698 Y146.549 E41.88884
G0 F7500 X153.263 Y146.549
G1 F975 X146.363 Y153.449 E42.05111
G0 F7500 X146.929 Y153.449
G1 F975 X153.829 Y146.549 E42.21339
G0 F7500 X154.395 Y146.549
G1 F975 X147.494 Y153.449 E42.37568
G0 F7500 X148.06 Y153.449
G1 F975 X154.961 Y146.549 E42.53797
G0 F7500 X155.526 Y146.549
G1 F975 X148.626 Y153.449 E42.70025
G0 F7500 X149.191 Y153.449
G1 F975 X156.092 Y146.549 E42.86254
G0 F7500 X156.658 Y146.549
G1 F975 X149.757 Y153.449 E43.02483
G0 F7500 X150.323 Y153.449
